(G-CODE GENERATED BY FLATCAM v8.991 - www.flatcam.org - Version Date: 2019/12/30)

(Name: Cncjob_Bottom_Copper_straightend)
(Type: G-code from Geometry)
(Units: MM)

(Created on Friday, 10 March 2023 at 15:48)

(TOOL DIAMETER: 1.5 mm)
(Feedrate: 1250.0 mm/min)
(Feedrate_Z: 250.0 mm/min)
(Feedrate rapids 1500.0 mm/min)

(Z_Cut: -0.04 mm)
(Z_Move: 0.5 mm)
(Z Toolchange: 15.0 mm)
(X,Y Toolchange: 0.0000, 0.0000 mm)
(Z Start: 0.5 mm)
(Z End: 2.0 mm)
(Steps per circle: 64)
(Preprocessor Geometry: default)

(X range:   23.6724 ...  137.7736  mm)
(Y range:    8.4266 ...  149.2687  mm)

(Spindle Speed: None RPM)
G21
G90
G94




G01 F1250.00
G00 Z0.5000
G00 Z0.5000
M03
G4 P1.0
G00 X63.4040 Y15.4137
G01 F250.00
G01 Z-0.0400
G01 F1250.00
G01 X63.4287 Y15.4423
G01 X63.4433 Y15.4601
G01 X63.4606 Y15.4827
G01 X63.4875 Y15.4656
G01 X63.5738 Y15.4137
G01 X63.4875 Y15.3619
G01 X63.4606 Y15.3448
G01 X63.4433 Y15.3674
G01 X63.4287 Y15.3852
G01 X63.4040 Y15.4137
G00 Z0.5000
G00 X65.8933 Y15.3459
G01 F250.00
G01 Z-0.0400
G01 F1250.00
G01 X65.8681 Y15.3619
G01 X65.7818 Y15.4137
G01 X65.8681 Y15.4656
G01 X65.8933 Y15.4816
G01 X65.9098 Y15.4601
G01 X65.9243 Y15.4423
G01 X65.9491 Y15.4137
G01 X65.9243 Y15.3852
G01 X65.9098 Y15.3674
G01 X65.8933 Y15.3459
G00 Z0.5000
G00 X66.3735 Y30.4025
G01 F250.00
G01 Z-0.0400
G01 F1250.00
G01 X67.1085 Y30.4025
G01 X67.2650 Y30.2463
G01 X67.2650 Y30.2394
G01 X66.3737 Y30.2395
G01 X66.3735 Y30.4025
G01 X67.7809 Y30.4520
G01 X67.7785 Y30.4284
G01 X67.7761 Y30.3933
G01 X67.7750 Y30.3489
G01 X67.7750 Y29.6578
G01 X67.6698 Y29.6841
G01 X67.6467 Y29.6893
G01 X67.6238 Y29.6939
G01 X67.5876 Y29.7000
G01 X67.4821 Y29.7156
G01 X67.4562 Y29.7189
G01 X67.4130 Y29.7227
G01 X67.2999 Y29.7284
G01 X67.2689 Y29.7294
G01 X66.2526 Y29.7295
G01 X66.2250 Y29.7291
G01 X66.0982 Y29.7230
G01 X66.0733 Y29.7212
G01 X66.0498 Y29.7189
G01 X66.0154 Y29.7144
G01 X65.9184 Y29.7000
G01 X65.8869 Y29.6948
G01 X65.8630 Y29.6901
G01 X65.8630 Y30.9519
G01 X65.8869 Y30.9472
G01 X65.9184 Y30.9420
G01 X66.0154 Y30.9276
G01 X66.0498 Y30.9231
G01 X66.0733 Y30.9208
G01 X66.0982 Y30.9190
G01 X66.2279 Y30.9128
G01 X66.2526 Y30.9125
G01 X67.2534 Y30.9125
G01 X67.2810 Y30.9129
G01 X67.3175 Y30.9145
G01 X67.7809 Y30.4520
G00 Z0.5000
G00 X73.4351 Y72.2154
G01 F250.00
G01 Z-0.0400
G01 F1250.00
G01 X74.4994 Y71.1510
G01 X74.6829 Y71.1515
G01 X74.6710 Y71.1946
G01 X74.6444 Y71.3005
G01 X74.6381 Y71.3269
G01 X74.6316 Y71.3563
G01 X74.6256 Y71.3866
G01 X74.6196 Y71.4212
G01 X74.6005 Y71.5493
G01 X74.5959 Y71.5851
G01 X74.5929 Y71.6142
G01 X74.5890 Y71.6639
G01 X74.5824 Y71.7987
G01 X74.5816 Y71.8345
G01 X74.5816 Y71.8655
G01 X74.5827 Y71.9093
G01 X74.5881 Y72.0196
G01 X74.5898 Y72.0480
G01 X74.5923 Y72.0796
G01 X74.5954 Y72.1104
G01 X74.5995 Y72.1433
G01 X74.6188 Y72.2741
G01 X74.6247 Y72.3087
G01 X74.6304 Y72.3376
G01 X74.6414 Y72.3873
G01 X74.6728 Y72.5123
G01 X74.6831 Y72.5493
G01 X74.6958 Y72.5904
G01 X74.0442 Y72.5904
G01 X74.0092 Y72.5616
G01 X73.9827 Y72.5408
G01 X73.8790 Y72.4639
G01 X73.8393 Y72.4360
G01 X73.8146 Y72.4195
G01 X73.7832 Y72.3997
G01 X73.6722 Y72.3331
G01 X73.6412 Y72.3155
G01 X73.6153 Y72.3015
G01 X73.5832 Y72.2851
G01 X73.5620 Y72.2748
G01 X73.4678 Y72.2302
G01 X73.4351 Y72.2154
G01 X72.4038 Y72.5253
G01 X74.2888 Y70.6404
G01 X75.5123 Y70.6411
G01 X75.4415 Y70.7366
G01 X75.4285 Y70.7549
G01 X75.4156 Y70.7740
G01 X75.3950 Y70.8068
G01 X75.3445 Y70.8910
G01 X75.3261 Y70.9232
G01 X75.3151 Y70.9438
G01 X75.3006 Y70.9731
G01 X75.2587 Y71.0618
G01 X75.2443 Y71.0939
G01 X75.2352 Y71.1156
G01 X75.2264 Y71.1387
G01 X75.1867 Y71.2497
G01 X75.1770 Y71.2792
G01 X75.1661 Y71.3170
G01 X75.1391 Y71.4244
G01 X75.1306 Y71.4616
G01 X75.1262 Y71.4843
G01 X75.1224 Y71.5068
G01 X75.1054 Y71.6212
G01 X75.1021 Y71.6472
G01 X75.0998 Y71.6707
G01 X75.0975 Y71.7055
G01 X75.0923 Y71.8126
G01 X75.0916 Y71.8408
G01 X75.0916 Y71.8641
G01 X75.0926 Y71.8966
G01 X75.0975 Y71.9945
G01 X75.1003 Y72.0345
G01 X75.1026 Y72.0573
G01 X75.1066 Y72.0872
G01 X75.1210 Y72.1842
G01 X75.1271 Y72.2204
G01 X75.1317 Y72.2433
G01 X75.1391 Y72.2756
G01 X75.1630 Y72.3707
G01 X75.1717 Y72.4031
G01 X75.1786 Y72.4259
G01 X75.1867 Y72.4503
G01 X75.2264 Y72.5614
G01 X75.2372 Y72.5892
G01 X75.2531 Y72.6262
G01 X75.3006 Y72.7269
G01 X75.3174 Y72.7606
G01 X75.3284 Y72.7811
G01 X75.3445 Y72.8090
G01 X75.3999 Y72.9013
G01 X75.4128 Y72.9217
G01 X75.4285 Y72.9451
G01 X75.4467 Y72.9706
G01 X75.5103 Y73.0563
G01 X75.5266 Y73.0772
G01 X75.5459 Y73.1004
G01 X73.8463 Y73.1004
G01 X73.8319 Y73.0862
G01 X73.8082 Y73.0639
G01 X73.7356 Y72.9980
G01 X73.7057 Y72.9721
G01 X73.6878 Y72.9576
G01 X73.6705 Y72.9442
G01 X73.5848 Y72.8805
G01 X73.5593 Y72.8623
G01 X73.5402 Y72.8494
G01 X73.5074 Y72.8288
G01 X73.4232 Y72.7784
G01 X73.3952 Y72.7622
G01 X73.3748 Y72.7512
G01 X73.3411 Y72.7345
G01 X73.2524 Y72.6925
G01 X73.2246 Y72.6799
G01 X73.1985 Y72.6691
G01 X73.1664 Y72.6569
G01 X73.0740 Y72.6238
G01 X73.0401 Y72.6124
G01 X73.0173 Y72.6055
G01 X72.9849 Y72.5968
G01 X72.8807 Y72.5708
G01 X72.8575 Y72.5655
G01 X72.8299 Y72.5600
G01 X72.7984 Y72.5548
G01 X72.6929 Y72.5392
G01 X72.6670 Y72.5360
G01 X72.6435 Y72.5336
G01 X72.6087 Y72.5313
G01 X72.4918 Y72.5257
G01 X72.4680 Y72.5253
G01 X72.4038 Y72.5253
G00 Z0.5000
G00 X93.8075 Y67.9791
G01 F250.00
G01 Z-0.0400
G01 F1250.00
G01 X94.1424 Y67.9794
G01 X97.0458 Y65.0760
G01 X97.0458 Y64.1394
G01 X97.0204 Y64.1647
G01 X97.0217 Y64.1926
G01 X97.0224 Y64.2159
G01 X97.0224 Y64.2392
G01 X97.0219 Y64.2625
G01 X97.0160 Y64.3844
G01 X97.0142 Y64.4093
G01 X97.0113 Y64.4373
G01 X97.0074 Y64.4672
G01 X96.9930 Y64.5642
G01 X96.9869 Y64.6004
G01 X96.9823 Y64.6233
G01 X96.9771 Y64.6465
G01 X96.9490 Y64.7587
G01 X96.9435 Y64.7789
G01 X96.9370 Y64.8008
G01 X96.9273 Y64.8303
G01 X96.8909 Y64.9322
G01 X96.8768 Y64.9692
G01 X96.8679 Y64.9904
G01 X96.8590 Y65.0104
G01 X96.8093 Y65.1153
G01 X96.7966 Y65.1406
G01 X96.7766 Y65.1770
G01 X96.7190 Y65.2732
G01 X96.6984 Y65.3060
G01 X96.6855 Y65.3251
G01 X96.6725 Y65.3435
G01 X96.6037 Y65.4363
G01 X96.5903 Y65.4536
G01 X96.5757 Y65.4715
G01 X96.5563 Y65.4941
G01 X96.4777 Y65.5808
G01 X96.4617 Y65.5978
G01 X96.4452 Y65.6143
G01 X96.4181 Y65.6399
G01 X96.3342 Y65.7157
G01 X96.3012 Y65.7434
G01 X96.2734 Y65.7649
G01 X96.1874 Y65.8285
G01 X96.1691 Y65.8415
G01 X96.1500 Y65.8544
G01 X96.1172 Y65.8750
G01 X96.0330 Y65.9255
G01 X96.0050 Y65.9416
G01 X95.9846 Y65.9526
G01 X95.9637 Y65.9632
G01 X95.8622 Y66.0113
G01 X95.8301 Y66.0257
G01 X95.7902 Y66.0418
G01 X95.6838 Y66.0800
G01 X95.6448 Y66.0930
G01 X95.6229 Y66.0995
G01 X95.6027 Y66.1050
G01 X95.4996 Y66.1309
G01 X95.4624 Y66.1394
G01 X95.4219 Y66.1469
G01 X95.3112 Y66.1634
G01 X95.2768 Y66.1679
G01 X95.2533 Y66.1702
G01 X95.2284 Y66.1720
G01 X95.1114 Y66.1777
G01 X95.0881 Y66.1784
G01 X95.0648 Y66.1784
G01 X95.0366 Y66.1777
G01 X94.9295 Y66.1725
G01 X94.8895 Y66.1697
G01 X94.8667 Y66.1674
G01 X94.8452 Y66.1646
G01 X94.7308 Y66.1476
G01 X94.7083 Y66.1438
G01 X94.6856 Y66.1394
G01 X94.6575 Y66.1331
G01 X94.5453 Y66.1050
G01 X94.5251 Y66.0995
G01 X94.5032 Y66.0930
G01 X94.4642 Y66.0800
G01 X94.3578 Y66.0418
G01 X94.3178 Y66.0257
G01 X94.2858 Y66.0113
G01 X94.1887 Y65.9654
G01 X94.1678 Y65.9549
G01 X94.1472 Y65.9439
G01 X94.1150 Y65.9255
G01 X94.0308 Y65.8750
G01 X94.0009 Y65.8563
G01 X94.0194 Y65.8931
G01 X94.0669 Y65.9938
G01 X94.0828 Y66.0308
G01 X94.0969 Y66.0678
G01 X94.1333 Y66.1697
G01 X94.1414 Y66.1941
G01 X94.1483 Y66.2169
G01 X94.1570 Y66.2493
G01 X94.1808 Y66.3444
G01 X94.1893 Y66.3816
G01 X94.1938 Y66.4043
G01 X94.1976 Y66.4268
G01 X94.2152 Y66.5457
G01 X94.2197 Y66.5855
G01 X94.2225 Y66.6255
G01 X94.2277 Y66.7326
G01 X94.2284 Y66.7559
G01 X94.2284 Y66.7792
G01 X94.2273 Y66.8166
G01 X94.2225 Y66.9145
G01 X94.2197 Y66.9545
G01 X94.2173 Y66.9773
G01 X94.2146 Y66.9988
G01 X94.1969 Y67.1179
G01 X94.1893 Y67.1584
G01 X94.1808 Y67.1956
G01 X94.1550 Y67.2987
G01 X94.1495 Y67.3189
G01 X94.1430 Y67.3408
G01 X94.1300 Y67.3798
G01 X94.0969 Y67.4722
G01 X94.0847 Y67.5044
G01 X94.0757 Y67.5262
G01 X94.0650 Y67.5504
G01 X94.0153 Y67.6553
G01 X94.0026 Y67.6806
G01 X93.9916 Y67.7011
G01 X93.9801 Y67.7212
G01 X93.9250 Y67.8132
G01 X93.9044 Y67.8460
G01 X93.8915 Y67.8651
G01 X93.8785 Y67.8835
G01 X93.8075 Y67.9791
G00 Z0.5000
G00 X94.7351 Y66.6655
G01 F250.00
G01 Z-0.0400
G01 F1250.00
G01 X94.7365 Y66.6641
G01 X94.7350 Y66.6639
G01 X94.7351 Y66.6655
G00 Z0.5000
G00 X115.7635 Y73.0597
G01 F250.00
G01 Z-0.0400
G01 F1250.00
G01 X117.3830 Y73.0598
G01 X119.7845 Y70.6583
G01 X119.7654 Y70.6487
G01 X119.7448 Y70.6378
G01 X119.7126 Y70.6193
G01 X119.6286 Y70.5688
G01 X119.6083 Y70.5558
G01 X119.5746 Y70.5327
G01 X119.4898 Y70.4698
G01 X119.4724 Y70.4564
G01 X119.4546 Y70.4419
G01 X119.4247 Y70.4159
G01 X119.3629 Y70.3599
G01 X119.3392 Y70.3377
G01 X119.3227 Y70.3213
G01 X119.3066 Y70.3045
G01 X119.2346 Y70.2250
G01 X119.2151 Y70.2024
G01 X119.2006 Y70.1846
G01 X119.1872 Y70.1672
G01 X119.1271 Y70.0862
G01 X119.1141 Y70.0679
G01 X119.1012 Y70.0487
G01 X119.0806 Y70.0159
G01 X119.0377 Y69.9444
G01 X119.0231 Y69.9192
G01 X116.1372 Y72.8047
G01 X116.1180 Y72.8227
G01 X116.0830 Y72.8543
G01 X116.0643 Y72.8705
G01 X116.0461 Y72.8854
G01 X116.0252 Y72.9017
G01 X115.9882 Y72.9292
G01 X115.9589 Y72.9501
G01 X115.9393 Y72.9631
G01 X115.9189 Y72.9760
G01 X115.8708 Y73.0048
G01 X115.8507 Y73.0163
G01 X115.8302 Y73.0273
G01 X115.8093 Y73.0379
G01 X115.7635 Y73.0597
G01 X117.1138 Y72.5498
G01 X117.1718 Y72.5498
G01 X119.0014 Y70.7202
G01 X118.9719 Y70.6917
G01 X117.1138 Y72.5498
G00 Z0.5000
G00 X121.6019 Y74.7622
G01 F250.00
G01 Z-0.0400
G01 F1250.00
G01 X121.6293 Y74.7677
G01 X121.6525 Y74.7729
G01 X121.7567 Y74.7990
G01 X121.7891 Y74.8077
G01 X121.8119 Y74.8146
G01 X121.8363 Y74.8227
G01 X121.9382 Y74.8591
G01 X121.9752 Y74.8732
G01 X121.9964 Y74.8821
G01 X122.0242 Y74.8947
G01 X122.1257 Y74.9428
G01 X122.1466 Y74.9534
G01 X122.1830 Y74.9734
G01 X122.2873 Y75.0359
G01 X122.3077 Y75.0488
G01 X122.3273 Y75.0618
G01 X122.3566 Y75.0827
G01 X122.4354 Y75.1411
G01 X122.4596 Y75.1597
G01 X122.4775 Y75.1743
G01 X122.5074 Y75.2002
G01 X122.5801 Y75.2661
G01 X122.6072 Y75.2917
G01 X122.6237 Y75.3083
G01 X122.6397 Y75.3252
G01 X122.7160 Y75.4093
G01 X125.3356 Y75.4093
G01 X125.3658 Y75.3814
G01 X125.3667 Y73.9368
G01 X125.3581 Y73.8886
G01 X125.3545 Y73.8651
G01 X125.3496 Y73.8255
G01 X125.3456 Y73.7833
G01 X125.3427 Y73.7372
G01 X125.3414 Y73.6826
G01 X125.3414 Y73.3893
G01 X125.2443 Y73.4036
G01 X125.2228 Y73.4064
G01 X125.2000 Y73.4087
G01 X125.1600 Y73.4115
G01 X125.0621 Y73.4164
G01 X125.0247 Y73.4174
G01 X124.9830 Y73.4169
G01 X124.8559 Y73.4107
G01 X124.8127 Y73.4069
G01 X124.7868 Y73.4036
G01 X124.6724 Y73.3866
G01 X124.6498 Y73.3828
G01 X124.6271 Y73.3784
G01 X124.5899 Y73.3699
G01 X124.4825 Y73.3429
G01 X124.4448 Y73.3320
G01 X124.4203 Y73.3241
G01 X124.2993 Y73.2808
G01 X124.2594 Y73.2647
G01 X124.2273 Y73.2503
G01 X124.1303 Y73.2044
G01 X124.1093 Y73.1939
G01 X124.0887 Y73.1829
G01 X124.0565 Y73.1645
G01 X123.9599 Y73.1064
G01 X123.9243 Y73.0832
G01 X123.9021 Y73.0675
G01 X123.8092 Y72.9987
G01 X123.7919 Y72.9853
G01 X123.7740 Y72.9708
G01 X123.7441 Y72.9448
G01 X123.6611 Y72.8694
G01 X123.6443 Y72.8533
G01 X123.6278 Y72.8368
G01 X123.5936 Y72.7998
G01 X123.5644 Y72.7997
G01 X121.6019 Y74.7622
G01 X122.5104 Y74.5750
G01 X122.5649 Y74.6079
G01 X122.5906 Y74.6244
G01 X122.6202 Y74.6443
G01 X122.6580 Y74.6713
G01 X122.7545 Y74.7430
G01 X122.7859 Y74.7677
G01 X122.8089 Y74.7866
G01 X122.8288 Y74.8036
G01 X122.8499 Y74.8223
G01 X122.9346 Y74.8993
G01 X124.8561 Y74.8993
G01 X124.8567 Y73.9823
G01 X124.8512 Y73.9477
G01 X124.8475 Y73.9210
G01 X124.8175 Y73.9192
G01 X124.7859 Y73.9167
G01 X124.7552 Y73.9136
G01 X124.7279 Y73.9103
G01 X124.6034 Y73.8920
G01 X124.5807 Y73.8884
G01 X124.5460 Y73.8822
G01 X124.5169 Y73.8763
G01 X124.4813 Y73.8683
G01 X124.3532 Y73.8362
G01 X124.3222 Y73.8276
G01 X124.2926 Y73.8188
G01 X124.2616 Y73.8087
G01 X124.2371 Y73.8003
G01 X124.1213 Y73.7587
G01 X124.0908 Y73.7469
G01 X124.0632 Y73.7355
G01 X124.0320 Y73.7218
G01 X124.0092 Y73.7113
G01 X123.9177 Y73.6680
G01 X123.8799 Y73.6494
G01 X123.8427 Y73.6297
G01 X123.8117 Y73.6122
G01 X123.6992 Y73.5448
G01 X123.6557 Y73.5171
G01 X123.6313 Y73.5007
G01 X123.6040 Y73.4814
G01 X122.5104 Y74.5750
G01 X123.4220 Y74.3872
G01 X124.3464 Y74.3886
G01 X124.3465 Y74.3604
G01 X124.2238 Y74.3295
G01 X124.1862 Y74.3192
G01 X124.1494 Y74.3083
G01 X124.1221 Y74.2997
G01 X124.0830 Y74.2867
G01 X123.9681 Y74.2458
G01 X123.9402 Y74.2355
G01 X123.9035 Y74.2212
G01 X123.8486 Y74.1984
G01 X123.7965 Y74.1749
G01 X123.6873 Y74.1231
G01 X123.4220 Y74.3872
G00 Z0.5000
G00 X122.5207 Y78.1397
G01 F250.00
G01 Z-0.0400
G01 F1250.00
G01 X123.2659 Y78.1398
G01 X123.2823 Y78.1054
G01 X123.3008 Y78.0697
G01 X122.5974 Y78.0697
G01 X122.5801 Y78.0859
G01 X122.5207 Y78.1397
G00 Z0.5000
G00 X121.1339 Y80.8002
G01 F250.00
G01 Z-0.0400
G01 F1250.00
G01 X121.1673 Y80.8114
G01 X121.2598 Y80.8447
G01 X121.2998 Y80.8607
G01 X121.3240 Y80.8715
G01 X121.4073 Y80.9108
G01 X121.4409 Y80.9276
G01 X121.4614 Y80.9386
G01 X121.4815 Y80.9501
G01 X121.5609 Y80.9976
G01 X121.5937 Y81.0182
G01 X121.6274 Y81.0413
G01 X121.7053 Y81.0990
G01 X121.7331 Y81.1204
G01 X121.7514 Y81.1354
G01 X121.7773 Y81.1581
G01 X121.8459 Y81.2203
G01 X121.8628 Y81.2363
G01 X121.8793 Y81.2527
G01 X121.9049 Y81.2799
G01 X121.9709 Y81.3528
G01 X121.9986 Y81.3859
G01 X122.0148 Y81.4068
G01 X122.0749 Y81.4878
G01 X122.0879 Y81.5061
G01 X122.1008 Y81.5253
G01 X122.1214 Y81.5581
G01 X122.1689 Y81.6375
G01 X122.1828 Y81.6618
G01 X122.2020 Y81.6990
G01 X122.2438 Y81.7871
G01 X122.2583 Y81.8192
G01 X122.2673 Y81.8410
G01 X122.2761 Y81.8640
G01 X122.3076 Y81.9517
G01 X122.3190 Y81.9856
G01 X122.3271 Y82.0126
G01 X122.3346 Y82.0408
G01 X122.3571 Y82.1308
G01 X122.3623 Y82.1539
G01 X122.3669 Y82.1769
G01 X122.3730 Y82.2130
G01 X122.3853 Y82.2955
G01 X122.3897 Y82.3299
G01 X122.3920 Y82.3534
G01 X122.3938 Y82.3783
G01 X122.3985 Y82.4714
G01 X122.3995 Y82.5039
G01 X122.3996 Y82.5272
G01 X122.3989 Y82.5554
G01 X122.3938 Y82.6577
G01 X122.3916 Y82.6878
G01 X122.3871 Y82.7276
G01 X122.3730 Y82.8230
G01 X122.3678 Y82.8544
G01 X122.3634 Y82.8772
G01 X122.3549 Y82.9143
G01 X122.3314 Y83.0075
G01 X122.3259 Y83.0276
G01 X122.3190 Y83.0504
G01 X122.3076 Y83.0843
G01 X122.2761 Y83.1720
G01 X122.2673 Y83.1950
G01 X122.2565 Y83.2210
G01 X122.2438 Y83.2489
G01 X122.2042 Y83.3326
G01 X122.1937 Y83.3536
G01 X122.1828 Y83.3742
G01 X122.1689 Y83.3985
G01 X122.1214 Y83.4779
G01 X122.1008 Y83.5107
G01 X122.0879 Y83.5299
G01 X122.0697 Y83.5554
G01 X122.0200 Y83.6223
G01 X121.9986 Y83.6502
G01 X121.9836 Y83.6684
G01 X121.9674 Y83.6870
G01 X121.8954 Y83.7665
G01 X121.8793 Y83.7833
G01 X121.8494 Y83.8124
G01 X121.7773 Y83.8779
G01 X121.7514 Y83.9006
G01 X121.7331 Y83.9156
G01 X121.7159 Y83.9290
G01 X121.6383 Y83.9867
G01 X121.6129 Y84.0049
G01 X121.5937 Y84.0178
G01 X121.5609 Y84.0384
G01 X121.4773 Y84.0884
G01 X121.4409 Y84.1084
G01 X121.4175 Y84.1203
G01 X122.2950 Y84.9978
G01 X123.5930 Y84.9978
G01 X123.6118 Y84.9772
G01 X123.6278 Y84.9603
G01 X123.6443 Y84.9437
G01 X123.6647 Y84.9243
G01 X123.7553 Y84.8423
G01 X123.7740 Y84.8263
G01 X123.8055 Y84.8011
G01 X123.9021 Y84.7295
G01 X123.9243 Y84.7138
G01 X123.9438 Y84.7008
G01 X123.9723 Y84.6830
G01 X124.0644 Y84.6279
G01 X124.0887 Y84.6141
G01 X124.1093 Y84.6031
G01 X124.1386 Y84.5886
G01 X124.2273 Y84.5467
G01 X124.2551 Y84.5341
G01 X124.2764 Y84.5252
G01 X124.3133 Y84.5111
G01 X124.4057 Y84.4780
G01 X124.4396 Y84.4666
G01 X124.4624 Y84.4597
G01 X124.4868 Y84.4530
G01 X124.5899 Y84.4272
G01 X124.6222 Y84.4197
G01 X124.6451 Y84.4151
G01 X124.6676 Y84.4111
G01 X124.7518 Y84.3985
G01 X124.7491 Y84.3412
G01 X124.7486 Y84.3179
G01 X124.7486 Y84.2946
G01 X124.7496 Y84.2621
G01 X124.7553 Y84.1491
G01 X124.7573 Y84.1242
G01 X124.7618 Y84.0844
G01 X124.7801 Y83.9608
G01 X124.7876 Y83.9203
G01 X124.7928 Y83.8971
G01 X124.8200 Y83.7880
G01 X124.8287 Y83.7556
G01 X124.8356 Y83.7328
G01 X124.8470 Y83.6989
G01 X124.8801 Y83.6065
G01 X124.8942 Y83.5695
G01 X124.9031 Y83.5483
G01 X124.9120 Y83.5283
G01 X124.9576 Y83.4318
G01 X124.9721 Y83.4025
G01 X124.9831 Y83.3819
G01 X125.0015 Y83.3497
G01 X125.0569 Y83.2574
G01 X125.0698 Y83.2370
G01 X125.0855 Y83.2136
G01 X125.1037 Y83.1881
G01 X125.1673 Y83.1024
G01 X125.1836 Y83.0815
G01 X125.1986 Y83.0633
G01 X125.2212 Y83.0373
G01 X125.2966 Y82.9543
G01 X125.3127 Y82.9375
G01 X125.3292 Y82.9210
G01 X125.3658 Y82.8871
G01 X125.3667 Y81.2978
G01 X125.3581 Y81.2495
G01 X125.3526 Y81.2110
G01 X125.3472 Y81.1636
G01 X125.3440 Y81.1213
G01 X125.3425 Y81.0932
G01 X125.3415 Y81.0532
G01 X125.3414 Y80.9153
G01 X125.2443 Y80.9296
G01 X125.2228 Y80.9324
G01 X125.2000 Y80.9347
G01 X125.1600 Y80.9376
G01 X125.0480 Y80.9429
G01 X125.0063 Y80.9435
G01 X124.9781 Y80.9428
G01 X124.8611 Y80.9370
G01 X124.8362 Y80.9352
G01 X124.8127 Y80.9329
G01 X124.7783 Y80.9284
G01 X124.6813 Y80.9140
G01 X124.6451 Y80.9080
G01 X124.6222 Y80.9033
G01 X124.5991 Y80.8981
G01 X124.4948 Y80.8720
G01 X124.4624 Y80.8633
G01 X124.4396 Y80.8564
G01 X124.4203 Y80.8501
G01 X124.3133 Y80.8120
G01 X124.2764 Y80.7978
G01 X124.2328 Y80.7998
G01 X124.2053 Y80.8002
G01 X121.1339 Y80.8002
G00 Z0.5000
G00 X122.5674 Y81.3102
G01 F250.00
G01 Z-0.0400
G01 F1250.00
G01 X122.6120 Y81.3848
G01 X122.6295 Y81.4158
G01 X122.6441 Y81.4431
G01 X122.6575 Y81.4696
G01 X122.6692 Y81.4937
G01 X122.7061 Y81.5717
G01 X122.7224 Y81.6076
G01 X122.7385 Y81.6458
G01 X122.7522 Y81.6811
G01 X122.7878 Y81.7798
G01 X122.7951 Y81.8010
G01 X122.8057 Y81.8334
G01 X122.8189 Y81.8778
G01 X122.8286 Y81.9141
G01 X122.8503 Y82.0008
G01 X122.8559 Y82.0241
G01 X122.8636 Y82.0597
G01 X122.8693 Y82.0886
G01 X122.8752 Y82.1232
G01 X122.8924 Y82.2393
G01 X122.8965 Y82.2723
G01 X122.8996 Y82.3031
G01 X122.9021 Y82.3347
G01 X122.9036 Y82.3598
G01 X122.9087 Y82.4667
G01 X122.9095 Y82.5025
G01 X122.9094 Y82.5446
G01 X122.9080 Y82.5865
G01 X122.9031 Y82.6861
G01 X122.9000 Y82.7277
G01 X122.8971 Y82.7574
G01 X122.8914 Y82.8040
G01 X122.8771 Y82.9009
G01 X122.8693 Y82.9474
G01 X122.8624 Y82.9825
G01 X122.8526 Y83.0261
G01 X122.8286 Y83.1219
G01 X122.8174 Y83.1636
G01 X122.8074 Y83.1974
G01 X122.7923 Y83.2433
G01 X122.7552 Y83.3469
G01 X122.7404 Y83.3854
G01 X122.7248 Y83.4230
G01 X122.7061 Y83.4643
G01 X122.6639 Y83.5535
G01 X122.6463 Y83.5885
G01 X122.6295 Y83.6202
G01 X122.6080 Y83.6580
G01 X122.5522 Y83.7510
G01 X122.5307 Y83.7852
G01 X122.5081 Y83.8190
G01 X122.4811 Y83.8567
G01 X122.4227 Y83.9354
G01 X122.4003 Y83.9644
G01 X122.3745 Y83.9959
G01 X122.3410 Y84.0343
G01 X122.2690 Y84.1136
G01 X122.2399 Y84.1439
G01 X122.2224 Y84.1613
G01 X122.2017 Y84.1813
G01 X122.5069 Y84.4878
G01 X123.3868 Y84.4878
G01 X123.4139 Y84.4634
G01 X123.4375 Y84.4429
G01 X123.4741 Y84.4129
G01 X123.5100 Y84.3853
G01 X123.6119 Y84.3100
G01 X123.6352 Y84.2936
G01 X123.6557 Y84.2799
G01 X123.6922 Y84.2565
G01 X123.8171 Y84.1817
G01 X123.8427 Y84.1673
G01 X123.8644 Y84.1557
G01 X123.9021 Y84.1365
G01 X124.0119 Y84.0844
G01 X124.0532 Y84.0658
G01 X124.0908 Y84.0501
G01 X124.1261 Y84.0365
G01 X124.2339 Y83.9978
G01 X124.2603 Y83.9887
G01 X124.2766 Y83.8799
G01 X124.2826 Y83.8453
G01 X124.2886 Y83.8150
G01 X124.2951 Y83.7856
G01 X124.3014 Y83.7592
G01 X124.3260 Y83.6613
G01 X124.3356 Y83.6250
G01 X124.3472 Y83.5858
G01 X124.3595 Y83.5482
G01 X124.4010 Y83.4316
G01 X124.4210 Y83.3792
G01 X124.4329 Y83.3506
G01 X124.4466 Y83.3198
G01 X124.5033 Y83.1997
G01 X124.5195 Y83.1675
G01 X124.5333 Y83.1414
G01 X124.5507 Y83.1103
G01 X124.5641 Y83.0875
G01 X124.6162 Y83.0006
G01 X124.6392 Y82.9637
G01 X124.6626 Y82.9284
G01 X124.6825 Y82.9001
G01 X124.7640 Y82.7902
G01 X124.7847 Y82.7637
G01 X124.8076 Y82.7358
G01 X124.8290 Y82.7109
G01 X124.8559 Y82.6809
G01 X124.8566 Y81.4475
G01 X124.8242 Y81.4457
G01 X124.7912 Y81.4432
G01 X124.7552 Y81.4396
G01 X124.7222 Y81.4356
G01 X124.5915 Y81.4162
G01 X124.5569 Y81.4103
G01 X124.5218 Y81.4034
G01 X124.4924 Y81.3969
G01 X124.4660 Y81.3906
G01 X124.3681 Y81.3661
G01 X124.3264 Y81.3549
G01 X124.2926 Y81.3448
G01 X124.2616 Y81.3348
G01 X124.1920 Y81.3102
G01 X122.5674 Y81.3102
G01 X123.3309 Y81.8202
G01 X123.3484 Y81.8907
G01 X123.3584 Y81.9340
G01 X123.3693 Y81.9878
G01 X123.3775 Y82.0345
G01 X123.3981 Y82.1731
G01 X123.4035 Y82.2179
G01 X123.4083 Y82.2666
G01 X123.4123 Y82.3216
G01 X123.4179 Y82.4368
G01 X123.4194 Y82.4883
G01 X123.4195 Y82.5366
G01 X123.4181 Y82.5945
G01 X123.4131 Y82.6996
G01 X123.4106 Y82.7397
G01 X123.4067 Y82.7873
G01 X123.4017 Y82.8344
G01 X123.3951 Y82.8844
G01 X123.3795 Y82.9892
G01 X123.3698 Y83.0451
G01 X123.3604 Y83.0926
G01 X123.3484 Y83.1453
G01 X123.3206 Y83.2565
G01 X123.3066 Y83.3080
G01 X123.2925 Y83.3548
G01 X123.2776 Y83.4003
G01 X123.2399 Y83.5065
G01 X123.2255 Y83.5453
G01 X123.2069 Y83.5922
G01 X123.1949 Y83.6207
G01 X123.1813 Y83.6515
G01 X123.1659 Y83.6850
G01 X123.1296 Y83.7618
G01 X123.1145 Y83.7929
G01 X123.0953 Y83.8306
G01 X123.0694 Y83.8786
G01 X123.0478 Y83.9162
G01 X123.0110 Y83.9778
G01 X123.2032 Y83.9778
G01 X123.3080 Y83.9003
G01 X123.3422 Y83.8762
G01 X123.3718 Y83.8562
G01 X123.3973 Y83.8395
G01 X123.4301 Y83.8189
G01 X123.5334 Y83.7569
G01 X123.5576 Y83.7427
G01 X123.5924 Y83.7229
G01 X123.6478 Y83.6935
G01 X123.6982 Y83.6686
G01 X123.8118 Y83.6150
G01 X123.8372 Y83.5143
G01 X123.8480 Y83.4752
G01 X123.8595 Y83.4366
G01 X123.8804 Y83.3729
G01 X123.9214 Y83.2582
G01 X123.9305 Y83.2333
G01 X123.9448 Y83.1966
G01 X123.9676 Y83.1417
G01 X123.9875 Y83.0975
G01 X124.0376 Y82.9914
G01 X124.0514 Y82.9631
G01 X124.0668 Y82.9326
G01 X124.0965 Y82.8775
G01 X124.1243 Y82.8293
G01 X124.1931 Y82.7149
G01 X124.2200 Y82.6728
G01 X124.2521 Y82.6255
G01 X124.2809 Y82.5853
G01 X124.3460 Y82.4975
G01 X124.3464 Y81.8864
G01 X124.2415 Y81.8601
G01 X124.1970 Y81.8482
G01 X124.1494 Y81.8343
G01 X124.1052 Y81.8202
G01 X123.3309 Y81.8202
G00 Z0.5000
G00 X118.9987 Y81.7015
G01 F250.00
G01 Z-0.0400
G01 F1250.00
G01 X119.0106 Y81.6781
G01 X119.0306 Y81.6417
G01 X119.0806 Y81.5581
G01 X119.0984 Y81.5295
G01 X119.1114 Y81.5100
G01 X119.1271 Y81.4878
G01 X119.1820 Y81.4137
G01 X119.2034 Y81.3859
G01 X119.2184 Y81.3676
G01 X119.2411 Y81.3417
G01 X119.3033 Y81.2731
G01 X119.3227 Y81.2527
G01 X119.3392 Y81.2363
G01 X119.3629 Y81.2141
G01 X119.4247 Y81.1581
G01 X119.4506 Y81.1354
G01 X119.4688 Y81.1204
G01 X119.4898 Y81.1042
G01 X119.5636 Y81.0493
G01 X119.5930 Y81.0284
G01 X119.6125 Y81.0154
G01 X119.6411 Y80.9976
G01 X119.7205 Y80.9501
G01 X119.7448 Y80.9362
G01 X119.7654 Y80.9253
G01 X119.7947 Y80.9108
G01 X119.8701 Y80.8752
G01 X119.9022 Y80.8607
G01 X119.9240 Y80.8517
G01 X119.9561 Y80.8395
G01 X120.0347 Y80.8114
G01 X120.0681 Y80.8002
G01 X117.9782 Y80.8002
G01 X118.0242 Y80.8221
G01 X118.0613 Y80.8414
G01 X118.0936 Y80.8598
G01 X118.1338 Y80.8840
G01 X118.1542 Y80.8969
G01 X118.1737 Y80.9099
G01 X118.1921 Y80.9228
G01 X118.2401 Y80.9583
G01 X118.2574 Y80.9717
G01 X118.2752 Y80.9862
G01 X118.2979 Y81.0057
G01 X118.3402 Y81.0440
G01 X118.3647 Y81.0675
G01 X118.9987 Y81.7015
G00 Z0.5000
G00 X118.1057 Y78.1396
G01 F250.00
G01 Z-0.0400
G01 F1250.00
G01 X119.9512 Y78.1396
G01 X119.8816 Y78.0764
G01 X119.8648 Y78.0603
G01 X119.8483 Y78.0438
G01 X119.8261 Y78.0201
G01 X119.7602 Y77.9474
G01 X119.7376 Y77.9214
G01 X119.7226 Y77.9032
G01 X119.7011 Y77.8754
G01 X119.6427 Y77.7966
G01 X119.6218 Y77.7673
G01 X119.6088 Y77.7477
G01 X119.5959 Y77.7273
G01 X119.5334 Y77.6230
G01 X119.5134 Y77.5866
G01 X119.5028 Y77.5657
G01 X119.4547 Y77.4642
G01 X119.4421 Y77.4364
G01 X119.4332 Y77.4152
G01 X119.4191 Y77.3782
G01 X119.3827 Y77.2763
G01 X119.3746 Y77.2519
G01 X119.3677 Y77.2291
G01 X119.3590 Y77.1967
G01 X119.3329 Y77.0925
G01 X119.3277 Y77.0693
G01 X119.3222 Y77.0419
G01 X118.4917 Y77.8725
G01 X118.4672 Y77.8960
G01 X118.4321 Y77.9278
G01 X118.4022 Y77.9538
G01 X118.3707 Y77.9789
G01 X118.3191 Y78.0172
G01 X118.3007 Y78.0301
G01 X118.2812 Y78.0431
G01 X118.2608 Y78.0560
G01 X118.2206 Y78.0802
G01 X118.1883 Y78.0986
G01 X118.1512 Y78.1179
G01 X118.1057 Y78.1396
G00 Z0.5000
G00 X128.0272 Y75.3753
G01 F250.00
G01 Z-0.0400
G01 F1250.00
G01 X128.0272 Y75.3805
G01 X128.0340 Y75.3867
G01 X128.0272 Y75.3753
G00 Z0.5000
G00 X131.1839 Y75.6600
G01 F250.00
G01 Z-0.0400
G01 F1250.00
G01 X131.2086 Y75.6885
G01 X131.2232 Y75.7064
G01 X131.2397 Y75.7278
G01 X131.2649 Y75.7118
G01 X131.3512 Y75.6600
G01 X131.2649 Y75.6082
G01 X131.2397 Y75.5922
G01 X131.2232 Y75.6136
G01 X131.2086 Y75.6315
G01 X131.1839 Y75.6600
G00 Z0.5000
G00 X133.6724 Y75.5910
G01 F250.00
G01 Z-0.0400
G01 F1250.00
G01 X133.6455 Y75.6082
G01 X133.5592 Y75.6600
G01 X133.6455 Y75.7118
G01 X133.6724 Y75.7290
G01 X133.6897 Y75.7064
G01 X133.7042 Y75.6885
G01 X133.7290 Y75.6600
G01 X133.7042 Y75.6315
G01 X133.6897 Y75.6136
G01 X133.6724 Y75.5910
G00 Z0.5000
G00 X133.6724 Y82.9520
G01 F250.00
G01 Z-0.0400
G01 F1250.00
G01 X133.6455 Y82.9691
G01 X133.5592 Y83.0209
G01 X133.6455 Y83.0727
G01 X133.6724 Y83.0899
G01 X133.6897 Y83.0673
G01 X133.7042 Y83.0494
G01 X133.7290 Y83.0209
G01 X133.7042 Y82.9924
G01 X133.6897 Y82.9746
G01 X133.6724 Y82.9520
G00 Z0.5000
G00 X131.1839 Y83.0209
G01 F250.00
G01 Z-0.0400
G01 F1250.00
G01 X131.2086 Y83.0494
G01 X131.2232 Y83.0673
G01 X131.2397 Y83.0887
G01 X131.2649 Y83.0727
G01 X131.3512 Y83.0209
G01 X131.2649 Y82.9691
G01 X131.2397 Y82.9531
G01 X131.2232 Y82.9746
G01 X131.2086 Y82.9924
G01 X131.1839 Y83.0209
G00 Z0.5000
G00 X128.1946 Y83.0623
G01 F250.00
G01 Z-0.0400
G01 F1250.00
G01 X128.2085 Y83.0455
G01 X128.2299 Y83.0209
G01 X128.2051 Y82.9924
G01 X128.1800 Y82.9609
G01 X128.1056 Y82.8606
G01 X128.0825 Y82.8269
G01 X128.0695 Y82.8065
G01 X128.0272 Y82.7362
G01 X128.0272 Y82.8862
G01 X128.0478 Y82.9050
G01 X128.0647 Y82.9210
G01 X128.0813 Y82.9375
G01 X128.0974 Y82.9543
G01 X128.1728 Y83.0373
G01 X128.1946 Y83.0623
G00 Z0.5000
G00 X128.2299 Y90.3920
G01 F250.00
G01 Z-0.0400
G01 F1250.00
G01 X128.2051 Y90.3635
G01 X128.1800 Y90.3320
G01 X128.1136 Y90.2426
G01 X128.0954 Y90.2171
G01 X128.0797 Y90.1937
G01 X128.0668 Y90.1733
G01 X128.0018 Y90.0645
G01 X128.0018 Y90.2292
G01 X128.0514 Y90.2743
G01 X128.0682 Y90.2904
G01 X128.0847 Y90.3070
G01 X128.1069 Y90.3306
G01 X128.1728 Y90.4033
G01 X128.1967 Y90.4308
G01 X128.2085 Y90.4166
G01 X128.2299 Y90.3920
G00 Z0.5000
G00 X131.2397 Y90.3242
G01 F250.00
G01 Z-0.0400
G01 F1250.00
G01 X131.2232 Y90.3456
G01 X131.2086 Y90.3635
G01 X131.1839 Y90.3920
G01 X131.2086 Y90.4205
G01 X131.2232 Y90.4384
G01 X131.2397 Y90.4598
G01 X131.2649 Y90.4438
G01 X131.3512 Y90.3920
G01 X131.2649 Y90.3402
G01 X131.2397 Y90.3242
G00 Z0.5000
G00 X133.5592 Y90.3920
G01 F250.00
G01 Z-0.0400
G01 F1250.00
G01 X133.6455 Y90.4438
G01 X133.6724 Y90.4610
G01 X133.6897 Y90.4384
G01 X133.7042 Y90.4205
G01 X133.7290 Y90.3920
G01 X133.7042 Y90.3635
G01 X133.6897 Y90.3456
G01 X133.6724 Y90.3230
G01 X133.6455 Y90.3402
G01 X133.5592 Y90.3920
G00 Z0.5000
G00 X133.6724 Y68.2250
G01 F250.00
G01 Z-0.0400
G01 F1250.00
G01 X133.6455 Y68.2422
G01 X133.5592 Y68.2940
G01 X133.6455 Y68.3458
G01 X133.6724 Y68.3630
G01 X133.6897 Y68.3404
G01 X133.7042 Y68.3225
G01 X133.7290 Y68.2940
G01 X133.7042 Y68.2655
G01 X133.6897 Y68.2476
G01 X133.6724 Y68.2250
G00 Z0.5000
G00 X131.1839 Y68.2940
G01 F250.00
G01 Z-0.0400
G01 F1250.00
G01 X131.2086 Y68.3225
G01 X131.2232 Y68.3404
G01 X131.2397 Y68.3618
G01 X131.2649 Y68.3458
G01 X131.3512 Y68.2940
G01 X131.2649 Y68.2422
G01 X131.2397 Y68.2262
G01 X131.2232 Y68.2476
G01 X131.2086 Y68.2655
G01 X131.1839 Y68.2940
G00 Z0.5000
G00 X128.1967 Y68.3328
G01 F250.00
G01 Z-0.0400
G01 F1250.00
G01 X128.2085 Y68.3186
G01 X128.2299 Y68.2940
G01 X128.2051 Y68.2655
G01 X128.1800 Y68.2340
G01 X128.1136 Y68.1446
G01 X128.0954 Y68.1191
G01 X128.0797 Y68.0957
G01 X128.0668 Y68.0753
G01 X128.0018 Y67.9665
G01 X128.0018 Y68.1312
G01 X128.0514 Y68.1763
G01 X128.0682 Y68.1924
G01 X128.0847 Y68.2090
G01 X128.1069 Y68.2326
G01 X128.1728 Y68.3053
G01 X128.1967 Y68.3328
G00 Z0.5000
G00 X124.6500 Y69.5552
G01 F250.00
G01 Z-0.0400
G01 F1250.00
G01 X124.6813 Y69.5500
G01 X124.7492 Y69.5399
G01 X124.7535 Y69.4517
G01 X124.6500 Y69.5552
G00 Z0.5000
G00 X122.2367 Y67.4269
G01 F250.00
G01 Z-0.0400
G01 F1250.00
G01 X122.2639 Y67.4550
G01 X123.0991 Y66.6220
G01 X123.0991 Y66.5644
G01 X122.2367 Y67.4269
G01 X121.4642 Y67.4781
G01 X121.4894 Y67.4927
G01 X121.5609 Y67.5356
G01 X121.5937 Y67.5562
G01 X121.6129 Y67.5691
G01 X121.6312 Y67.5821
G01 X121.7122 Y67.6422
G01 X121.7296 Y67.6556
G01 X121.7474 Y67.6701
G01 X121.7700 Y67.6896
G01 X121.8494 Y67.7616
G01 X121.8663 Y67.7777
G01 X121.8827 Y67.7942
G01 X121.9049 Y67.8179
G01 X121.9609 Y67.8797
G01 X121.9869 Y67.9096
G01 X122.0014 Y67.9274
G01 X122.0148 Y67.9448
G01 X122.0777 Y68.0296
G01 X122.1008 Y68.0633
G01 X122.1138 Y68.0836
G01 X122.1643 Y68.1676
G01 X122.1828 Y68.1998
G01 X122.1937 Y68.2204
G01 X122.2033 Y68.2395
G01 X123.6091 Y66.8337
G01 X123.6091 Y65.7557
G01 X123.5397 Y65.6792
G01 X123.5138 Y65.6493
G01 X123.4993 Y65.6314
G01 X123.4859 Y65.6141
G01 X123.4187 Y65.5236
G01 X121.4642 Y67.4781
G00 Z0.5000
G00 X131.1839 Y60.9280
G01 F250.00
G01 Z-0.0400
G01 F1250.00
G01 X131.2086 Y60.9565
G01 X131.2232 Y60.9744
G01 X131.2397 Y60.9958
G01 X131.2649 Y60.9798
G01 X131.3512 Y60.9280
G01 X131.2649 Y60.8762
G01 X131.2397 Y60.8602
G01 X131.2232 Y60.8816
G01 X131.2086 Y60.8995
G01 X131.1839 Y60.9280
G00 Z0.5000
G00 X133.6724 Y60.8590
G01 F250.00
G01 Z-0.0400
G01 F1250.00
G01 X133.6455 Y60.8762
G01 X133.5592 Y60.9280
G01 X133.6455 Y60.9798
G01 X133.6724 Y60.9970
G01 X133.6897 Y60.9744
G01 X133.7042 Y60.9565
G01 X133.7290 Y60.9280
G01 X133.7042 Y60.8995
G01 X133.6897 Y60.8816
G01 X133.6724 Y60.8590
G00 Z0.5000
G00 X49.8020 Y74.7586
G01 F250.00
G01 Z-0.0400
G01 F1250.00
G01 X49.8020 Y77.7628
G01 X47.7525 Y77.7628
G01 X47.7188 Y77.7634
G01 X47.6858 Y77.7652
G01 X47.6578 Y77.7675
G01 X47.6362 Y77.7703
G01 X47.6362 Y74.7512
G01 X47.6578 Y74.7539
G01 X47.6858 Y74.7562
G01 X47.7188 Y74.7580
G01 X47.7525 Y74.7586
G01 X49.8020 Y74.7586
G01 X48.1462 Y75.2686
G01 X49.2920 Y75.2686
G01 X49.2920 Y77.2528
G01 X48.1462 Y77.2528
G01 X48.1462 Y75.2686
G01 X48.6562 Y75.7786
G01 X48.7820 Y75.7786
G01 X48.7820 Y76.7428
G01 X48.6562 Y76.7428
G01 X48.6562 Y75.7786
G00 Z0.5000
G00 X28.4787 Y98.4650
G01 F250.00
G01 Z-0.0400
G01 F1250.00
G01 X28.4787 Y97.5488
G01 X27.8809 Y97.5488
G01 X27.9642 Y97.6243
G01 X27.9811 Y97.6403
G01 X27.9976 Y97.6568
G01 X28.0233 Y97.6839
G01 X28.0957 Y97.7639
G01 X28.1151 Y97.7865
G01 X28.1296 Y97.8044
G01 X28.1430 Y97.8217
G01 X28.2119 Y97.9146
G01 X28.2249 Y97.9329
G01 X28.2378 Y97.9520
G01 X28.2584 Y97.9848
G01 X28.3088 Y98.0690
G01 X28.3273 Y98.1012
G01 X28.3382 Y98.1218
G01 X28.3487 Y98.1428
G01 X28.3947 Y98.2398
G01 X28.4091 Y98.2719
G01 X28.4252 Y98.3118
G01 X28.4667 Y98.4277
G01 X28.4787 Y98.4650
G00 Z0.5000
G00 X28.1082 Y100.2777
G01 F250.00
G01 Z-0.0400
G01 F1250.00
G01 X28.1268 Y100.3001
G01 X28.1430 Y100.3211
G01 X28.2067 Y100.4068
G01 X28.2276 Y100.4361
G01 X28.2406 Y100.4556
G01 X28.2584 Y100.4842
G01 X28.3088 Y100.5683
G01 X28.3273 Y100.6006
G01 X28.3382 Y100.6212
G01 X28.3527 Y100.6505
G01 X28.3983 Y100.7470
G01 X28.4073 Y100.7670
G01 X28.4162 Y100.7882
G01 X28.4303 Y100.8252
G01 X28.4634 Y100.9175
G01 X28.4748 Y100.9515
G01 X28.4787 Y100.9643
G01 X28.4787 Y99.5910
G01 X28.4748 Y99.6039
G01 X28.4634 Y99.6378
G01 X28.4303 Y99.7302
G01 X28.4162 Y99.7672
G01 X28.4073 Y99.7884
G01 X28.3983 Y99.8084
G01 X28.3527 Y99.9049
G01 X28.3382 Y99.9342
G01 X28.3273 Y99.9548
G01 X28.3088 Y99.9870
G01 X28.2584 Y100.0712
G01 X28.2406 Y100.0997
G01 X28.2276 Y100.1193
G01 X28.2067 Y100.1486
G01 X28.1430 Y100.2343
G01 X28.1268 Y100.2552
G01 X28.1082 Y100.2777
G00 Z0.5000
G00 X28.4787 Y102.0904
G01 F250.00
G01 Z-0.0400
G01 F1250.00
G01 X28.4667 Y102.1276
G01 X28.4252 Y102.2436
G01 X28.4091 Y102.2835
G01 X28.3947 Y102.3156
G01 X28.3487 Y102.4126
G01 X28.3382 Y102.4336
G01 X28.3273 Y102.4542
G01 X28.3088 Y102.4864
G01 X28.2584 Y102.5705
G01 X28.2378 Y102.6033
G01 X28.2249 Y102.6225
G01 X28.2119 Y102.6408
G01 X28.1430 Y102.7337
G01 X28.1296 Y102.7510
G01 X28.1151 Y102.7688
G01 X28.0957 Y102.7915
G01 X28.0171 Y102.8782
G01 X28.0010 Y102.8951
G01 X27.9846 Y102.9116
G01 X27.9574 Y102.9373
G01 X27.8693 Y103.0168
G01 X28.4787 Y103.0168
G01 X28.4787 Y102.0904
G00 Z0.5000
G00 X66.3070 Y120.5340
G01 F250.00
G01 Z-0.0400
G01 F1250.00
G01 X66.7746 Y120.5340
G01 X66.6091 Y120.6995
G01 X66.3070 Y120.6995
G01 X66.3070 Y120.5340
G01 X67.7577 Y120.2721
G01 X66.8203 Y121.2095
G01 X66.2468 Y121.2095
G01 X66.2114 Y121.2104
G01 X66.1081 Y121.2155
G01 X66.0681 Y121.2183
G01 X66.0284 Y121.2228
G01 X65.9095 Y121.2404
G01 X65.8822 Y121.2451
G01 X65.8593 Y121.2497
G01 X65.8362 Y121.2549
G01 X65.7970 Y121.2647
G01 X65.7970 Y119.9688
G01 X65.8410 Y119.9797
G01 X65.8642 Y119.9848
G01 X65.8870 Y119.9893
G01 X65.9184 Y119.9945
G01 X66.0154 Y120.0089
G01 X66.0453 Y120.0128
G01 X66.0733 Y120.0156
G01 X66.1081 Y120.0180
G01 X66.2143 Y120.0232
G01 X66.2526 Y120.0240
G01 X67.2534 Y120.0240
G01 X67.2917 Y120.0232
G01 X67.4130 Y120.0171
G01 X67.4379 Y120.0152
G01 X67.4776 Y120.0107
G01 X67.5876 Y119.9945
G01 X67.6190 Y119.9893
G01 X67.6418 Y119.9848
G01 X67.6650 Y119.9797
G01 X67.7090 Y119.9688
G01 X67.7092 Y119.9913
G01 X67.7101 Y120.0194
G01 X67.7129 Y120.0562
G01 X67.7148 Y120.0756
G01 X67.7193 Y120.1122
G01 X67.7256 Y120.1485
G01 X67.7294 Y120.1677
G01 X67.7375 Y120.2036
G01 X67.7473 Y120.2391
G01 X67.7577 Y120.2721
G00 Z0.5000
G00 X65.7818 Y135.4160
G01 F250.00
G01 Z-0.0400
G01 F1250.00
G01 X65.8681 Y135.4679
G01 X65.8933 Y135.4839
G01 X65.9098 Y135.4624
G01 X65.9243 Y135.4446
G01 X65.9491 Y135.4160
G01 X65.9243 Y135.3875
G01 X65.9098 Y135.3697
G01 X65.8933 Y135.3482
G01 X65.8681 Y135.3642
G01 X65.7818 Y135.4160
G00 Z0.5000
G00 X63.4040 Y135.4160
G01 F250.00
G01 Z-0.0400
G01 F1250.00
G01 X63.4287 Y135.4446
G01 X63.4433 Y135.4624
G01 X63.4606 Y135.4850
G01 X63.4875 Y135.4679
G01 X63.5738 Y135.4160
G01 X63.4875 Y135.3642
G01 X63.4606 Y135.3471
G01 X63.4433 Y135.3697
G01 X63.4287 Y135.3875
G01 X63.4040 Y135.4160
G00 Z0.5000
M05
G00 Z0.5000
G00 Z2.00
G00 X0.0 Y0.0

