(G-CODE GENERATED BY FLATCAM v8.991 - www.flatcam.org - Version Date: 2019/12/30)

(Name: Cncjob_Bottom_Copper_pyramidal)
(Type: G-code from Geometry)
(Units: MM)

(Created on Friday, 10 March 2023 at 15:48)

(TOOL DIAMETER: 0.199 mm)
(Feedrate: 2500.0 mm/min)
(Feedrate_Z: 250.0 mm/min)
(Feedrate rapids 1500.0 mm/min)

(Z_Cut: -0.04 mm)
(Z_Move: 0.5 mm)
(Z Toolchange: 15.0 mm)
(X,Y Toolchange: 0.0000, 0.0000 mm)
(Z Start: 0.5 mm)
(Z End: 2.0 mm)
(Steps per circle: 64)
(Preprocessor Geometry: default)

(X range:   23.6724 ...  137.7736  mm)
(Y range:    8.4266 ...  149.2687  mm)

(Spindle Speed: None RPM)
G21
G90
G94




G01 F2500.00
G00 Z0.5000
G00 Z0.5000
M03
G4 P1.0
G00 X31.2616 Y30.0341
G01 F250.00
G01 Z-0.0400
G01 F2500.00
G01 X31.2614 Y30.0221
G01 X31.2616 Y30.0083
G01 X31.2654 Y29.9312
G01 X31.2663 Y29.9185
G01 X31.2683 Y29.9024
G01 X31.2815 Y29.8153
G01 X31.2851 Y29.7991
G01 X31.3034 Y29.7260
G01 X31.3071 Y29.7127
G01 X31.3118 Y29.6982
G01 X31.3417 Y29.6156
G01 X31.3484 Y29.6003
G01 X31.3806 Y29.5322
G01 X31.3867 Y29.5202
G01 X31.3944 Y29.5066
G01 X31.4333 Y29.4417
G01 X31.4403 Y29.4306
G01 X31.4493 Y29.4177
G01 X31.4942 Y29.3572
G01 X31.5026 Y29.3464
G01 X31.5127 Y29.3347
G01 X31.5717 Y29.2701
G01 X31.5839 Y29.2583
G01 X31.6398 Y29.2077
G01 X31.6505 Y29.1985
G01 X31.6622 Y29.1893
G01 X31.7228 Y29.1444
G01 X31.7334 Y29.1369
G01 X31.7469 Y29.1283
G01 X31.8117 Y29.0895
G01 X31.8232 Y29.0829
G01 X31.8373 Y29.0758
G01 X31.9054 Y29.0436
G01 X31.9178 Y29.0381
G01 X31.9323 Y29.0325
G01 X32.0035 Y29.0070
G01 X32.0170 Y29.0026
G01 X32.0311 Y28.9987
G01 X32.1044 Y28.9803
G01 X32.1179 Y28.9773
G01 X32.1328 Y28.9747
G01 X32.2073 Y28.9637
G01 X32.2214 Y28.9619
G01 X32.2363 Y28.9608
G01 X32.3238 Y28.9568
G01 X32.3407 Y28.9572
G01 X32.4159 Y28.9609
G01 X32.4298 Y28.9619
G01 X32.4449 Y28.9637
G01 X32.5195 Y28.9748
G01 X32.5335 Y28.9772
G01 X32.5479 Y28.9805
G01 X32.6211 Y28.9988
G01 X32.6347 Y29.0026
G01 X32.6489 Y29.0073
G01 X32.7200 Y29.0327
G01 X32.7332 Y29.0378
G01 X32.7468 Y29.0438
G01 X32.8149 Y29.0761
G01 X32.8270 Y29.0821
G01 X32.8405 Y29.0898
G01 X32.9052 Y29.1286
G01 X32.9169 Y29.1360
G01 X32.9294 Y29.1447
G01 X32.9899 Y29.1896
G01 X33.0006 Y29.1980
G01 X33.0124 Y29.2081
G01 X33.0682 Y29.2588
G01 X33.0779 Y29.2680
G01 X33.0888 Y29.2793
G01 X33.1394 Y29.3352
G01 X33.1491 Y29.3465
G01 X33.1575 Y29.3572
G01 X33.2024 Y29.4177
G01 X33.2109 Y29.4299
G01 X33.2185 Y29.4419
G01 X33.2573 Y29.5066
G01 X33.2650 Y29.5202
G01 X33.2711 Y29.5322
G01 X33.3033 Y29.6003
G01 X33.3093 Y29.6140
G01 X33.3144 Y29.6272
G01 X33.3398 Y29.6982
G01 X33.3445 Y29.7123
G01 X33.3484 Y29.7266
G01 X33.3668 Y29.7997
G01 X33.3697 Y29.8130
G01 X33.3724 Y29.8282
G01 X33.3835 Y29.9028
G01 X33.3852 Y29.9169
G01 X33.3863 Y29.9318
G01 X33.3900 Y30.0071
G01 X33.3903 Y30.0200
G01 X33.3900 Y30.0361
G01 X33.3863 Y30.1115
G01 X33.3852 Y30.1253
G01 X33.3834 Y30.1404
G01 X33.3722 Y30.2154
G01 X33.3701 Y30.2279
G01 X33.3666 Y30.2434
G01 X33.3483 Y30.3165
G01 X33.3446 Y30.3299
G01 X33.3398 Y30.3444
G01 X33.3144 Y30.4154
G01 X33.3095 Y30.4282
G01 X33.3033 Y30.4422
G01 X33.2711 Y30.5103
G01 X33.2650 Y30.5224
G01 X33.2573 Y30.5360
G01 X33.2185 Y30.6007
G01 X33.2109 Y30.6127
G01 X33.2024 Y30.6248
G01 X33.1575 Y30.6853
G01 X33.1491 Y30.6961
G01 X33.1390 Y30.7078
G01 X33.0884 Y30.7637
G01 X33.0791 Y30.7734
G01 X33.0678 Y30.7842
G01 X33.0119 Y30.8349
G01 X33.0006 Y30.8446
G01 X32.9899 Y30.8529
G01 X32.9294 Y30.8978
G01 X32.9169 Y30.9066
G01 X32.9052 Y30.9140
G01 X32.8405 Y30.9528
G01 X32.8270 Y30.9604
G01 X32.8144 Y30.9667
G01 X32.7462 Y30.9990
G01 X32.7339 Y31.0045
G01 X32.7193 Y31.0101
G01 X32.6482 Y31.0355
G01 X32.6347 Y31.0400
G01 X32.6205 Y31.0439
G01 X32.5473 Y31.0622
G01 X32.5338 Y31.0653
G01 X32.5189 Y31.0678
G01 X32.4443 Y31.0789
G01 X32.4302 Y31.0806
G01 X32.4154 Y31.0817
G01 X32.3401 Y31.0854
G01 X32.3271 Y31.0858
G01 X32.3118 Y31.0854
G01 X32.2363 Y31.0817
G01 X32.2194 Y31.0804
G01 X32.1306 Y31.0675
G01 X32.1172 Y31.0651
G01 X32.1037 Y31.0621
G01 X32.0306 Y31.0438
G01 X32.0170 Y31.0400
G01 X32.0035 Y31.0355
G01 X31.9307 Y31.0095
G01 X31.9180 Y31.0045
G01 X31.9065 Y30.9995
G01 X31.8366 Y30.9664
G01 X31.8232 Y30.9596
G01 X31.8117 Y30.9531
G01 X31.7448 Y30.9130
G01 X31.7334 Y30.9057
G01 X31.7229 Y30.8983
G01 X31.6618 Y30.8529
G01 X31.6508 Y30.8444
G01 X31.6398 Y30.8349
G01 X31.5834 Y30.7838
G01 X31.5737 Y30.7746
G01 X31.5642 Y30.7646
G01 X31.5122 Y30.7073
G01 X31.5032 Y30.6968
G01 X31.4942 Y30.6853
G01 X31.4489 Y30.6243
G01 X31.4368 Y30.6066
G01 X31.3943 Y30.5358
G01 X31.3875 Y30.5239
G01 X31.3807 Y30.5105
G01 X31.3483 Y30.4420
G01 X31.3430 Y30.4301
G01 X31.3378 Y30.4169
G01 X31.3117 Y30.3439
G01 X31.3074 Y30.3311
G01 X31.3034 Y30.3167
G01 X31.2847 Y30.2418
G01 X31.2819 Y30.2292
G01 X31.2795 Y30.2160
G01 X31.2682 Y30.1398
G01 X31.2665 Y30.1257
G01 X31.2654 Y30.1114
G01 X31.2617 Y30.0345
G01 X31.2616 Y30.0341
G01 X31.3293 Y30.0316
G01 X31.3292 Y30.0110
G01 X31.3337 Y29.9245
G01 X31.3352 Y29.9121
G01 X31.3463 Y29.8373
G01 X31.3482 Y29.8267
G01 X31.3689 Y29.7430
G01 X31.3721 Y29.7313
G01 X31.4009 Y29.6502
G01 X31.4078 Y29.6331
G01 X31.4422 Y29.5603
G01 X31.4524 Y29.5414
G01 X31.4967 Y29.4679
G01 X31.5034 Y29.4584
G01 X31.5491 Y29.3967
G01 X31.5625 Y29.3805
G01 X31.6133 Y29.3245
G01 X31.6216 Y29.3158
G01 X31.6857 Y29.2574
G01 X31.6939 Y29.2504
G01 X31.7025 Y29.2436
G01 X31.7629 Y29.1989
G01 X31.7724 Y29.1922
G01 X31.8463 Y29.1476
G01 X31.8652 Y29.1375
G01 X31.9439 Y29.1005
G01 X31.9547 Y29.0963
G01 X32.0269 Y29.0705
G01 X32.0472 Y29.0644
G01 X32.1312 Y29.0436
G01 X32.1423 Y29.0417
G01 X32.2171 Y29.0306
G01 X32.2385 Y29.0285
G01 X32.3250 Y29.0245
G01 X32.3369 Y29.0247
G01 X32.4132 Y29.0285
G01 X32.4338 Y29.0305
G01 X32.5094 Y29.0417
G01 X32.5205 Y29.0436
G01 X32.6045 Y29.0644
G01 X32.6248 Y29.0705
G01 X32.7066 Y29.1000
G01 X32.7175 Y29.1048
G01 X32.7866 Y29.1375
G01 X32.8051 Y29.1474
G01 X32.8792 Y29.1922
G01 X32.8887 Y29.1989
G01 X32.9491 Y29.2436
G01 X32.9576 Y29.2503
G01 X32.9660 Y29.2574
G01 X33.0301 Y29.3158
G01 X33.0384 Y29.3245
G01 X33.0889 Y29.3802
G01 X33.0972 Y29.3899
G01 X33.1487 Y29.4590
G01 X33.1606 Y29.4768
G01 X33.1995 Y29.5417
G01 X33.2053 Y29.5521
G01 X33.2421 Y29.6293
G01 X33.2505 Y29.6493
G01 X33.2795 Y29.7313
G01 X33.2828 Y29.7430
G01 X33.3034 Y29.8262
G01 X33.3053 Y29.8373
G01 X33.3164 Y29.9121
G01 X33.3179 Y29.9245
G01 X33.3224 Y30.0110
G01 X33.3224 Y30.0324
G01 X33.3186 Y30.1093
G01 X33.3164 Y30.1304
G01 X33.3053 Y30.2053
G01 X33.3034 Y30.2164
G01 X33.2827 Y30.2999
G01 X33.2766 Y30.3203
G01 X33.2472 Y30.4017
G01 X33.2421 Y30.4133
G01 X33.2100 Y30.4812
G01 X33.2045 Y30.4920
G01 X33.1608 Y30.5653
G01 X33.1538 Y30.5764
G01 X33.1028 Y30.6455
G01 X33.0961 Y30.6540
G01 X33.0889 Y30.6624
G01 X33.0384 Y30.7181
G01 X33.0301 Y30.7267
G01 X32.9669 Y30.7843
G01 X32.9504 Y30.7980
G01 X32.8881 Y30.8442
G01 X32.8710 Y30.8556
G01 X32.7965 Y30.9000
G01 X32.7858 Y30.9054
G01 X32.7178 Y30.9376
G01 X32.7023 Y30.9442
G01 X32.6248 Y30.9721
G01 X32.6041 Y30.9783
G01 X32.5205 Y30.9989
G01 X32.5094 Y31.0009
G01 X32.4350 Y31.0119
G01 X32.4135 Y31.0141
G01 X32.3275 Y31.0181
G01 X32.3143 Y31.0178
G01 X32.2283 Y31.0133
G01 X32.2171 Y31.0119
G01 X32.1427 Y31.0009
G01 X32.1305 Y30.9988
G01 X32.0465 Y30.9780
G01 X32.0355 Y30.9749
G01 X32.0256 Y30.9716
G01 X31.9547 Y30.9462
G01 X31.9439 Y30.9420
G01 X31.8659 Y30.9054
G01 X31.8470 Y30.8954
G01 X31.7724 Y30.8504
G01 X31.7629 Y30.8437
G01 X31.7025 Y30.7989
G01 X31.6928 Y30.7913
G01 X31.6284 Y30.7332
G01 X31.6204 Y30.7256
G01 X31.6130 Y30.7178
G01 X31.5625 Y30.6621
G01 X31.5550 Y30.6533
G01 X31.5034 Y30.5842
G01 X31.4919 Y30.5670
G01 X31.4471 Y30.4920
G01 X31.4417 Y30.4812
G01 X31.4096 Y30.4133
G01 X31.4045 Y30.4017
G01 X31.3752 Y30.3205
G01 X31.3690 Y30.2999
G01 X31.3482 Y30.2159
G01 X31.3463 Y30.2053
G01 X31.3352 Y30.1304
G01 X31.3332 Y30.1112
G01 X31.3293 Y30.0316
G01 X31.3969 Y30.0289
G01 X31.3968 Y30.0139
G01 X31.4005 Y29.9384
G01 X31.4022 Y29.9221
G01 X31.4146 Y29.8396
G01 X31.4367 Y29.7515
G01 X31.4673 Y29.6661
G01 X31.5027 Y29.5906
G01 X31.5104 Y29.5761
G01 X31.5497 Y29.5107
G01 X31.5575 Y29.4990
G01 X31.6074 Y29.4321
G01 X31.6632 Y29.3702
G01 X31.6748 Y29.3586
G01 X31.7366 Y29.3028
G01 X31.8029 Y29.2534
G01 X31.8162 Y29.2445
G01 X31.8885 Y29.2015
G01 X31.9635 Y29.1658
G01 X31.9771 Y29.1602
G01 X32.0483 Y29.1347
G01 X32.0633 Y29.1301
G01 X32.1442 Y29.1100
G01 X32.2266 Y29.0976
G01 X32.2422 Y29.0960
G01 X32.3250 Y29.0921
G01 X32.4087 Y29.0960
G01 X32.4243 Y29.0975
G01 X32.5075 Y29.1100
G01 X32.5877 Y29.1299
G01 X32.6033 Y29.1347
G01 X32.6818 Y29.1630
G01 X32.7565 Y29.1981
G01 X32.7706 Y29.2057
G01 X32.8416 Y29.2484
G01 X32.9088 Y29.2980
G01 X32.9215 Y29.3084
G01 X32.9834 Y29.3649
G01 X33.0387 Y29.4256
G01 X33.0491 Y29.4383
G01 X33.0985 Y29.5051
G01 X33.1412 Y29.5761
G01 X33.1487 Y29.5899
G01 X33.1838 Y29.6645
G01 X33.2124 Y29.7438
G01 X33.2154 Y29.7531
G01 X33.2355 Y29.8328
G01 X33.2385 Y29.8481
G01 X33.2506 Y29.9305
G01 X33.2548 Y30.0131
G01 X33.2548 Y30.0287
G01 X33.2506 Y30.1121
G01 X33.2370 Y30.2032
G01 X33.2170 Y30.2838
G01 X33.2124 Y30.2988
G01 X33.1844 Y30.3765
G01 X33.1490 Y30.4520
G01 X33.1412 Y30.4664
G01 X33.0983 Y30.5377
G01 X33.0487 Y30.6049
G01 X33.0387 Y30.6169
G01 X32.9823 Y30.6789
G01 X32.9215 Y30.7342
G01 X32.9094 Y30.7441
G01 X32.8430 Y30.7932
G01 X32.7710 Y30.8367
G01 X32.7602 Y30.8426
G01 X32.6882 Y30.8767
G01 X32.6738 Y30.8827
G01 X32.5952 Y30.9105
G01 X32.5151 Y30.9308
G01 X32.4998 Y30.9339
G01 X32.4183 Y30.9458
G01 X32.4087 Y30.9466
G01 X32.3250 Y30.9504
G01 X32.2422 Y30.9465
G01 X32.2266 Y30.9450
G01 X32.1442 Y30.9325
G01 X32.0640 Y30.9126
G01 X32.0484 Y30.9079
G01 X31.9699 Y30.8796
G01 X31.8945 Y30.8441
G01 X31.8807 Y30.8367
G01 X31.8101 Y30.7942
G01 X31.7429 Y30.7446
G01 X31.7302 Y30.7342
G01 X31.6682 Y30.6777
G01 X31.6129 Y30.6169
G01 X31.6025 Y30.6043
G01 X31.5530 Y30.5370
G01 X31.5104 Y30.4664
G01 X31.5030 Y30.4526
G01 X31.4673 Y30.3765
G01 X31.4390 Y30.2981
G01 X31.4347 Y30.2838
G01 X31.4146 Y30.2029
G01 X31.4022 Y30.1205
G01 X31.4006 Y30.1049
G01 X31.3969 Y30.0289
G01 X31.4645 Y30.0262
G01 X31.4645 Y30.0164
G01 X31.4681 Y29.9417
G01 X31.4691 Y29.9320
G01 X31.4809 Y29.8533
G01 X31.5013 Y29.7717
G01 X31.5282 Y29.6962
G01 X31.5319 Y29.6871
G01 X31.5661 Y29.6151
G01 X31.6096 Y29.5425
G01 X31.6569 Y29.4786
G01 X31.6631 Y29.4711
G01 X31.7167 Y29.4121
G01 X31.7756 Y29.3585
G01 X31.7832 Y29.3523
G01 X31.8471 Y29.3051
G01 X31.9155 Y29.2639
G01 X31.9219 Y29.2604
G01 X31.9960 Y29.2254
G01 X32.0712 Y29.1984
G01 X32.0805 Y29.1956
G01 X32.1579 Y29.1763
G01 X32.2365 Y29.1645
G01 X32.2463 Y29.1636
G01 X32.3258 Y29.1598
G01 X32.4054 Y29.1636
G01 X32.4151 Y29.1645
G01 X32.4938 Y29.1763
G01 X32.4986 Y29.1774
G01 X32.5712 Y29.1956
G01 X32.5805 Y29.1984
G01 X32.6557 Y29.2254
G01 X32.7276 Y29.2593
G01 X32.7362 Y29.2639
G01 X32.8025 Y29.3037
G01 X32.8085 Y29.3078
G01 X32.8721 Y29.3551
G01 X32.9315 Y29.4087
G01 X32.9384 Y29.4156
G01 X32.9920 Y29.4750
G01 X33.0393 Y29.5387
G01 X33.0448 Y29.5468
G01 X33.0856 Y29.6151
G01 X33.1198 Y29.6871
G01 X33.1235 Y29.6962
G01 X33.1504 Y29.7717
G01 X33.1697 Y29.8484
G01 X33.1715 Y29.8575
G01 X33.1832 Y29.9365
G01 X33.1872 Y30.0164
G01 X33.1872 Y30.0262
G01 X33.1832 Y30.1061
G01 X33.1716 Y30.1845
G01 X33.1697 Y30.1941
G01 X33.1504 Y30.2709
G01 X33.1235 Y30.3464
G01 X33.1198 Y30.3554
G01 X33.0856 Y30.4274
G01 X33.0448 Y30.4958
G01 X33.0393 Y30.5039
G01 X32.9920 Y30.5676
G01 X32.9384 Y30.6269
G01 X32.9315 Y30.6338
G01 X32.8721 Y30.6874
G01 X32.8085 Y30.7348
G01 X32.8003 Y30.7402
G01 X32.7320 Y30.7810
G01 X32.6557 Y30.8171
G01 X32.5805 Y30.8442
G01 X32.5712 Y30.8470
G01 X32.4938 Y30.8663
G01 X32.4151 Y30.8780
G01 X32.4054 Y30.8790
G01 X32.3258 Y30.8828
G01 X32.2463 Y30.8790
G01 X32.2365 Y30.8780
G01 X32.1579 Y30.8663
G01 X32.1530 Y30.8652
G01 X32.0805 Y30.8470
G01 X32.0712 Y30.8442
G01 X31.9960 Y30.8171
G01 X31.9241 Y30.7833
G01 X31.9155 Y30.7787
G01 X31.8513 Y30.7402
G01 X31.8432 Y30.7348
G01 X31.7794 Y30.6873
G01 X31.7202 Y30.6338
G01 X31.7133 Y30.6269
G01 X31.6598 Y30.5677
G01 X31.6123 Y30.5039
G01 X31.6069 Y30.4958
G01 X31.5661 Y30.4274
G01 X31.5319 Y30.3554
G01 X31.5282 Y30.3464
G01 X31.5013 Y30.2709
G01 X31.4820 Y30.1941
G01 X31.4801 Y30.1845
G01 X31.4685 Y30.1061
G01 X31.4645 Y30.0262
G00 Z0.5000
G00 X32.1820 Y31.1183
G01 F250.00
G01 Z-0.0400
G01 F2500.00
G01 X32.4720 Y31.1183
G01 X32.7503 Y31.0448
G01 X33.0004 Y30.8999
G01 X33.2041 Y30.6942
G01 X33.3495 Y30.4453
G01 X33.4229 Y30.1674
G01 X33.4229 Y29.8752
G01 X33.3495 Y29.5973
G01 X33.2041 Y29.3484
G01 X33.0004 Y29.1426
G01 X32.7503 Y28.9978
G01 X32.4720 Y28.9242
G01 X32.1820 Y28.9242
G01 X31.9016 Y28.9978
G01 X31.6536 Y29.1426
G01 X31.4472 Y29.3490
G01 X31.3022 Y29.5973
G01 X31.2288 Y29.8752
G01 X31.2288 Y30.1674
G01 X31.3022 Y30.4453
G01 X31.4472 Y30.6935
G01 X31.6536 Y30.8999
G01 X31.9016 Y31.0448
G01 X32.1820 Y31.1183
G01 X32.1733 Y31.1860
G01 X32.4808 Y31.1860
G01 X32.7764 Y31.1079
G01 X33.0421 Y30.9539
G01 X33.2582 Y30.7357
G01 X33.4125 Y30.4714
G01 X33.4906 Y30.1762
G01 X33.4906 Y29.8664
G01 X33.4125 Y29.5711
G01 X33.2582 Y29.3069
G01 X33.0421 Y29.0886
G01 X32.7764 Y28.9347
G01 X32.4808 Y28.8566
G01 X32.1733 Y28.8566
G01 X31.8755 Y28.9347
G01 X31.6119 Y29.0886
G01 X31.3932 Y29.3074
G01 X31.2391 Y29.5711
G01 X31.1611 Y29.8664
G01 X31.1611 Y30.1762
G01 X31.2391 Y30.4714
G01 X31.3932 Y30.7352
G01 X31.6119 Y30.9539
G01 X31.8755 Y31.1079
G01 X32.1733 Y31.1860
G01 X32.1645 Y31.2537
G01 X32.4895 Y31.2537
G01 X32.8025 Y31.1710
G01 X33.0838 Y31.0080
G01 X33.3123 Y30.7772
G01 X33.4756 Y30.4976
G01 X33.5582 Y30.1850
G01 X33.5582 Y29.8576
G01 X33.4756 Y29.5449
G01 X33.3123 Y29.2653
G01 X33.0838 Y29.0346
G01 X32.8025 Y28.8716
G01 X32.4895 Y28.7889
G01 X32.1645 Y28.7889
G01 X31.8494 Y28.8716
G01 X31.5703 Y29.0346
G01 X31.3392 Y29.2657
G01 X31.1761 Y29.5449
G01 X31.0935 Y29.8576
G01 X31.0935 Y30.1850
G01 X31.1761 Y30.4976
G01 X31.3392 Y30.7769
G01 X31.5703 Y31.0080
G01 X31.8494 Y31.1710
G01 X32.1645 Y31.2537
G01 X32.1558 Y31.3213
G01 X32.4983 Y31.3213
G01 X32.8285 Y31.2341
G01 X33.1255 Y31.0620
G01 X33.3664 Y30.8187
G01 X33.5387 Y30.5238
G01 X33.6259 Y30.1938
G01 X33.6259 Y29.8488
G01 X33.5387 Y29.5188
G01 X33.3664 Y29.2238
G01 X33.1255 Y28.9806
G01 X32.8285 Y28.8085
G01 X32.4983 Y28.7212
G01 X32.1558 Y28.7212
G01 X31.8232 Y28.8085
G01 X31.5286 Y28.9806
G01 X31.2851 Y29.2240
G01 X31.1130 Y29.5188
G01 X31.0258 Y29.8488
G01 X31.0258 Y30.1938
G01 X31.1130 Y30.5238
G01 X31.2851 Y30.8185
G01 X31.5286 Y31.0620
G01 X31.8232 Y31.2341
G01 X32.1558 Y31.3213
G00 Z0.5000
G00 X26.4420 Y46.5151
G01 F250.00
G01 Z-0.0400
G01 F2500.00
G01 X26.9369 Y46.5151
G01 X26.9368 Y46.8335
G01 X26.8707 Y46.7736
G01 X26.8465 Y46.7532
G01 X26.8318 Y46.7419
G01 X26.7492 Y46.6806
G01 X26.7448 Y46.6775
G01 X26.7440 Y46.6769
G01 X26.7435 Y46.6765
G01 X26.7427 Y46.6760
G01 X26.7414 Y46.6750
G01 X26.7342 Y46.6700
G01 X26.7203 Y46.6608
G01 X26.6194 Y46.6000
G01 X26.5926 Y46.5850
G01 X26.5727 Y46.5751
G01 X26.4795 Y46.5310
G01 X26.4608 Y46.5227
G01 X26.4420 Y46.5151
G01 X26.7223 Y46.5828
G01 X26.8692 Y46.5828
G01 X26.8692 Y46.6854
G01 X26.7778 Y46.6179
G01 X26.7536 Y46.6018
G01 X26.7223 Y46.5828
G01 X27.1399 Y48.4455
G01 X27.1399 Y49.7268
G01 X27.1403 Y49.7448
G01 X27.1416 Y49.7627
G01 X27.0002 Y49.7627
G01 X26.9852 Y49.7405
G01 X26.9246 Y49.6588
G01 X26.9144 Y49.6457
G01 X26.9027 Y49.6321
G01 X26.8356 Y49.5580
G01 X26.8225 Y49.5444
G01 X26.8111 Y49.5336
G01 X26.7377 Y49.4671
G01 X26.7235 Y49.4548
G01 X26.7098 Y49.4441
G01 X26.6303 Y49.3852
G01 X26.6172 Y49.3759
G01 X26.6016 Y49.3660
G01 X26.5157 Y49.3145
G01 X26.5002 Y49.3057
G01 X26.4849 Y49.2981
G01 X26.3934 Y49.2548
G01 X26.3809 Y49.2493
G01 X26.3676 Y49.2440
G01 X26.3811 Y49.2386
G01 X26.3942 Y49.2328
G01 X26.4853 Y49.1898
G01 X26.4994 Y49.1826
G01 X26.5165 Y49.1730
G01 X26.6015 Y49.1221
G01 X26.6158 Y49.1131
G01 X26.6302 Y49.1029
G01 X26.7098 Y49.0439
G01 X26.7247 Y49.0322
G01 X26.7372 Y49.0215
G01 X26.8108 Y48.9547
G01 X26.8284 Y48.9377
G01 X26.9024 Y48.8563
G01 X26.9153 Y48.8412
G01 X26.9246 Y48.8292
G01 X26.9842 Y48.7489
G01 X26.9988 Y48.7275
G01 X27.0037 Y48.7197
G01 X27.0542 Y48.6354
G01 X27.0548 Y48.6344
G01 X27.0550 Y48.6341
G01 X27.0556 Y48.6331
G01 X27.0556 Y48.6330
G01 X27.0674 Y48.6113
G01 X27.1176 Y48.5051
G01 X27.1250 Y48.4870
G01 X27.1399 Y48.4455
G01 X26.7807 Y49.2440
G01 X26.8344 Y49.2042
G01 X26.8547 Y49.1881
G01 X26.8725 Y49.1727
G01 X26.9368 Y49.1145
G01 X26.9368 Y49.3735
G01 X26.8724 Y49.3151
G01 X26.8546 Y49.2998
G01 X26.8343 Y49.2837
G01 X26.7807 Y49.2440
G01 X26.6613 Y49.2440
G01 X26.6851 Y49.2294
G01 X26.7082 Y49.2135
G01 X26.7940 Y49.1499
G01 X26.8075 Y49.1393
G01 X26.8205 Y49.1284
G01 X26.8285 Y49.1213
G01 X26.8287 Y49.1211
G01 X26.9015 Y49.0552
G01 X26.9024 Y49.0544
G01 X26.9185 Y49.0390
G01 X26.9351 Y49.0216
G01 X27.0045 Y48.9451
G01 X27.0045 Y49.5429
G01 X26.9352 Y49.4664
G01 X26.9187 Y49.4492
G01 X26.9024 Y49.4337
G01 X26.8252 Y49.3637
G01 X26.8082 Y49.3492
G01 X26.7913 Y49.3361
G01 X26.7079 Y49.2742
G01 X26.6933 Y49.2640
G01 X26.6796 Y49.2551
G01 X26.6613 Y49.2440
G01 X26.5281 Y49.2440
G01 X26.5493 Y49.2323
G01 X26.6378 Y49.1792
G01 X26.6537 Y49.1691
G01 X26.6693 Y49.1581
G01 X26.7510 Y49.0976
G01 X26.7666 Y49.0854
G01 X26.7825 Y49.0717
G01 X26.8611 Y49.0004
G01 X26.8736 Y48.9883
G01 X26.8855 Y48.9756
G01 X26.8863 Y48.9748
G01 X26.9522 Y48.9020
G01 X26.9534 Y48.9008
G01 X26.9694 Y48.8819
G01 X26.9792 Y48.8692
G01 X27.0436 Y48.7821
G01 X27.0562 Y48.7634
G01 X27.0722 Y48.7369
G01 X27.0722 Y49.6948
G01 X27.0355 Y49.6947
G01 X26.9786 Y49.6180
G01 X26.9658 Y49.6016
G01 X26.9530 Y49.5869
G01 X26.8845 Y49.5113
G01 X26.8721 Y49.4983
G01 X26.8582 Y49.4849
G01 X26.7824 Y49.4162
G01 X26.7682 Y49.4039
G01 X26.7501 Y49.3897
G01 X26.6701 Y49.3304
G01 X26.6533 Y49.3187
G01 X26.6366 Y49.3081
G01 X26.5510 Y49.2568
G01 X26.5281 Y49.2440
G00 Z0.5000
G00 X24.2731 Y49.1144
G01 F250.00
G01 Z-0.0400
G01 F2500.00
G01 X24.3376 Y49.1729
G01 X24.3554 Y49.1882
G01 X24.3757 Y49.2043
G01 X24.4293 Y49.2440
G01 X24.3756 Y49.2838
G01 X24.3553 Y49.2999
G01 X24.3375 Y49.3153
G01 X24.2731 Y49.3736
G01 X24.2731 Y49.1144
G01 X24.2055 Y48.9451
G01 X24.2748 Y49.0216
G01 X24.2916 Y49.0391
G01 X24.3077 Y49.0544
G01 X24.3896 Y49.1285
G01 X24.4026 Y49.1394
G01 X24.4161 Y49.1500
G01 X24.5019 Y49.2136
G01 X24.5249 Y49.2294
G01 X24.5487 Y49.2440
G01 X24.5249 Y49.2586
G01 X24.5018 Y49.2745
G01 X24.4160 Y49.3381
G01 X24.4025 Y49.3487
G01 X24.3895 Y49.3596
G01 X24.3076 Y49.4336
G01 X24.2915 Y49.4490
G01 X24.2749 Y49.4664
G01 X24.2055 Y49.5429
G01 X24.2055 Y48.9451
G01 X24.1378 Y48.7369
G01 X24.1539 Y48.7635
G01 X24.1664 Y48.7822
G01 X24.2308 Y48.8692
G01 X24.2406 Y48.8820
G01 X24.2567 Y48.9008
G01 X24.3245 Y48.9757
G01 X24.3364 Y48.9883
G01 X24.3489 Y49.0004
G01 X24.4276 Y49.0718
G01 X24.4434 Y49.0854
G01 X24.4590 Y49.0976
G01 X24.5407 Y49.1581
G01 X24.5563 Y49.1691
G01 X24.5722 Y49.1792
G01 X24.6607 Y49.2323
G01 X24.6819 Y49.2440
G01 X24.6607 Y49.2558
G01 X24.5722 Y49.3088
G01 X24.5563 Y49.3189
G01 X24.5407 Y49.3299
G01 X24.4590 Y49.3904
G01 X24.4434 Y49.4027
G01 X24.4275 Y49.4163
G01 X24.3489 Y49.4877
G01 X24.3364 Y49.4997
G01 X24.3245 Y49.5124
G01 X24.2566 Y49.5872
G01 X24.2406 Y49.6061
G01 X24.2308 Y49.6188
G01 X24.1664 Y49.7059
G01 X24.1538 Y49.7246
G01 X24.1378 Y49.7511
G01 X24.1378 Y48.7369
G01 X24.0701 Y48.4455
G01 X24.0850 Y48.4870
G01 X24.0924 Y48.5051
G01 X24.1426 Y48.6113
G01 X24.1544 Y48.6330
G01 X24.2112 Y48.7275
G01 X24.2258 Y48.7489
G01 X24.2854 Y48.8292
G01 X24.2947 Y48.8412
G01 X24.3076 Y48.8563
G01 X24.3816 Y48.9377
G01 X24.3992 Y48.9547
G01 X24.4728 Y49.0215
G01 X24.4853 Y49.0322
G01 X24.5002 Y49.0439
G01 X24.5798 Y49.1029
G01 X24.5942 Y49.1131
G01 X24.6085 Y49.1221
G01 X24.6934 Y49.1730
G01 X24.7106 Y49.1826
G01 X24.7247 Y49.1898
G01 X24.8158 Y49.2328
G01 X24.8289 Y49.2386
G01 X24.8424 Y49.2440
G01 X24.8289 Y49.2494
G01 X24.8158 Y49.2552
G01 X24.7247 Y49.2982
G01 X24.7106 Y49.3054
G01 X24.6934 Y49.3150
G01 X24.6085 Y49.3659
G01 X24.5942 Y49.3750
G01 X24.5798 Y49.3851
G01 X24.5002 Y49.4441
G01 X24.4853 Y49.4558
G01 X24.4728 Y49.4665
G01 X24.3992 Y49.5333
G01 X24.3816 Y49.5503
G01 X24.3076 Y49.6317
G01 X24.2947 Y49.6468
G01 X24.2854 Y49.6588
G01 X24.2258 Y49.7391
G01 X24.2112 Y49.7605
G01 X24.1544 Y49.8550
G01 X24.1426 Y49.8768
G01 X24.0924 Y49.9829
G01 X24.0850 Y50.0010
G01 X24.0701 Y50.0425
G01 X24.0701 Y48.4455
G01 X24.0531 Y47.9868
G01 X24.0580 Y48.0874
G01 X24.0593 Y48.1033
G01 X24.0609 Y48.1162
G01 X24.0753 Y48.2134
G01 X24.0779 Y48.2283
G01 X24.0811 Y48.2424
G01 X24.1051 Y48.3382
G01 X24.1086 Y48.3509
G01 X24.1134 Y48.3657
G01 X24.1468 Y48.4590
G01 X24.1522 Y48.4729
G01 X24.1580 Y48.4858
G01 X24.2009 Y48.5766
G01 X24.2062 Y48.5871
G01 X24.2127 Y48.5986
G01 X24.2646 Y48.6853
G01 X24.2730 Y48.6984
G01 X24.2808 Y48.7095
G01 X24.3472 Y48.7985
G01 X24.3581 Y48.8112
G01 X24.4241 Y48.8840
G01 X24.4333 Y48.8938
G01 X24.4445 Y48.9045
G01 X24.5181 Y48.9712
G01 X24.5296 Y48.9810
G01 X24.5405 Y48.9896
G01 X24.6211 Y49.0493
G01 X24.6313 Y49.0564
G01 X24.6418 Y49.0632
G01 X24.7287 Y49.1152
G01 X24.7421 Y49.1228
G01 X24.7543 Y49.1289
G01 X24.8547 Y49.1761
G01 X24.8702 Y49.1821
G01 X24.9731 Y49.2187
G01 X24.9897 Y49.2235
G01 X25.0715 Y49.2440
G01 X24.9897 Y49.2645
G01 X24.9731 Y49.2693
G01 X24.8702 Y49.3059
G01 X24.8547 Y49.3119
G01 X24.7543 Y49.3591
G01 X24.7421 Y49.3652
G01 X24.7287 Y49.3728
G01 X24.6418 Y49.4248
G01 X24.6313 Y49.4316
G01 X24.6211 Y49.4387
G01 X24.5405 Y49.4984
G01 X24.5296 Y49.5070
G01 X24.5181 Y49.5168
G01 X24.4445 Y49.5836
G01 X24.4333 Y49.5943
G01 X24.4241 Y49.6040
G01 X24.3581 Y49.6768
G01 X24.3466 Y49.6902
G01 X24.2808 Y49.7785
G01 X24.2730 Y49.7896
G01 X24.2646 Y49.8027
G01 X24.2127 Y49.8894
G01 X24.2062 Y49.9009
G01 X24.2009 Y49.9114
G01 X24.1580 Y50.0022
G01 X24.1521 Y50.0153
G01 X24.1467 Y50.0294
G01 X24.1133 Y50.1227
G01 X24.1086 Y50.1371
G01 X24.1051 Y50.1498
G01 X24.0811 Y50.2456
G01 X24.0778 Y50.2600
G01 X24.0754 Y50.2740
G01 X24.0609 Y50.3717
G01 X24.0591 Y50.3863
G01 X24.0580 Y50.4010
G01 X24.0529 Y50.5064
G01 X24.0532 Y50.5288
G01 X24.0580 Y50.6270
G01 X24.0590 Y50.6400
G01 X24.0608 Y50.6558
G01 X24.0753 Y50.7536
G01 X24.0779 Y50.7683
G01 X24.0811 Y50.7824
G01 X24.1055 Y50.8798
G01 X24.1092 Y50.8931
G01 X24.1133 Y50.9053
G01 X24.1468 Y50.9990
G01 X24.1523 Y51.0132
G01 X24.1579 Y51.0256
G01 X24.1999 Y51.1145
G01 X24.2070 Y51.1285
G01 X24.2137 Y51.1403
G01 X24.2643 Y51.2248
G01 X24.2720 Y51.2370
G01 X24.2807 Y51.2493
G01 X24.3456 Y51.3366
G01 X24.3579 Y51.3510
G01 X24.4327 Y51.4332
G01 X24.4445 Y51.4445
G01 X24.5181 Y51.5112
G01 X24.5296 Y51.5210
G01 X24.5405 Y51.5296
G01 X24.6211 Y51.5893
G01 X24.6313 Y51.5964
G01 X24.6418 Y51.6032
G01 X24.7287 Y51.6552
G01 X24.7421 Y51.6628
G01 X24.7543 Y51.6689
G01 X24.8547 Y51.7161
G01 X24.8702 Y51.7221
G01 X24.9731 Y51.7587
G01 X24.9897 Y51.7635
G01 X25.0715 Y51.7840
G01 X24.9897 Y51.8045
G01 X24.9731 Y51.8093
G01 X24.8702 Y51.8459
G01 X24.8547 Y51.8519
G01 X24.7543 Y51.8991
G01 X24.7421 Y51.9052
G01 X24.7287 Y51.9128
G01 X24.6425 Y51.9644
G01 X24.6311 Y51.9717
G01 X24.6193 Y51.9800
G01 X24.5387 Y52.0398
G01 X24.5294 Y52.0472
G01 X24.5191 Y52.0559
G01 X24.4445 Y52.1236
G01 X24.4336 Y52.1340
G01 X24.4241 Y52.1440
G01 X24.3542 Y52.2212
G01 X24.3403 Y52.2383
G01 X24.2804 Y52.3190
G01 X24.2720 Y52.3310
G01 X24.2646 Y52.3427
G01 X24.2134 Y52.4281
G01 X24.2060 Y52.4413
G01 X24.2000 Y52.4533
G01 X24.1580 Y52.5422
G01 X24.1519 Y52.5559
G01 X24.1466 Y52.5696
G01 X24.1135 Y52.6622
G01 X24.1093 Y52.6747
G01 X24.1051 Y52.6898
G01 X24.0807 Y52.7872
G01 X24.0779 Y52.7997
G01 X24.0757 Y52.8124
G01 X24.0609 Y52.9117
G01 X24.0591 Y52.9263
G01 X24.0580 Y52.9412
G01 X24.0532 Y53.0398
G01 X24.0528 Y53.0552
G01 X24.0532 Y53.0688
G01 X24.0580 Y53.1668
G01 X24.0591 Y53.1817
G01 X24.0609 Y53.1964
G01 X24.0753 Y53.2936
G01 X24.0776 Y53.3066
G01 X24.0809 Y53.3218
G01 X24.1051 Y53.4182
G01 X24.1089 Y53.4318
G01 X24.1135 Y53.4459
G01 X24.1474 Y53.5407
G01 X24.1522 Y53.5529
G01 X24.1572 Y53.5642
G01 X24.2002 Y53.6551
G01 X24.2070 Y53.6685
G01 X24.2138 Y53.6806
G01 X24.2693 Y53.7728
G01 X24.2804 Y53.7890
G01 X24.3472 Y53.8785
G01 X24.3576 Y53.8907
G01 X24.4239 Y53.9639
G01 X24.4336 Y53.9740
G01 X24.4445 Y53.9845
G01 X24.5189 Y54.0519
G01 X24.5350 Y54.0654
G01 X24.6195 Y54.1281
G01 X24.6315 Y54.1366
G01 X24.6438 Y54.1444
G01 X24.7360 Y54.1994
G01 X24.7537 Y54.2086
G01 X24.8508 Y54.2544
G01 X24.8681 Y54.2614
G01 X24.9213 Y54.2804
G01 X24.9213 Y54.8019
G01 X24.9075 Y54.7972
G01 X24.8954 Y54.7937
G01 X24.8715 Y54.7884
G01 X24.8607 Y54.7866
G01 X24.8469 Y54.7850
G01 X24.8329 Y54.7839
G01 X24.8222 Y54.7836
G01 X24.0025 Y54.7835
G01 X24.0025 Y46.2445
G01 X27.2075 Y46.2445
G01 X27.2075 Y49.7275
G01 X27.2079 Y49.7410
G01 X27.2087 Y49.7534
G01 X27.2105 Y49.7691
G01 X27.2126 Y49.7816
G01 X27.2177 Y49.8043
G01 X27.2214 Y49.8171
G01 X27.2259 Y49.8303
G01 X26.9619 Y49.8303
G01 X26.9429 Y49.7987
G01 X26.9337 Y49.7848
G01 X26.8663 Y49.6939
G01 X26.8525 Y49.6775
G01 X26.7809 Y49.5985
G01 X26.7655 Y49.5836
G01 X26.6922 Y49.5171
G01 X26.6823 Y49.5085
G01 X26.6699 Y49.4988
G01 X26.5854 Y49.4362
G01 X26.5665 Y49.4238
G01 X26.4817 Y49.3730
G01 X26.4701 Y49.3664
G01 X26.4558 Y49.3592
G01 X26.3564 Y49.3124
G01 X26.3398 Y49.3059
G01 X26.2369 Y49.2693
G01 X26.2203 Y49.2645
G01 X26.1385 Y49.2440
G01 X26.2203 Y49.2235
G01 X26.2369 Y49.2187
G01 X26.3398 Y49.1821
G01 X26.3549 Y49.1763
G01 X26.3668 Y49.1709
G01 X26.4557 Y49.1289
G01 X26.4679 Y49.1228
G01 X26.4813 Y49.1152
G01 X26.5667 Y49.0641
G01 X26.5787 Y49.0564
G01 X26.5907 Y49.0480
G01 X26.6712 Y48.9883
G01 X26.6806 Y48.9809
G01 X26.6906 Y48.9724
G01 X26.7652 Y48.9047
G01 X26.7752 Y48.8952
G01 X26.7856 Y48.8843
G01 X26.8525 Y48.8106
G01 X26.8622 Y48.7992
G01 X26.8708 Y48.7883
G01 X26.9305 Y48.7077
G01 X26.9379 Y48.6970
G01 X26.9448 Y48.6863
G01 X26.9965 Y48.6000
G01 X27.0040 Y48.5867
G01 X27.0101 Y48.5745
G01 X27.0570 Y48.4746
G01 X27.0632 Y48.4590
G01 X27.0968 Y48.3651
G01 X27.1011 Y48.3518
G01 X27.1049 Y48.3384
G01 X27.1290 Y48.2422
G01 X27.1321 Y48.2283
G01 X27.1346 Y48.2140
G01 X27.1493 Y48.1146
G01 X27.1509 Y48.1017
G01 X27.1519 Y48.0891
G01 X27.1568 Y47.9888
G01 X27.1572 Y47.9748
G01 X27.1569 Y47.9608
G01 X27.1520 Y47.8606
G01 X27.1507 Y47.8447
G01 X27.1491 Y47.8317
G01 X27.1347 Y47.7344
G01 X27.1325 Y47.7217
G01 X27.1291 Y47.7062
G01 X27.1047 Y47.6089
G01 X27.1008 Y47.5949
G01 X27.0965 Y47.5821
G01 X27.0632 Y47.4890
G01 X27.0578 Y47.4750
G01 X27.0520 Y47.4622
G01 X27.0044 Y47.3620
G01 X26.9966 Y47.3481
G01 X26.9448 Y47.2617
G01 X26.9370 Y47.2496
G01 X26.9292 Y47.2385
G01 X26.8704 Y47.1593
G01 X26.8611 Y47.1474
G01 X26.8519 Y47.1368
G01 X26.7859 Y47.0640
G01 X26.7767 Y47.0543
G01 X26.7655 Y47.0436
G01 X26.6911 Y46.9761
G01 X26.6804 Y46.9670
G01 X26.6699 Y46.9588
G01 X26.5902 Y46.8996
G01 X26.5785 Y46.8914
G01 X26.5662 Y46.8836
G01 X26.4776 Y46.8306
G01 X26.4563 Y46.8194
G01 X26.3665 Y46.7769
G01 X26.3529 Y46.7709
G01 X26.3398 Y46.7659
G01 X26.2455 Y46.7321
G01 X26.2327 Y46.7280
G01 X26.2195 Y46.7243
G01 X26.1235 Y46.7002
G01 X26.1098 Y46.6972
G01 X26.0956 Y46.6947
G01 X25.9970 Y46.6800
G01 X25.9829 Y46.6783
G01 X25.9698 Y46.6773
G01 X25.8574 Y46.6720
G01 X25.3512 Y46.6721
G01 X25.2411 Y46.6773
G01 X25.2176 Y46.6794
G01 X25.1144 Y46.6947
G01 X25.0998 Y46.6972
G01 X25.0865 Y46.7002
G01 X24.9912 Y46.7241
G01 X24.9773 Y46.7280
G01 X24.9628 Y46.7327
G01 X24.8702 Y46.7659
G01 X24.8578 Y46.7706
G01 X24.8435 Y46.7769
G01 X24.7538 Y46.8193
G01 X24.7403 Y46.8262
G01 X24.7281 Y46.8331
G01 X24.6420 Y46.8847
G01 X24.6315 Y46.8914
G01 X24.6213 Y46.8986
G01 X24.5404 Y46.9585
G01 X24.5294 Y46.9672
G01 X24.5181 Y46.9768
G01 X24.4449 Y47.0431
G01 X24.4348 Y47.0528
G01 X24.4251 Y47.0629
G01 X24.3576 Y47.1373
G01 X24.3480 Y47.1485
G01 X24.3394 Y47.1596
G01 X24.2797 Y47.2400
G01 X24.2718 Y47.2513
G01 X24.2643 Y47.2632
G01 X24.2135 Y47.3480
G01 X24.2062 Y47.3609
G01 X24.2000 Y47.3733
G01 X24.1573 Y47.4636
G01 X24.1520 Y47.4757
G01 X24.1469 Y47.4888
G01 X24.1133 Y47.5827
G01 X24.1081 Y47.5988
G01 X24.0811 Y47.7056
G01 X24.0780 Y47.7191
G01 X24.0754 Y47.7340
G01 X24.0607 Y47.8332
G01 X24.0591 Y47.8467
G01 X24.0580 Y47.8612
G01 X24.0531 Y47.9614
G01 X24.0528 Y47.9748
G01 X24.0531 Y47.9868
G00 Z0.5000
G00 X24.1884 Y47.9816
G01 F250.00
G01 Z-0.0400
G01 F2500.00
G01 X24.1937 Y48.0881
G01 X24.2092 Y48.1935
G01 X24.2124 Y48.2096
G01 X24.2387 Y48.3136
G01 X24.2771 Y48.4208
G01 X24.3222 Y48.5166
G01 X24.3298 Y48.5308
G01 X24.3854 Y48.6231
G01 X24.4525 Y48.7135
G01 X24.5242 Y48.7930
G01 X24.5358 Y48.8046
G01 X24.6153 Y48.8764
G01 X24.7065 Y48.9439
G01 X24.7977 Y48.9989
G01 X24.8122 Y49.0066
G01 X24.9087 Y49.0520
G01 X25.0161 Y49.0904
G01 X25.1192 Y49.1164
G01 X25.1346 Y49.1195
G01 X25.2323 Y49.1340
G01 X25.2443 Y49.1354
G01 X25.3548 Y49.1407
G01 X25.8565 Y49.1406
G01 X25.9657 Y49.1354
G01 X25.9777 Y49.1340
G01 X26.0754 Y49.1195
G01 X26.0908 Y49.1164
G01 X26.1939 Y49.0904
G01 X26.2940 Y49.0548
G01 X26.3091 Y49.0485
G01 X26.4044 Y49.0033
G01 X26.4964 Y48.9484
G01 X26.5068 Y48.9416
G01 X26.5947 Y48.8764
G01 X26.6742 Y48.8046
G01 X26.6852 Y48.7936
G01 X26.7517 Y48.7203
G01 X26.7621 Y48.7077
G01 X26.8255 Y48.6217
G01 X26.8844 Y48.5233
G01 X26.9329 Y48.4208
G01 X26.9691 Y48.3204
G01 X26.9736 Y48.3055
G01 X26.9976 Y48.2096
G01 X27.0008 Y48.1935
G01 X27.0162 Y48.0881
G01 X27.0218 Y47.9748
G01 X27.0168 Y47.8678
G01 X27.0152 Y47.8515
G01 X26.9993 Y47.7460
G01 X26.9717 Y47.6357
G01 X26.9329 Y47.5272
G01 X26.8878 Y47.4314
G01 X26.8802 Y47.4173
G01 X26.8246 Y47.3249
G01 X26.7575 Y47.2345
G01 X26.6858 Y47.1550
G01 X26.6748 Y47.1440
G01 X26.6015 Y47.0775
G01 X26.5888 Y47.0671
G01 X26.5033 Y47.0039
G01 X26.4044 Y46.9447
G01 X26.3028 Y46.8966
G01 X26.2016 Y46.8602
G01 X26.1859 Y46.8554
G01 X26.0900 Y46.8314
G01 X26.0754 Y46.8285
G01 X25.9692 Y46.8129
G01 X25.8615 Y46.8075
G01 X25.3534 Y46.8074
G01 X25.2477 Y46.8124
G01 X25.2323 Y46.8140
G01 X25.1265 Y46.8299
G01 X25.0241 Y46.8554
G01 X25.0084 Y46.8602
G01 X24.9072 Y46.8966
G01 X24.8055 Y46.9447
G01 X24.7067 Y47.0039
G01 X24.6212 Y47.0671
G01 X24.6085 Y47.0775
G01 X24.5352 Y47.1440
G01 X24.5242 Y47.1550
G01 X24.4525 Y47.2345
G01 X24.3854 Y47.3249
G01 X24.3298 Y47.4173
G01 X24.3222 Y47.4314
G01 X24.2771 Y47.5272
G01 X24.2398 Y47.6310
G01 X24.2362 Y47.6432
G01 X24.2106 Y47.7460
G01 X24.1948 Y47.8515
G01 X24.1932 Y47.8678
G01 X24.1883 Y47.9666
G01 X24.1884 Y47.9816
G01 X24.1207 Y47.9844
G01 X24.1258 Y48.0872
G01 X24.1278 Y48.1060
G01 X24.1440 Y48.2136
G01 X24.1467 Y48.2260
G01 X24.1706 Y48.3212
G01 X24.1736 Y48.3320
G01 X24.1772 Y48.3432
G01 X24.2108 Y48.4368
G01 X24.2190 Y48.4565
G01 X24.2611 Y48.5456
G01 X24.2667 Y48.5566
G01 X24.3223 Y48.6500
G01 X24.3292 Y48.6607
G01 X24.4002 Y48.7565
G01 X24.4082 Y48.7658
G01 X24.4777 Y48.8424
G01 X24.4901 Y48.8545
G01 X24.5630 Y48.9206
G01 X24.5723 Y48.9286
G01 X24.5805 Y48.9350
G01 X24.6596 Y48.9937
G01 X24.6695 Y49.0006
G01 X24.6788 Y49.0065
G01 X24.7722 Y49.0621
G01 X24.7833 Y49.0678
G01 X24.8812 Y49.1138
G01 X24.8932 Y49.1185
G01 X24.9856 Y49.1516
G01 X24.9967 Y49.1552
G01 X25.0073 Y49.1581
G01 X25.1032 Y49.1822
G01 X25.1186 Y49.1855
G01 X25.2224 Y49.2010
G01 X25.2339 Y49.2024
G01 X25.2453 Y49.2032
G01 X25.3476 Y49.2082
G01 X25.8609 Y49.2082
G01 X25.9647 Y49.2032
G01 X25.9760 Y49.2024
G01 X25.9876 Y49.2010
G01 X26.0846 Y49.1866
G01 X26.0950 Y49.1848
G01 X26.1060 Y49.1824
G01 X26.2088 Y49.1565
G01 X26.2240 Y49.1517
G01 X26.3172 Y49.1184
G01 X26.3273 Y49.1145
G01 X26.3381 Y49.1097
G01 X26.4271 Y49.0676
G01 X26.4378 Y49.0621
G01 X26.5312 Y49.0065
G01 X26.5409 Y49.0003
G01 X26.5504 Y48.9937
G01 X26.6301 Y48.9345
G01 X26.6386 Y48.9278
G01 X26.6470 Y48.9206
G01 X26.7196 Y48.8547
G01 X26.7286 Y48.8462
G01 X26.8018 Y48.7658
G01 X26.8090 Y48.7574
G01 X26.8164 Y48.7480
G01 X26.8756 Y48.6682
G01 X26.8817 Y48.6594
G01 X26.8876 Y48.6500
G01 X26.9382 Y48.5657
G01 X26.9441 Y48.5552
G01 X26.9909 Y48.4569
G01 X26.9953 Y48.4469
G01 X26.9997 Y48.4356
G01 X27.0329 Y48.3428
G01 X27.0364 Y48.3320
G01 X27.0394 Y48.3212
G01 X27.0657 Y48.2150
G01 X27.0678 Y48.2034
G01 X27.0830 Y48.1000
G01 X27.0844 Y48.0835
G01 X27.0895 Y47.9748
G01 X27.0892 Y47.9625
G01 X27.0844 Y47.8645
G01 X27.0836 Y47.8531
G01 X27.0821 Y47.8416
G01 X27.0678 Y47.7446
G01 X27.0657 Y47.7330
G01 X27.0394 Y47.6268
G01 X27.0360 Y47.6147
G01 X26.9997 Y47.5124
G01 X26.9953 Y47.5011
G01 X26.9489 Y47.4024
G01 X26.9433 Y47.3914
G01 X26.8876 Y47.2980
G01 X26.8808 Y47.2873
G01 X26.8157 Y47.1991
G01 X26.8021 Y47.1826
G01 X26.7356 Y47.1093
G01 X26.7268 Y47.1000
G01 X26.6460 Y47.0265
G01 X26.6377 Y47.0194
G01 X26.6291 Y47.0128
G01 X26.5504 Y46.9543
G01 X26.5409 Y46.9477
G01 X26.5312 Y46.9415
G01 X26.4471 Y46.8911
G01 X26.4281 Y46.8809
G01 X26.3381 Y46.8383
G01 X26.3180 Y46.8299
G01 X26.2141 Y46.7930
G01 X26.2024 Y46.7898
G01 X26.0974 Y46.7637
G01 X26.0847 Y46.7614
G01 X25.9777 Y46.7458
G01 X25.9647 Y46.7448
G01 X25.8643 Y46.7399
G01 X25.3476 Y46.7398
G01 X25.2453 Y46.7448
G01 X25.2339 Y46.7456
G01 X25.2224 Y46.7470
G01 X25.1194 Y46.7624
G01 X25.1028 Y46.7659
G01 X24.9967 Y46.7928
G01 X24.9856 Y46.7965
G01 X24.8827 Y46.8336
G01 X24.8719 Y46.8383
G01 X24.7833 Y46.8803
G01 X24.7722 Y46.8859
G01 X24.6784 Y46.9418
G01 X24.6638 Y46.9513
G01 X24.5799 Y47.0135
G01 X24.5714 Y47.0202
G01 X24.5630 Y47.0274
G01 X24.4826 Y47.1006
G01 X24.4741 Y47.1096
G01 X24.4082 Y47.1822
G01 X24.4010 Y47.1906
G01 X24.3943 Y47.1991
G01 X24.3292 Y47.2873
G01 X24.3223 Y47.2980
G01 X24.2719 Y47.3821
G01 X24.2655 Y47.3936
G01 X24.2186 Y47.4922
G01 X24.2105 Y47.5120
G01 X24.1772 Y47.6048
G01 X24.1736 Y47.6160
G01 X24.1466 Y47.7224
G01 X24.1442 Y47.7330
G01 X24.1423 Y47.7442
G01 X24.1278 Y47.8416
G01 X24.1264 Y47.8531
G01 X24.1256 Y47.8645
G01 X24.1208 Y47.9629
G01 X24.1205 Y47.9732
G01 X24.1207 Y47.9844
G01 X24.0701 Y47.5025
G01 X24.0701 Y46.3121
G01 X27.1399 Y46.3121
G01 X27.1399 Y47.5025
G01 X27.1248 Y47.4607
G01 X27.1168 Y47.4410
G01 X27.0704 Y47.3427
G01 X27.0588 Y47.3206
G01 X27.0035 Y47.2281
G01 X26.9942 Y47.2133
G01 X26.9838 Y47.1985
G01 X26.9198 Y47.1125
G01 X26.9036 Y47.0931
G01 X26.8356 Y47.0181
G01 X26.8244 Y47.0063
G01 X26.8120 Y46.9944
G01 X26.7371 Y46.9265
G01 X26.7233 Y46.9146
G01 X26.7101 Y46.9043
G01 X26.6231 Y46.8400
G01 X26.6027 Y46.8266
G01 X26.5157 Y46.7745
G01 X26.5002 Y46.7657
G01 X26.4854 Y46.7583
G01 X26.3950 Y46.7155
G01 X26.3778 Y46.7080
G01 X26.3632 Y46.7024
G01 X26.2700 Y46.6690
G01 X26.2537 Y46.6636
G01 X26.2361 Y46.6587
G01 X26.1378 Y46.6341
G01 X26.1211 Y46.6304
G01 X26.1045 Y46.6276
G01 X26.0064 Y46.6130
G01 X25.9878 Y46.6108
G01 X25.9718 Y46.6097
G01 X25.8733 Y46.6048
G01 X25.8552 Y46.6044
G01 X25.3500 Y46.6044
G01 X25.2361 Y46.6098
G01 X25.2205 Y46.6110
G01 X25.2053 Y46.6128
G01 X25.1042 Y46.6278
G01 X25.0863 Y46.6310
G01 X25.0707 Y46.6345
G01 X24.9747 Y46.6585
G01 X24.9571 Y46.6634
G01 X24.9400 Y46.6690
G01 X24.8468 Y46.7024
G01 X24.8314 Y46.7083
G01 X24.8148 Y46.7157
G01 X24.7172 Y46.7619
G01 X24.6942 Y46.7746
G01 X24.6085 Y46.8259
G01 X24.5949 Y46.8345
G01 X24.5791 Y46.8456
G01 X24.4996 Y46.9046
G01 X24.4878 Y46.9138
G01 X24.4722 Y46.9271
G01 X24.3989 Y46.9936
G01 X24.3874 Y47.0045
G01 X24.3744 Y47.0181
G01 X24.3031 Y47.0968
G01 X24.2861 Y47.1179
G01 X24.2262 Y47.1985
G01 X24.2177 Y47.2106
G01 X24.2068 Y47.2276
G01 X24.1521 Y47.3189
G01 X24.1397 Y47.3426
G01 X24.0933 Y47.4409
G01 X24.0852 Y47.4607
G01 X24.0701 Y47.5025
G01 X24.1378 Y47.2111
G01 X24.1378 Y46.3798
G01 X27.0722 Y46.3798
G01 X27.0722 Y47.2111
G01 X27.0561 Y47.1845
G01 X27.0437 Y47.1659
G01 X26.9792 Y47.0788
G01 X26.9695 Y47.0662
G01 X26.9533 Y47.0472
G01 X26.8856 Y46.9724
G01 X26.8738 Y46.9600
G01 X26.8620 Y46.9484
G01 X26.7828 Y46.8766
G01 X26.7676 Y46.8635
G01 X26.7512 Y46.8506
G01 X26.6709 Y46.7910
G01 X26.6549 Y46.7797
G01 X26.6392 Y46.7696
G01 X26.5391 Y46.7099
G01 X26.5140 Y46.6970
G01 X26.4234 Y46.6542
G01 X26.4032 Y46.6453
G01 X26.3862 Y46.6388
G01 X26.2891 Y46.6040
G01 X26.2699 Y46.5979
G01 X26.2522 Y46.5930
G01 X26.1553 Y46.5687
G01 X26.1361 Y46.5644
G01 X26.1163 Y46.5609
G01 X26.0151 Y46.5459
G01 X25.9962 Y46.5436
G01 X25.9777 Y46.5422
G01 X25.8751 Y46.5372
G01 X25.8552 Y46.5367
G01 X25.3498 Y46.5367
G01 X25.3342 Y46.5372
G01 X25.2349 Y46.5421
G01 X25.2119 Y46.5438
G01 X25.1936 Y46.5461
G01 X25.0915 Y46.5613
G01 X25.0728 Y46.5647
G01 X25.0538 Y46.5689
G01 X24.9570 Y46.5932
G01 X24.9365 Y46.5989
G01 X24.9176 Y46.6052
G01 X24.8129 Y46.6428
G01 X24.7877 Y46.6536
G01 X24.6944 Y46.6977
G01 X24.6762 Y46.7070
G01 X24.6587 Y46.7169
G01 X24.5731 Y46.7682
G01 X24.5536 Y46.7807
G01 X24.5395 Y46.7907
G01 X24.4591 Y46.8504
G01 X24.4382 Y46.8669
G01 X24.3539 Y46.9430
G01 X24.3393 Y46.9569
G01 X24.3245 Y46.9724
G01 X24.2521 Y47.0523
G01 X24.2421 Y47.0642
G01 X24.2326 Y47.0764
G01 X24.1681 Y47.1634
G01 X24.1542 Y47.1840
G01 X24.1378 Y47.2111
G01 X24.2055 Y47.0029
G01 X24.2055 Y46.4475
G01 X27.0045 Y46.4475
G01 X27.0045 Y47.0029
G01 X26.9351 Y46.9263
G01 X26.9168 Y46.9074
G01 X26.9024 Y46.8937
G01 X26.8282 Y46.8264
G01 X26.8074 Y46.8086
G01 X26.7915 Y46.7962
G01 X26.7113 Y46.7368
G01 X26.6908 Y46.7223
G01 X26.6719 Y46.7103
G01 X26.5861 Y46.6589
G01 X26.5630 Y46.6459
G01 X26.5439 Y46.6363
G01 X26.4537 Y46.5936
G01 X26.4310 Y46.5836
G01 X26.4080 Y46.5747
G01 X26.3140 Y46.5411
G01 X26.2933 Y46.5342
G01 X26.2683 Y46.5273
G01 X26.1714 Y46.5030
G01 X26.1504 Y46.4983
G01 X26.1261 Y46.4940
G01 X26.0131 Y46.4774
G01 X25.9957 Y46.4757
G01 X25.9795 Y46.4746
G01 X25.8781 Y46.4696
G01 X25.8569 Y46.4691
G01 X25.3504 Y46.4691
G01 X25.3311 Y46.4696
G01 X25.2317 Y46.4745
G01 X25.2102 Y46.4760
G01 X25.1897 Y46.4783
G01 X25.0846 Y46.4939
G01 X25.0660 Y46.4970
G01 X25.0382 Y46.5031
G01 X24.9407 Y46.5275
G01 X24.9235 Y46.5322
G01 X24.8974 Y46.5406
G01 X24.7988 Y46.5758
G01 X24.7786 Y46.5837
G01 X24.7573 Y46.5932
G01 X24.6651 Y46.6368
G01 X24.6432 Y46.6479
G01 X24.6238 Y46.6590
G01 X24.5385 Y46.7101
G01 X24.5218 Y46.7206
G01 X24.5007 Y46.7353
G01 X24.4170 Y46.7974
G01 X24.4006 Y46.8102
G01 X24.3837 Y46.8247
G01 X24.3075 Y46.8938
G01 X24.2912 Y46.9093
G01 X24.2747 Y46.9265
G01 X24.2055 Y47.0029
G01 X24.2731 Y46.8336
G01 X24.2731 Y46.5151
G01 X24.7680 Y46.5151
G01 X24.7493 Y46.5227
G01 X24.7306 Y46.5309
G01 X24.6371 Y46.5752
G01 X24.6173 Y46.5851
G01 X24.5905 Y46.6001
G01 X24.4898 Y46.6608
G01 X24.4758 Y46.6700
G01 X24.4607 Y46.6807
G01 X24.3785 Y46.7416
G01 X24.3634 Y46.7533
G01 X24.3391 Y46.7738
G01 X24.2731 Y46.8336
G01 X24.3408 Y46.6854
G01 X24.3408 Y46.5831
G01 X24.4862 Y46.5837
G01 X24.4563 Y46.6019
G01 X24.4316 Y46.6183
G01 X24.3408 Y46.6854
G00 Z0.5000
G00 X24.2560 Y47.9789
G01 F250.00
G01 Z-0.0400
G01 F2500.00
G01 X24.2559 Y47.9691
G01 X24.2611 Y47.8659
G01 X24.2769 Y47.7597
G01 X24.3030 Y47.6555
G01 X24.3396 Y47.5532
G01 X24.3856 Y47.4559
G01 X24.4411 Y47.3633
G01 X24.5051 Y47.2770
G01 X24.5777 Y47.1969
G01 X24.6578 Y47.1243
G01 X24.7443 Y47.0602
G01 X24.8367 Y47.0048
G01 X24.9340 Y46.9588
G01 X25.0363 Y46.9222
G01 X25.1405 Y46.8961
G01 X25.2467 Y46.8803
G01 X25.3548 Y46.8750
G01 X25.8586 Y46.8751
G01 X25.9633 Y46.8803
G01 X26.0671 Y46.8957
G01 X26.0744 Y46.8972
G01 X26.1737 Y46.9222
G01 X26.2760 Y46.9588
G01 X26.3733 Y47.0048
G01 X26.4659 Y47.0603
G01 X26.5485 Y47.1215
G01 X26.5561 Y47.1277
G01 X26.6323 Y47.1969
G01 X26.7015 Y47.2731
G01 X26.7077 Y47.2807
G01 X26.7689 Y47.3633
G01 X26.8244 Y47.4559
G01 X26.8704 Y47.5532
G01 X26.9053 Y47.6504
G01 X26.9082 Y47.6597
G01 X26.9331 Y47.7597
G01 X26.9483 Y47.8614
G01 X26.9492 Y47.8712
G01 X26.9542 Y47.9740
G01 X26.9489 Y48.0821
G01 X26.9331 Y48.1883
G01 X26.9070 Y48.2925
G01 X26.8704 Y48.3948
G01 X26.8244 Y48.4921
G01 X26.7689 Y48.5847
G01 X26.7049 Y48.6710
G01 X26.6323 Y48.7511
G01 X26.5522 Y48.8237
G01 X26.4657 Y48.8878
G01 X26.3733 Y48.9432
G01 X26.2760 Y48.9892
G01 X26.1737 Y49.0258
G01 X26.0695 Y49.0519
G01 X25.9633 Y49.0677
G01 X25.8552 Y49.0730
G01 X25.3514 Y49.0729
G01 X25.2467 Y49.0677
G01 X25.1429 Y49.0523
G01 X25.1356 Y49.0508
G01 X25.0363 Y49.0258
G01 X24.9340 Y48.9892
G01 X24.8367 Y48.9432
G01 X24.7441 Y48.8877
G01 X24.6615 Y48.8265
G01 X24.6539 Y48.8203
G01 X24.5777 Y48.7511
G01 X24.5085 Y48.6749
G01 X24.5023 Y48.6673
G01 X24.4411 Y48.5847
G01 X24.3856 Y48.4921
G01 X24.3396 Y48.3948
G01 X24.3046 Y48.2976
G01 X24.3018 Y48.2883
G01 X24.2769 Y48.1883
G01 X24.2617 Y48.0866
G01 X24.2607 Y48.0769
G01 X24.2560 Y47.9789
G00 Z0.5000
G00 X24.2560 Y50.5189
G01 F250.00
G01 Z-0.0400
G01 F2500.00
G01 X24.2559 Y50.5091
G01 X24.2607 Y50.4112
G01 X24.2617 Y50.4014
G01 X24.2769 Y50.2997
G01 X24.2780 Y50.2949
G01 X24.3018 Y50.1997
G01 X24.3046 Y50.1904
G01 X24.3396 Y50.0932
G01 X24.3856 Y49.9959
G01 X24.4411 Y49.9033
G01 X24.5023 Y49.8207
G01 X24.5085 Y49.8131
G01 X24.5777 Y49.7369
G01 X24.6578 Y49.6643
G01 X24.7443 Y49.6002
G01 X24.8367 Y49.5448
G01 X24.9340 Y49.4988
G01 X25.0363 Y49.4622
G01 X25.1405 Y49.4361
G01 X25.2493 Y49.4201
G01 X25.3548 Y49.4150
G01 X25.8562 Y49.4150
G01 X25.9606 Y49.4201
G01 X26.0648 Y49.4353
G01 X26.0744 Y49.4372
G01 X26.1737 Y49.4622
G01 X26.2736 Y49.4978
G01 X26.2802 Y49.5006
G01 X26.3733 Y49.5448
G01 X26.4657 Y49.6002
G01 X26.5522 Y49.6643
G01 X26.6305 Y49.7352
G01 X26.6357 Y49.7404
G01 X26.7049 Y49.8170
G01 X26.7675 Y49.9013
G01 X26.7716 Y49.9076
G01 X26.8232 Y49.9938
G01 X26.8422 Y50.0333
G01 X28.2720 Y50.0333
G01 X28.3169 Y50.0354
G01 X28.3615 Y50.0418
G01 X28.3705 Y50.0436
G01 X28.4111 Y50.0539
G01 X28.4562 Y50.0700
G01 X28.4942 Y50.0879
G01 X28.5028 Y50.0925
G01 X28.5392 Y50.1144
G01 X28.5760 Y50.1416
G01 X28.6119 Y50.1741
G01 X46.6459 Y68.2081
G01 X46.6778 Y68.2433
G01 X46.7056 Y68.2808
G01 X46.7299 Y68.3214
G01 X46.7481 Y68.3596
G01 X46.7519 Y68.3686
G01 X46.7661 Y68.4089
G01 X46.7764 Y68.4495
G01 X46.7783 Y68.4590
G01 X46.7843 Y68.5005
G01 X46.7867 Y68.5470
G01 X46.7867 Y82.2930
G01 X46.8262 Y82.3120
G01 X46.9146 Y82.3649
G01 X46.9206 Y82.3690
G01 X47.0049 Y82.4319
G01 X47.0831 Y82.5029
G01 X47.1523 Y82.5791
G01 X47.1585 Y82.5867
G01 X47.2211 Y82.6714
G01 X47.2752 Y82.7619
G01 X47.3194 Y82.8550
G01 X47.3231 Y82.8640
G01 X47.3578 Y82.9615
G01 X47.3828 Y83.0608
G01 X47.3847 Y83.0704
G01 X47.3997 Y83.1719
G01 X47.4050 Y83.2776
G01 X47.4049 Y83.2849
G01 X47.3997 Y83.3881
G01 X47.3847 Y83.4896
G01 X47.3828 Y83.4992
G01 X47.3578 Y83.5985
G01 X47.3231 Y83.6960
G01 X47.3194 Y83.7050
G01 X47.2752 Y83.7981
G01 X47.2197 Y83.8907
G01 X47.1585 Y83.9733
G01 X47.1523 Y83.9809
G01 X47.0831 Y84.0571
G01 X47.0069 Y84.1263
G01 X46.9993 Y84.1325
G01 X46.9167 Y84.1937
G01 X46.8283 Y84.2468
G01 X46.8197 Y84.2514
G01 X46.7268 Y84.2952
G01 X46.6297 Y84.3301
G01 X46.6203 Y84.3330
G01 X46.5203 Y84.3579
G01 X46.4186 Y84.3731
G01 X46.4088 Y84.3741
G01 X46.3060 Y84.3790
G01 X46.2031 Y84.3741
G01 X46.1934 Y84.3731
G01 X46.0917 Y84.3579
G01 X45.9917 Y84.3330
G01 X45.9823 Y84.3301
G01 X45.8852 Y84.2952
G01 X45.7923 Y84.2514
G01 X45.7837 Y84.2468
G01 X45.6955 Y84.1938
G01 X45.6127 Y84.1325
G01 X45.6051 Y84.1263
G01 X45.5289 Y84.0571
G01 X45.4597 Y83.9809
G01 X45.4535 Y83.9733
G01 X45.3923 Y83.8907
G01 X45.3392 Y83.8023
G01 X45.3346 Y83.7937
G01 X45.2908 Y83.7008
G01 X45.2559 Y83.6037
G01 X45.2530 Y83.5943
G01 X45.2281 Y83.4943
G01 X45.2121 Y83.3855
G01 X45.2070 Y83.2800
G01 X45.2119 Y83.1772
G01 X45.2129 Y83.1674
G01 X45.2281 Y83.0657
G01 X45.2542 Y82.9615
G01 X45.2889 Y82.8640
G01 X45.2926 Y82.8550
G01 X45.3346 Y82.7663
G01 X45.3380 Y82.7598
G01 X45.3922 Y82.6695
G01 X45.4535 Y82.5867
G01 X45.4597 Y82.5791
G01 X45.5255 Y82.5064
G01 X45.5306 Y82.5012
G01 X45.6090 Y82.4303
G01 X45.6933 Y82.3677
G01 X45.6996 Y82.3636
G01 X45.7858 Y82.3120
G01 X45.8253 Y82.2930
G01 X45.8253 Y68.7471
G01 X28.0729 Y50.9947
G01 X26.8422 Y50.9947
G01 X26.8232 Y51.0342
G01 X26.7716 Y51.1204
G01 X26.7675 Y51.1267
G01 X26.7049 Y51.2110
G01 X26.6357 Y51.2876
G01 X26.6305 Y51.2928
G01 X26.5522 Y51.3637
G01 X26.4657 Y51.4278
G01 X26.3733 Y51.4832
G01 X26.2802 Y51.5274
G01 X26.2736 Y51.5302
G01 X26.1737 Y51.5658
G01 X26.0744 Y51.5908
G01 X26.0648 Y51.5927
G01 X25.9606 Y51.6079
G01 X25.8562 Y51.6130
G01 X25.3548 Y51.6130
G01 X25.2520 Y51.6081
G01 X25.2445 Y51.6074
G01 X25.1405 Y51.5919
G01 X25.0363 Y51.5658
G01 X24.9340 Y51.5292
G01 X24.8411 Y51.4854
G01 X24.8325 Y51.4808
G01 X24.7443 Y51.4278
G01 X24.6615 Y51.3665
G01 X24.6539 Y51.3603
G01 X24.5812 Y51.2945
G01 X24.5743 Y51.2876
G01 X24.5051 Y51.2110
G01 X24.4411 Y51.1247
G01 X24.3856 Y51.0321
G01 X24.3396 Y50.9348
G01 X24.3030 Y50.8325
G01 X24.2769 Y50.7283
G01 X24.2611 Y50.6221
G01 X24.2560 Y50.5189
G00 Z0.5000
G00 X24.1884 Y50.5216
G01 F250.00
G01 Z-0.0400
G01 F2500.00
G01 X24.1884 Y50.5058
G01 X24.1937 Y50.4000
G01 X24.2104 Y50.2874
G01 X24.2383 Y50.1757
G01 X24.2740 Y50.0752
G01 X24.2803 Y50.0600
G01 X24.3226 Y49.9706
G01 X24.3300 Y49.9569
G01 X24.3854 Y49.8649
G01 X24.4479 Y49.7804
G01 X24.4583 Y49.7677
G01 X24.5305 Y49.6885
G01 X24.6153 Y49.6117
G01 X24.7067 Y49.5439
G01 X24.8055 Y49.4847
G01 X24.9087 Y49.4360
G01 X25.0161 Y49.3976
G01 X25.1265 Y49.3699
G01 X25.2408 Y49.3529
G01 X25.3548 Y49.3473
G01 X25.8565 Y49.3474
G01 X25.9657 Y49.3526
G01 X25.9777 Y49.3540
G01 X26.0754 Y49.3685
G01 X26.0908 Y49.3716
G01 X26.1939 Y49.3976
G01 X26.2972 Y49.4344
G01 X26.3091 Y49.4395
G01 X26.4044 Y49.4847
G01 X26.4964 Y49.5396
G01 X26.5101 Y49.5487
G01 X26.5895 Y49.6076
G01 X26.6015 Y49.6175
G01 X26.6807 Y49.6896
G01 X26.7575 Y49.7745
G01 X26.8255 Y49.8663
G01 X26.8800 Y49.9569
G01 X26.8849 Y49.9656
G01 X28.2720 Y49.9656
G01 X28.3220 Y49.9680
G01 X28.3331 Y49.9692
G01 X28.3716 Y49.9749
G01 X28.3870 Y49.9780
G01 X28.4312 Y49.9893
G01 X28.4815 Y50.0072
G01 X28.5238 Y50.0270
G01 X28.5376 Y50.0344
G01 X28.5768 Y50.0582
G01 X28.6168 Y50.0877
G01 X28.6261 Y50.0955
G01 X28.6597 Y50.1263
G01 X46.6978 Y68.1645
G01 X46.7300 Y68.2002
G01 X46.7620 Y68.2434
G01 X46.7900 Y68.2902
G01 X46.8128 Y68.3385
G01 X46.8307 Y68.3888
G01 X46.8437 Y68.4404
G01 X46.8516 Y68.4929
G01 X46.8543 Y68.5441
G01 X46.8544 Y74.8368
G01 X46.8558 Y74.8081
G01 X46.8574 Y74.7917
G01 X46.8682 Y74.7189
G01 X46.8714 Y74.7029
G01 X46.8893 Y74.6315
G01 X46.8930 Y74.6189
G01 X46.9189 Y74.5465
G01 X46.9251 Y74.5313
G01 X46.9566 Y74.4648
G01 X46.9627 Y74.4532
G01 X47.0022 Y74.3872
G01 X47.0094 Y74.3763
G01 X47.0551 Y74.3145
G01 X47.0634 Y74.3043
G01 X47.1150 Y74.2473
G01 X47.1242 Y74.2380
G01 X47.1811 Y74.1863
G01 X47.1912 Y74.1779
G01 X47.2529 Y74.1320
G01 X47.2637 Y74.1247
G01 X47.3326 Y74.0835
G01 X47.3441 Y74.0774
G01 X47.4137 Y74.0446
G01 X47.4258 Y74.0396
G01 X47.4983 Y74.0138
G01 X47.5108 Y74.0101
G01 X47.5854 Y73.9915
G01 X47.5983 Y73.9890
G01 X47.6744 Y73.9778
G01 X47.6874 Y73.9766
G01 X47.7263 Y73.9747
G01 X47.7137 Y73.9722
G01 X47.7015 Y73.9688
G01 X47.6884 Y73.9640
G01 X47.6736 Y73.9570
G01 X47.6596 Y73.9486
G01 X47.6480 Y73.9400
G01 X47.6356 Y73.9291
G01 X47.6277 Y73.9207
G01 X47.6185 Y73.9095
G01 X47.6125 Y73.9008
G01 X47.6052 Y73.8885
G01 X47.5982 Y73.8737
G01 X47.5926 Y73.8583
G01 X47.5891 Y73.8446
G01 X47.5869 Y73.8318
G01 X47.5856 Y73.8188
G01 X47.5854 Y73.8096
G01 X47.5854 Y71.4085
G01 X47.5862 Y71.3926
G01 X47.5886 Y71.3765
G01 X47.5926 Y71.3606
G01 X47.5982 Y71.3452
G01 X47.6052 Y71.3304
G01 X47.6136 Y71.3164
G01 X47.6233 Y71.3032
G01 X47.6343 Y71.2911
G01 X47.6464 Y71.2801
G01 X47.6596 Y71.2704
G01 X47.6736 Y71.2619
G01 X47.6884 Y71.2549
G01 X47.7038 Y71.2494
G01 X47.7197 Y71.2454
G01 X47.7358 Y71.2430
G01 X47.7517 Y71.2422
G01 X50.1571 Y71.2422
G01 X50.1695 Y71.2430
G01 X50.1766 Y71.2439
G01 X50.1916 Y71.2467
G01 X50.2016 Y71.2494
G01 X50.2106 Y71.2525
G01 X50.2265 Y71.2593
G01 X50.2360 Y71.2643
G01 X50.2440 Y71.2692
G01 X50.2589 Y71.2801
G01 X50.2710 Y71.2911
G01 X50.2833 Y71.3048
G01 X50.2918 Y71.3164
G01 X50.2978 Y71.3262
G01 X50.3034 Y71.3367
G01 X50.3101 Y71.3527
G01 X50.3139 Y71.3648
G01 X50.3171 Y71.3783
G01 X50.3192 Y71.3926
G01 X50.3200 Y71.4059
G01 X50.3200 Y73.8096
G01 X50.3192 Y73.8263
G01 X50.3167 Y73.8425
G01 X50.3139 Y73.8541
G01 X50.3101 Y73.8662
G01 X50.3063 Y73.8759
G01 X50.3002 Y73.8885
G01 X50.2929 Y73.9008
G01 X50.2868 Y73.9095
G01 X50.2799 Y73.9182
G01 X50.2710 Y73.9278
G01 X50.2635 Y73.9349
G01 X50.2527 Y73.9436
G01 X50.2440 Y73.9497
G01 X50.2328 Y73.9564
G01 X50.2235 Y73.9611
G01 X50.2137 Y73.9653
G01 X50.2016 Y73.9695
G01 X50.1916 Y73.9722
G01 X50.1840 Y73.9738
G01 X50.1711 Y73.9758
G01 X50.1537 Y73.9768
G01 X49.7546 Y73.9768
G01 X49.7687 Y73.9782
G01 X49.8448 Y73.9896
G01 X49.8576 Y73.9922
G01 X49.9290 Y74.0101
G01 X49.9447 Y74.0149
G01 X50.0140 Y74.0397
G01 X50.0291 Y74.0459
G01 X50.0957 Y74.0774
G01 X50.1073 Y74.0835
G01 X50.1733 Y74.1230
G01 X50.1842 Y74.1302
G01 X50.2460 Y74.1759
G01 X50.2562 Y74.1842
G01 X50.3132 Y74.2358
G01 X50.3226 Y74.2450
G01 X50.3764 Y74.3044
G01 X50.3847 Y74.3146
G01 X50.4304 Y74.3764
G01 X50.4376 Y74.3873
G01 X50.4771 Y74.4534
G01 X50.4832 Y74.4649
G01 X50.5147 Y74.5315
G01 X50.5210 Y74.5466
G01 X50.5457 Y74.6159
G01 X50.5505 Y74.6316
G01 X50.5684 Y74.7030
G01 X50.5710 Y74.7158
G01 X50.5824 Y74.7919
G01 X50.5838 Y74.8060
G01 X50.5838 Y71.0012
G01 X47.1888 Y71.0010
G01 X47.1713 Y70.9995
G01 X47.1539 Y70.9960
G01 X47.1385 Y70.9913
G01 X47.1270 Y70.9867
G01 X47.1167 Y70.9817
G01 X47.1064 Y70.9758
G01 X47.0015 Y70.9101
G01 X46.9870 Y70.8994
G01 X46.9770 Y70.8905
G01 X46.9657 Y70.8784
G01 X46.9557 Y70.8652
G01 X46.9478 Y70.8526
G01 X46.9402 Y70.8373
G01 X46.9366 Y70.8285
G01 X46.9337 Y70.8198
G01 X46.9316 Y70.8124
G01 X46.9293 Y70.8024
G01 X46.9270 Y70.7864
G01 X46.9263 Y70.7722
G01 X46.9262 Y68.5584
G01 X46.9050 Y68.3883
G01 X46.8805 Y68.3299
G01 X46.8433 Y68.2390
G01 X46.7368 Y68.1027
G01 X28.7173 Y50.0832
G01 X28.5808 Y49.9765
G01 X28.4321 Y49.9151
G01 X28.2616 Y49.8938
G01 X27.5100 Y49.8938
G01 X27.4998 Y49.8934
G01 X27.4906 Y49.8926
G01 X27.4808 Y49.8912
G01 X27.4632 Y49.8871
G01 X27.4537 Y49.8840
G01 X27.4458 Y49.8809
G01 X27.4320 Y49.8744
G01 X27.4186 Y49.8666
G01 X27.4046 Y49.8563
G01 X27.3918 Y49.8448
G01 X27.3804 Y49.8321
G01 X27.3722 Y49.8213
G01 X27.3656 Y49.8108
G01 X27.3589 Y49.7981
G01 X27.3526 Y49.7829
G01 X27.3482 Y49.7686
G01 X27.3459 Y49.7582
G01 X27.3437 Y49.7439
G01 X27.3428 Y49.7278
G01 X27.3428 Y46.1092
G01 X23.8672 Y46.1092
G01 X23.8672 Y54.9188
G01 X24.8176 Y54.9188
G01 X24.8258 Y54.9190
G01 X24.8370 Y54.9200
G01 X24.8501 Y54.9221
G01 X24.8644 Y54.9255
G01 X24.8739 Y54.9286
G01 X24.8880 Y54.9344
G01 X24.8985 Y54.9397
G01 X24.9090 Y54.9460
G01 X24.9205 Y54.9542
G01 X24.9299 Y54.9621
G01 X24.9381 Y54.9702
G01 X24.9472 Y54.9805
G01 X24.9554 Y54.9913
G01 X24.9610 Y55.0001
G01 X24.9665 Y55.0100
G01 X24.9724 Y55.0230
G01 X24.9773 Y55.0367
G01 X24.9801 Y55.0468
G01 X24.9827 Y55.0597
G01 X24.9839 Y55.0687
G01 X24.9848 Y55.0860
G01 X24.9848 Y59.7736
G01 X25.0082 Y59.9442
G01 X25.0704 Y60.0945
G01 X25.1748 Y60.2309
G01 X41.4458 Y76.5019
G01 X41.4532 Y76.5099
G01 X41.4615 Y76.5200
G01 X41.4697 Y76.5321
G01 X41.4759 Y76.5431
G01 X41.4797 Y76.5510
G01 X41.4855 Y76.5652
G01 X41.4898 Y76.5795
G01 X41.4927 Y76.5942
G01 X41.4940 Y76.6043
G01 X41.4948 Y76.6201
G01 X41.4948 Y85.3006
G01 X41.5182 Y85.4712
G01 X41.5804 Y85.6215
G01 X41.6848 Y85.7579
G01 X47.3107 Y91.3838
G01 X47.3163 Y91.3897
G01 X47.3251 Y91.4003
G01 X47.3345 Y91.4139
G01 X47.3408 Y91.4249
G01 X47.3446 Y91.4328
G01 X47.3503 Y91.4471
G01 X47.3546 Y91.4614
G01 X47.3569 Y91.4718
G01 X47.3588 Y91.4861
G01 X47.3596 Y91.5003
G01 X47.3596 Y93.0214
G01 X49.8244 Y93.0214
G01 X49.8244 Y90.5566
G01 X48.3059 Y90.5566
G01 X48.2960 Y90.5562
G01 X48.2797 Y90.5542
G01 X48.2669 Y90.5516
G01 X48.2512 Y90.5469
G01 X48.2360 Y90.5406
G01 X48.2243 Y90.5344
G01 X48.2140 Y90.5280
G01 X48.2060 Y90.5223
G01 X48.1980 Y90.5158
G01 X48.1893 Y90.5077
G01 X42.7842 Y85.1025
G01 X42.7785 Y85.0966
G01 X42.7718 Y85.0886
G01 X42.7621 Y85.0752
G01 X42.7541 Y85.0614
G01 X42.7473 Y85.0467
G01 X42.7421 Y85.0318
G01 X42.7380 Y85.0145
G01 X42.7360 Y85.0002
G01 X42.7352 Y84.9843
G01 X42.7352 Y76.3054
G01 X42.7140 Y76.1353
G01 X42.6895 Y76.0769
G01 X42.6523 Y75.9860
G01 X42.5458 Y75.8497
G01 X26.2742 Y59.5755
G01 X26.2649 Y59.5654
G01 X26.2581 Y59.5569
G01 X26.2500 Y59.5448
G01 X26.2451 Y59.5363
G01 X26.2407 Y59.5275
G01 X26.2356 Y59.5154
G01 X26.2302 Y59.4980
G01 X26.2268 Y59.4800
G01 X26.2255 Y59.4670
G01 X26.2252 Y59.4573
G01 X26.2252 Y55.0860
G01 X26.2258 Y55.0720
G01 X26.2270 Y55.0615
G01 X26.2299 Y55.0468
G01 X26.2327 Y55.0367
G01 X26.2376 Y55.0230
G01 X26.2435 Y55.0100
G01 X26.2500 Y54.9985
G01 X26.2581 Y54.9864
G01 X26.2649 Y54.9779
G01 X26.2742 Y54.9678
G01 X26.2818 Y54.9606
G01 X26.2945 Y54.9505
G01 X26.3065 Y54.9426
G01 X26.3209 Y54.9349
G01 X26.3341 Y54.9294
G01 X26.3456 Y54.9255
G01 X26.3599 Y54.9221
G01 X26.3730 Y54.9200
G01 X26.3842 Y54.9190
G01 X26.3924 Y54.9188
G01 X27.3428 Y54.9188
G01 X27.3428 Y51.3002
G01 X27.3437 Y51.2841
G01 X27.3459 Y51.2698
G01 X27.3493 Y51.2553
G01 X27.3552 Y51.2384
G01 X27.3611 Y51.2254
G01 X27.3666 Y51.2155
G01 X27.3704 Y51.2095
G01 X27.3804 Y51.1959
G01 X27.3895 Y51.1856
G01 X27.3994 Y51.1760
G01 X27.4121 Y51.1659
G01 X27.4256 Y51.1571
G01 X27.4330 Y51.1530
G01 X27.4427 Y51.1484
G01 X27.4601 Y51.1419
G01 X27.4694 Y51.1392
G01 X27.4775 Y51.1375
G01 X27.4939 Y51.1350
G01 X27.5100 Y51.1342
G01 X27.9469 Y51.1342
G01 X27.9630 Y51.1350
G01 X27.9761 Y51.1368
G01 X27.9891 Y51.1397
G01 X28.0032 Y51.1440
G01 X28.0183 Y51.1503
G01 X28.0315 Y51.1573
G01 X28.0410 Y51.1633
G01 X28.0523 Y51.1717
G01 X28.0639 Y51.1820
G01 X45.6368 Y68.7549
G01 X45.6442 Y68.7629
G01 X45.6544 Y68.7757
G01 X45.6620 Y68.7872
G01 X45.6669 Y68.7961
G01 X45.6707 Y68.8040
G01 X45.6749 Y68.8139
G01 X45.6779 Y68.8225
G01 X45.6824 Y68.8397
G01 X45.6840 Y68.8486
G01 X45.6850 Y68.8573
G01 X45.6858 Y68.8731
G01 X45.6856 Y81.4069
G01 X45.6846 Y81.4196
G01 X45.6824 Y81.4338
G01 X45.6789 Y81.4478
G01 X45.6733 Y81.4638
G01 X45.6684 Y81.4745
G01 X45.6611 Y81.4877
G01 X45.6529 Y81.5000
G01 X45.6425 Y81.5127
G01 X45.2032 Y81.9522
G01 X45.2032 Y82.6806
G01 X45.2027 Y82.6923
G01 X45.2018 Y82.7013
G01 X45.1999 Y82.7134
G01 X45.1970 Y82.7255
G01 X45.1930 Y82.7380
G01 X45.1890 Y82.7478
G01 X45.1837 Y82.7587
G01 X45.1796 Y82.7662
G01 X45.1558 Y82.8052
G01 X45.0736 Y83.1163
G01 X45.0736 Y83.4437
G01 X45.1558 Y83.7548
G01 X45.1826 Y83.7991
G01 X45.1893 Y83.8128
G01 X45.1947 Y83.8270
G01 X45.1984 Y83.8398
G01 X45.2005 Y83.8496
G01 X45.2025 Y83.8646
G01 X45.2032 Y83.8794
G01 X45.2032 Y84.6368
G01 X50.4781 Y84.6370
G01 X50.4961 Y84.6386
G01 X50.5090 Y84.6411
G01 X50.5209 Y84.6443
G01 X50.5310 Y84.6478
G01 X50.5438 Y84.6532
G01 X50.5575 Y84.6606
G01 X50.5712 Y84.6697
G01 X50.5839 Y84.6801
G01 X50.5955 Y84.6917
G01 X50.6055 Y84.7039
G01 X50.6137 Y84.7159
G01 X50.6214 Y84.7299
G01 X50.6279 Y84.7447
G01 X50.6319 Y84.7566
G01 X50.6354 Y84.7706
G01 X50.6376 Y84.7848
G01 X50.6386 Y84.7958
G01 X50.6388 Y84.8040
G01 X50.6388 Y115.0186
G01 X50.6622 Y115.1892
G01 X50.7244 Y115.3395
G01 X50.8288 Y115.4759
G01 X61.4817 Y126.1288
G01 X61.6180 Y126.2353
G01 X61.7089 Y126.2725
G01 X61.7673 Y126.2970
G01 X61.9374 Y126.3182
G01 X64.8545 Y126.3184
G01 X64.8732 Y126.3202
G01 X64.8856 Y126.3226
G01 X64.8954 Y126.3251
G01 X64.9043 Y126.3280
G01 X64.9153 Y126.3324
G01 X64.9221 Y126.3356
G01 X64.9317 Y126.3407
G01 X64.9394 Y126.3454
G01 X64.9476 Y126.3511
G01 X64.9615 Y126.3627
G01 X64.9707 Y126.3719
G01 X64.9763 Y126.3782
G01 X64.9823 Y126.3858
G01 X64.9880 Y126.3940
G01 X64.9927 Y126.4017
G01 X64.9996 Y126.4151
G01 X65.0054 Y126.4291
G01 X65.0083 Y126.4380
G01 X65.0108 Y126.4478
G01 X65.0135 Y126.4616
G01 X65.0150 Y126.4772
G01 X65.0152 Y126.4854
G01 X65.0152 Y128.1847
G01 X65.0142 Y128.2027
G01 X65.0092 Y128.2380
G01 X65.0142 Y128.2733
G01 X65.0152 Y128.2913
G01 X65.0152 Y129.4826
G01 X65.0147 Y129.4939
G01 X65.0134 Y129.5071
G01 X65.0102 Y129.5232
G01 X65.0061 Y129.5368
G01 X65.0005 Y129.5510
G01 X64.9963 Y129.5596
G01 X64.9905 Y129.5699
G01 X64.9833 Y129.5808
G01 X64.9722 Y129.5945
G01 X64.9603 Y129.6065
G01 X64.9476 Y129.6169
G01 X64.9310 Y129.6276
G01 X64.9164 Y129.6351
G01 X64.9043 Y129.6400
G01 X64.8954 Y129.6429
G01 X64.8854 Y129.6455
G01 X64.8725 Y129.6480
G01 X64.8545 Y129.6496
G01 X63.0878 Y129.6498
G01 X63.0798 Y129.6496
G01 X63.0639 Y129.6480
G01 X63.0482 Y129.6450
G01 X63.0360 Y129.6416
G01 X63.0210 Y129.6358
G01 X63.0140 Y129.6326
G01 X63.0039 Y129.6272
G01 X62.9905 Y129.6185
G01 X62.9779 Y129.6086
G01 X62.9688 Y129.6000
G01 X62.9569 Y129.5865
G01 X62.9468 Y129.5724
G01 X62.9129 Y129.5135
G01 X62.6850 Y129.2833
G01 X62.4036 Y129.1203
G01 X62.0907 Y129.0376
G01 X61.7657 Y129.0376
G01 X61.4505 Y129.1203
G01 X61.1714 Y129.2833
G01 X60.9403 Y129.5144
G01 X60.7772 Y129.7937
G01 X60.6946 Y130.1063
G01 X60.6946 Y130.4337
G01 X60.7772 Y130.7463
G01 X60.9403 Y131.0256
G01 X61.1714 Y131.2567
G01 X61.4505 Y131.4197
G01 X61.7657 Y131.5024
G01 X62.0907 Y131.5024
G01 X62.4036 Y131.4197
G01 X62.6850 Y131.2567
G01 X62.9129 Y131.0265
G01 X62.9432 Y130.9734
G01 X62.9482 Y130.9655
G01 X62.9560 Y130.9546
G01 X62.9642 Y130.9449
G01 X62.9762 Y130.9330
G01 X62.9847 Y130.9258
G01 X62.9946 Y130.9186
G01 X63.0057 Y130.9118
G01 X63.0210 Y130.9042
G01 X63.0329 Y130.8995
G01 X63.0482 Y130.8950
G01 X63.0639 Y130.8920
G01 X63.0798 Y130.8904
G01 X73.0926 Y130.8902
G01 X73.2631 Y130.8689
G01 X73.4118 Y130.8075
G01 X73.5483 Y130.7008
G01 X76.8942 Y127.3549
G01 X77.0003 Y127.2191
G01 X77.0601 Y127.0697
G01 X77.0837 Y126.8981
G01 X77.0837 Y124.8226
G01 X77.0841 Y124.8129
G01 X77.0861 Y124.7957
G01 X77.0891 Y124.7819
G01 X77.0945 Y124.7651
G01 X77.1000 Y124.7521
G01 X77.1074 Y124.7383
G01 X77.1165 Y124.7247
G01 X77.1270 Y124.7120
G01 X97.2828 Y104.5533
G01 X97.3895 Y104.4168
G01 X97.4509 Y104.2681
G01 X97.4722 Y104.0976
G01 X97.4722 Y86.8464
G01 X97.4510 Y86.6763
G01 X97.4265 Y86.6179
G01 X97.3893 Y86.5270
G01 X97.2828 Y86.3907
G01 X95.0113 Y84.1192
G01 X94.8748 Y84.0125
G01 X94.7261 Y83.9511
G01 X94.5556 Y83.9298
G01 X93.6688 Y83.9296
G01 X93.6525 Y83.9280
G01 X93.6364 Y83.9248
G01 X93.6207 Y83.9200
G01 X93.6067 Y83.9142
G01 X93.5911 Y83.9060
G01 X93.5788 Y83.8979
G01 X93.5660 Y83.8876
G01 X93.5576 Y83.8796
G01 X93.5487 Y83.8698
G01 X93.5389 Y83.8567
G01 X93.5323 Y83.8463
G01 X93.5272 Y83.8367
G01 X93.5240 Y83.8299
G01 X93.5191 Y83.8175
G01 X93.5148 Y83.8032
G01 X93.5116 Y83.7871
G01 X93.5100 Y83.7708
G01 X93.5100 Y82.7909
G01 X93.5118 Y82.7722
G01 X93.5148 Y82.7568
G01 X93.5177 Y82.7468
G01 X93.5207 Y82.7383
G01 X93.5259 Y82.7259
G01 X93.5323 Y82.7137
G01 X93.5370 Y82.7060
G01 X93.5427 Y82.6978
G01 X93.5487 Y82.6902
G01 X93.5576 Y82.6804
G01 X93.5647 Y82.6735
G01 X93.5724 Y82.6670
G01 X93.5829 Y82.6593
G01 X93.5911 Y82.6540
G01 X93.6029 Y82.6476
G01 X93.6207 Y82.6400
G01 X93.6364 Y82.6352
G01 X93.6532 Y82.6319
G01 X93.6688 Y82.6304
G01 X93.6770 Y82.6302
G01 X117.1009 Y82.6302
G01 X117.1091 Y82.6304
G01 X117.1247 Y82.6319
G01 X117.1415 Y82.6352
G01 X117.1515 Y82.6381
G01 X117.1600 Y82.6411
G01 X117.1723 Y82.6463
G01 X117.1846 Y82.6527
G01 X117.1922 Y82.6574
G01 X117.2017 Y82.6641
G01 X117.2119 Y82.6724
G01 X117.2191 Y82.6792
G01 X121.2987 Y86.7588
G01 X121.4350 Y86.8653
G01 X121.5259 Y86.9025
G01 X121.5843 Y86.9270
G01 X121.7544 Y86.9482
G01 X123.8547 Y86.9482
G01 X123.8627 Y86.9484
G01 X123.8786 Y86.9500
G01 X123.8915 Y86.9524
G01 X123.9020 Y86.9551
G01 X123.9137 Y86.9590
G01 X123.9255 Y86.9640
G01 X123.9386 Y86.9708
G01 X123.9494 Y86.9777
G01 X123.9603 Y86.9858
G01 X123.9685 Y86.9930
G01 X123.9805 Y87.0054
G01 X123.9872 Y87.0135
G01 X123.9946 Y87.0239
G01 X123.9999 Y87.0325
G01 X124.0294 Y87.0842
G01 X124.2597 Y87.3145
G01 X124.5414 Y87.4777
G01 X124.8544 Y87.5604
G01 X125.1792 Y87.5604
G01 X125.4920 Y87.4777
G01 X125.6731 Y87.3723
G01 X125.6820 Y87.3674
G01 X125.6946 Y87.3617
G01 X125.7117 Y87.3559
G01 X125.7266 Y87.3524
G01 X125.7444 Y87.3501
G01 X125.7571 Y87.3496
G01 X125.7674 Y87.3499
G01 X125.7793 Y87.3510
G01 X125.7889 Y87.3526
G01 X125.7967 Y87.3543
G01 X125.8089 Y87.3578
G01 X125.8195 Y87.3616
G01 X125.8286 Y87.3656
G01 X125.8411 Y87.3721
G01 X125.9748 Y87.4499
G01 X125.9836 Y87.4560
G01 X125.9909 Y87.4618
G01 X125.9997 Y87.4696
G01 X126.0089 Y87.4791
G01 X126.0205 Y87.4936
G01 X126.0270 Y87.5036
G01 X126.0342 Y87.5167
G01 X126.0393 Y87.5280
G01 X126.0436 Y87.5401
G01 X126.0473 Y87.5539
G01 X126.0500 Y87.5698
G01 X126.0512 Y87.5824
G01 X126.0513 Y87.5888
G01 X126.0514 Y90.5292
G01 X126.0512 Y90.5372
G01 X126.0496 Y90.5533
G01 X126.0472 Y90.5660
G01 X126.0445 Y90.5765
G01 X126.0412 Y90.5865
G01 X126.0358 Y90.5996
G01 X126.0285 Y90.6135
G01 X126.0213 Y90.6248
G01 X126.0174 Y90.6300
G01 X126.0086 Y90.6408
G01 X125.9980 Y90.6516
G01 X125.9892 Y90.6593
G01 X125.9832 Y90.6639
G01 X125.9709 Y90.6720
G01 X125.9401 Y90.6893
G01 X125.7105 Y90.9189
G01 X125.5473 Y91.2006
G01 X125.4646 Y91.5135
G01 X125.4646 Y91.8384
G01 X125.5473 Y92.1513
G01 X125.7103 Y92.4327
G01 X125.9411 Y92.6612
G01 X126.2210 Y92.8247
G01 X126.5362 Y92.9096
G01 X126.8601 Y92.9096
G01 X127.1731 Y92.8247
G01 X127.4553 Y92.6612
G01 X127.6831 Y92.4334
G01 X127.7373 Y92.3390
G01 X127.7471 Y92.3253
G01 X127.7562 Y92.3148
G01 X127.7620 Y92.3089
G01 X127.7731 Y92.2991
G01 X127.7850 Y92.2902
G01 X127.7991 Y92.2817
G01 X127.8132 Y92.2750
G01 X127.8233 Y92.2712
G01 X127.8313 Y92.2686
G01 X127.8471 Y92.2648
G01 X127.8560 Y92.2634
G01 X127.8653 Y92.2624
G01 X127.8786 Y92.2619
G01 X127.8871 Y92.2622
G01 X127.9038 Y92.2639
G01 X127.9202 Y92.2673
G01 X128.0537 Y92.3022
G01 X128.0712 Y92.3085
G01 X128.0812 Y92.3133
G01 X128.0887 Y92.3174
G01 X128.1007 Y92.3250
G01 X128.1141 Y92.3353
G01 X128.1263 Y92.3470
G01 X128.1373 Y92.3598
G01 X128.1470 Y92.3737
G01 X128.1547 Y92.3876
G01 X128.1619 Y92.4041
G01 X128.1661 Y92.4170
G01 X128.1703 Y92.4368
G01 X128.1720 Y92.4536
G01 X128.1723 Y92.4621
G01 X128.1723 Y93.1890
G01 X131.1877 Y93.1890
G01 X131.1960 Y93.1892
G01 X131.2116 Y93.1907
G01 X131.2286 Y93.1941
G01 X131.2409 Y93.1977
G01 X131.2505 Y93.2013
G01 X131.2597 Y93.2053
G01 X131.2724 Y93.2121
G01 X131.2880 Y93.2224
G01 X131.3007 Y93.2329
G01 X131.3066 Y93.2387
G01 X131.5104 Y93.4449
G01 X131.7544 Y93.6068
G01 X132.0240 Y93.7187
G01 X132.3092 Y93.7758
G01 X132.6013 Y93.7758
G01 X132.8890 Y93.7187
G01 X133.1585 Y93.6068
G01 X133.4025 Y93.4449
G01 X133.6063 Y93.2387
G01 X133.6122 Y93.2329
G01 X133.6249 Y93.2224
G01 X133.6410 Y93.2118
G01 X133.6510 Y93.2064
G01 X133.6624 Y93.2013
G01 X133.6706 Y93.1982
G01 X133.6803 Y93.1952
G01 X133.6875 Y93.1934
G01 X133.7013 Y93.1907
G01 X133.7169 Y93.1892
G01 X133.7252 Y93.1890
G01 X136.6009 Y93.1890
G01 X136.6009 Y87.6813
G01 X133.7861 Y87.6813
G01 X133.7747 Y87.6809
G01 X133.7593 Y87.6792
G01 X133.7452 Y87.6762
G01 X133.7330 Y87.6726
G01 X133.7234 Y87.6691
G01 X133.7141 Y87.6650
G01 X133.7014 Y87.6583
G01 X133.6919 Y87.6522
G01 X133.6831 Y87.6458
G01 X133.6720 Y87.6363
G01 X133.6614 Y87.6255
G01 X133.6510 Y87.6126
G01 X133.6072 Y87.5462
G01 X133.4025 Y87.3392
G01 X133.1585 Y87.1772
G01 X132.8890 Y87.0653
G01 X132.6013 Y87.0082
G01 X132.3092 Y87.0082
G01 X132.0240 Y87.0653
G01 X131.7544 Y87.1772
G01 X131.5104 Y87.3392
G01 X131.3042 Y87.5476
G01 X131.2581 Y87.6143
G01 X131.2467 Y87.6280
G01 X131.2382 Y87.6364
G01 X131.2267 Y87.6462
G01 X131.2179 Y87.6526
G01 X131.2086 Y87.6585
G01 X131.1947 Y87.6658
G01 X131.1834 Y87.6705
G01 X131.1745 Y87.6736
G01 X131.1642 Y87.6765
G01 X131.1484 Y87.6796
G01 X131.1355 Y87.6809
G01 X131.1242 Y87.6813
G01 X128.5995 Y87.6813
G01 X128.5884 Y87.6809
G01 X128.5751 Y87.6796
G01 X128.5604 Y87.6767
G01 X128.5453 Y87.6723
G01 X128.5343 Y87.6681
G01 X128.5231 Y87.6628
G01 X128.5140 Y87.6578
G01 X128.5025 Y87.6504
G01 X128.4909 Y87.6413
G01 X128.4773 Y87.6282
G01 X128.4690 Y87.6187
G01 X128.4598 Y87.6060
G01 X128.3927 Y87.4930
G01 X128.2551 Y87.3554
G01 X128.0901 Y87.2585
G01 X127.9021 Y87.2089
G01 X127.7106 Y87.2089
G01 X127.6040 Y87.2387
G01 X127.5960 Y87.2407
G01 X127.5802 Y87.2433
G01 X127.5629 Y87.2444
G01 X127.5456 Y87.2438
G01 X127.5279 Y87.2412
G01 X127.5102 Y87.2367
G01 X127.4955 Y87.2312
G01 X127.4842 Y87.2259
G01 X127.4771 Y87.2221
G01 X127.4652 Y87.2146
G01 X127.3566 Y87.1307
G01 X127.3481 Y87.1236
G01 X127.3378 Y87.1137
G01 X127.3268 Y87.1008
G01 X127.3171 Y87.0869
G01 X127.3094 Y87.0731
G01 X127.3032 Y87.0590
G01 X127.2980 Y87.0437
G01 X127.2952 Y87.0316
G01 X127.2931 Y87.0191
G01 X127.2920 Y87.0070
G01 X127.2918 Y86.9986
G01 X127.2918 Y85.4873
G01 X127.2920 Y85.4794
G01 X127.2935 Y85.4637
G01 X127.2970 Y85.4461
G01 X127.3005 Y85.4341
G01 X127.3039 Y85.4250
G01 X127.3089 Y85.4137
G01 X127.3138 Y85.4044
G01 X127.3214 Y85.3923
G01 X127.3272 Y85.3845
G01 X127.3342 Y85.3761
G01 X127.3428 Y85.3671
G01 X127.3546 Y85.3567
G01 X127.3687 Y85.3466
G01 X127.4549 Y85.2956
G01 X127.6831 Y85.0674
G01 X127.7373 Y84.9730
G01 X127.7474 Y84.9589
G01 X127.7595 Y84.9452
G01 X127.7704 Y84.9352
G01 X127.7810 Y84.9271
G01 X127.7879 Y84.9224
G01 X127.8023 Y84.9141
G01 X127.8150 Y84.9083
G01 X127.8290 Y84.9033
G01 X127.8415 Y84.9000
G01 X127.8560 Y84.8974
G01 X127.8687 Y84.8962
G01 X127.8786 Y84.8959
G01 X127.8871 Y84.8962
G01 X127.9005 Y84.8974
G01 X127.9120 Y84.8994
G01 X128.0488 Y84.9348
G01 X128.0633 Y84.9394
G01 X128.0781 Y84.9457
G01 X128.0887 Y84.9514
G01 X128.0984 Y84.9574
G01 X128.1044 Y84.9617
G01 X128.1160 Y84.9710
G01 X128.1283 Y84.9831
G01 X128.1373 Y84.9938
G01 X128.1470 Y85.0077
G01 X128.1555 Y85.0232
G01 X128.1627 Y85.0405
G01 X128.1669 Y85.0542
G01 X128.1703 Y85.0708
G01 X128.1718 Y85.0842
G01 X128.1723 Y85.0961
G01 X128.1723 Y85.8230
G01 X131.1928 Y85.8230
G01 X131.2011 Y85.8232
G01 X131.2167 Y85.8247
G01 X131.2337 Y85.8281
G01 X131.2459 Y85.8317
G01 X131.2556 Y85.8353
G01 X131.2648 Y85.8393
G01 X131.2775 Y85.8461
G01 X131.2931 Y85.8564
G01 X131.3058 Y85.8670
G01 X131.3117 Y85.8727
G01 X131.5104 Y86.0738
G01 X131.7544 Y86.2357
G01 X132.0240 Y86.3477
G01 X132.3092 Y86.4047
G01 X132.6013 Y86.4047
G01 X132.8890 Y86.3476
G01 X133.1585 Y86.2357
G01 X133.4025 Y86.0738
G01 X133.6012 Y85.8727
G01 X133.6071 Y85.8670
G01 X133.6198 Y85.8564
G01 X133.6359 Y85.8458
G01 X133.6459 Y85.8404
G01 X133.6573 Y85.8353
G01 X133.6655 Y85.8322
G01 X133.6752 Y85.8292
G01 X133.6824 Y85.8274
G01 X133.6962 Y85.8247
G01 X133.7118 Y85.8232
G01 X133.7201 Y85.8230
G01 X136.6009 Y85.8230
G01 X136.6009 Y80.3153
G01 X133.7912 Y80.3153
G01 X133.7799 Y80.3149
G01 X133.7668 Y80.3136
G01 X133.7509 Y80.3104
G01 X133.7433 Y80.3083
G01 X133.7322 Y80.3045
G01 X133.7172 Y80.2981
G01 X133.7058 Y80.2919
G01 X133.6935 Y80.2838
G01 X133.6853 Y80.2775
G01 X133.6743 Y80.2677
G01 X133.6665 Y80.2594
G01 X133.6566 Y80.2472
G01 X133.6082 Y80.1760
G01 X133.4025 Y79.9681
G01 X133.1585 Y79.8062
G01 X132.8890 Y79.6942
G01 X132.6013 Y79.6372
G01 X132.3092 Y79.6372
G01 X132.0240 Y79.6942
G01 X131.7544 Y79.8062
G01 X131.5104 Y79.9681
G01 X131.3047 Y80.1760
G01 X131.2563 Y80.2472
G01 X131.2464 Y80.2594
G01 X131.2386 Y80.2677
G01 X131.2276 Y80.2775
G01 X131.2194 Y80.2838
G01 X131.2071 Y80.2919
G01 X131.1957 Y80.2981
G01 X131.1807 Y80.3045
G01 X131.1696 Y80.3083
G01 X131.1620 Y80.3104
G01 X131.1460 Y80.3136
G01 X131.1330 Y80.3149
G01 X131.1217 Y80.3153
G01 X128.6020 Y80.3153
G01 X128.5909 Y80.3149
G01 X128.5776 Y80.3136
G01 X128.5629 Y80.3107
G01 X128.5477 Y80.3063
G01 X128.5331 Y80.3005
G01 X128.5190 Y80.2933
G01 X128.5057 Y80.2848
G01 X128.4932 Y80.2751
G01 X128.4834 Y80.2660
G01 X128.4714 Y80.2526
G01 X128.4612 Y80.2383
G01 X128.3925 Y80.1218
G01 X128.2551 Y79.9843
G01 X128.0901 Y79.8874
G01 X127.9021 Y79.8378
G01 X127.7102 Y79.8378
G01 X127.6237 Y79.8615
G01 X127.6082 Y79.8642
G01 X127.5959 Y79.8655
G01 X127.5878 Y79.8658
G01 X127.5775 Y79.8655
G01 X127.5640 Y79.8643
G01 X127.5481 Y79.8614
G01 X127.5312 Y79.8565
G01 X127.5207 Y79.8525
G01 X127.5064 Y79.8456
G01 X127.4995 Y79.8416
G01 X127.4891 Y79.8348
G01 X127.3807 Y79.7509
G01 X127.3680 Y79.7398
G01 X127.3615 Y79.7331
G01 X127.3522 Y79.7221
G01 X127.3425 Y79.7082
G01 X127.3343 Y79.6934
G01 X127.3276 Y79.6779
G01 X127.3226 Y79.6617
G01 X127.3195 Y79.6471
G01 X127.3177 Y79.6314
G01 X127.3172 Y79.6199
G01 X127.3172 Y77.9638
G01 X127.3174 Y77.9557
G01 X127.3186 Y77.9428
G01 X127.3221 Y77.9237
G01 X127.3250 Y77.9133
G01 X127.3294 Y77.9012
G01 X127.3337 Y77.8914
G01 X127.3398 Y77.8800
G01 X127.3481 Y77.8670
G01 X127.3539 Y77.8594
G01 X127.3595 Y77.8527
G01 X127.3671 Y77.8447
G01 X127.3724 Y77.8397
G01 X127.3823 Y77.8314
G01 X127.3966 Y77.8215
G01 X127.4562 Y77.7884
G01 X127.6835 Y77.5589
G01 X127.7373 Y77.4673
G01 X127.7480 Y77.4524
G01 X127.7591 Y77.4400
G01 X127.7714 Y77.4287
G01 X127.7821 Y77.4206
G01 X127.7949 Y77.4124
G01 X127.8062 Y77.4065
G01 X127.8173 Y77.4017
G01 X127.8297 Y77.3974
G01 X127.8436 Y77.3938
G01 X127.8560 Y77.3917
G01 X127.8688 Y77.3905
G01 X127.8812 Y77.3903
G01 X127.8956 Y77.3911
G01 X127.9121 Y77.3937
G01 X128.0488 Y77.4291
G01 X128.0633 Y77.4337
G01 X128.0781 Y77.4400
G01 X128.0863 Y77.4443
G01 X128.0955 Y77.4499
G01 X128.1072 Y77.4581
G01 X128.1141 Y77.4636
G01 X128.1239 Y77.4728
G01 X128.1356 Y77.4861
G01 X128.1464 Y77.5012
G01 X128.1547 Y77.5159
G01 X128.1619 Y77.5324
G01 X128.1661 Y77.5453
G01 X128.1703 Y77.5651
G01 X128.1720 Y77.5819
G01 X128.1723 Y77.5904
G01 X128.1723 Y78.4570
G01 X131.1877 Y78.4570
G01 X131.1960 Y78.4572
G01 X131.2116 Y78.4587
G01 X131.2286 Y78.4621
G01 X131.2409 Y78.4657
G01 X131.2505 Y78.4693
G01 X131.2597 Y78.4733
G01 X131.2724 Y78.4801
G01 X131.2880 Y78.4904
G01 X131.3007 Y78.5009
G01 X131.3066 Y78.5067
G01 X131.5104 Y78.7129
G01 X131.7544 Y78.8748
G01 X132.0240 Y78.9867
G01 X132.3092 Y79.0438
G01 X132.6013 Y79.0438
G01 X132.8890 Y78.9867
G01 X133.1585 Y78.8748
G01 X133.4025 Y78.7129
G01 X133.6063 Y78.5067
G01 X133.6122 Y78.5009
G01 X133.6249 Y78.4904
G01 X133.6410 Y78.4798
G01 X133.6510 Y78.4744
G01 X133.6624 Y78.4693
G01 X133.6706 Y78.4662
G01 X133.6803 Y78.4632
G01 X133.6875 Y78.4614
G01 X133.7013 Y78.4587
G01 X133.7169 Y78.4572
G01 X133.7252 Y78.4570
G01 X136.6009 Y78.4570
G01 X136.6009 Y72.9493
G01 X133.7861 Y72.9493
G01 X133.7747 Y72.9489
G01 X133.7593 Y72.9472
G01 X133.7452 Y72.9442
G01 X133.7330 Y72.9406
G01 X133.7234 Y72.9371
G01 X133.7141 Y72.9330
G01 X133.7014 Y72.9263
G01 X133.6919 Y72.9202
G01 X133.6831 Y72.9138
G01 X133.6720 Y72.9043
G01 X133.6614 Y72.8935
G01 X133.6510 Y72.8806
G01 X133.6072 Y72.8142
G01 X133.4025 Y72.6072
G01 X133.1585 Y72.4452
G01 X132.8890 Y72.3333
G01 X132.6013 Y72.2762
G01 X132.3092 Y72.2762
G01 X132.0240 Y72.3333
G01 X131.7544 Y72.4452
G01 X131.5104 Y72.6072
G01 X131.3042 Y72.8156
G01 X131.2581 Y72.8823
G01 X131.2467 Y72.8960
G01 X131.2382 Y72.9044
G01 X131.2267 Y72.9142
G01 X131.2179 Y72.9206
G01 X131.2086 Y72.9265
G01 X131.1947 Y72.9338
G01 X131.1834 Y72.9385
G01 X131.1745 Y72.9416
G01 X131.1642 Y72.9445
G01 X131.1484 Y72.9476
G01 X131.1355 Y72.9489
G01 X131.1242 Y72.9493
G01 X128.5995 Y72.9493
G01 X128.5884 Y72.9489
G01 X128.5751 Y72.9476
G01 X128.5604 Y72.9447
G01 X128.5453 Y72.9403
G01 X128.5307 Y72.9345
G01 X128.5167 Y72.9274
G01 X128.5035 Y72.9191
G01 X128.4909 Y72.9093
G01 X128.4811 Y72.9002
G01 X128.4690 Y72.8867
G01 X128.4589 Y72.8727
G01 X128.3927 Y72.7610
G01 X128.2554 Y72.6237
G01 X128.0878 Y72.5265
G01 X127.9019 Y72.4769
G01 X127.7102 Y72.4769
G01 X127.6237 Y72.5005
G01 X127.6082 Y72.5033
G01 X127.5959 Y72.5045
G01 X127.5878 Y72.5048
G01 X127.5775 Y72.5046
G01 X127.5640 Y72.5034
G01 X127.5481 Y72.5005
G01 X127.5312 Y72.4956
G01 X127.5207 Y72.4915
G01 X127.5064 Y72.4847
G01 X127.4995 Y72.4807
G01 X127.4891 Y72.4739
G01 X127.3807 Y72.3900
G01 X127.3680 Y72.3789
G01 X127.3615 Y72.3722
G01 X127.3522 Y72.3612
G01 X127.3425 Y72.3473
G01 X127.3343 Y72.3325
G01 X127.3276 Y72.3170
G01 X127.3226 Y72.3008
G01 X127.3195 Y72.2862
G01 X127.3177 Y72.2705
G01 X127.3172 Y72.2589
G01 X127.3172 Y70.7400
G01 X127.3174 Y70.7321
G01 X127.3189 Y70.7164
G01 X127.3219 Y70.7009
G01 X127.3250 Y70.6898
G01 X127.3293 Y70.6777
G01 X127.3343 Y70.6664
G01 X127.3394 Y70.6569
G01 X127.3443 Y70.6489
G01 X127.3509 Y70.6395
G01 X127.3576 Y70.6311
G01 X127.3666 Y70.6214
G01 X127.3803 Y70.6092
G01 X127.3931 Y70.6000
G01 X127.4550 Y70.5635
G01 X127.6831 Y70.3354
G01 X127.7373 Y70.2410
G01 X127.7474 Y70.2269
G01 X127.7595 Y70.2132
G01 X127.7704 Y70.2032
G01 X127.7810 Y70.1951
G01 X127.7879 Y70.1904
G01 X127.8023 Y70.1821
G01 X127.8150 Y70.1763
G01 X127.8290 Y70.1713
G01 X127.8415 Y70.1680
G01 X127.8560 Y70.1654
G01 X127.8687 Y70.1642
G01 X127.8786 Y70.1639
G01 X127.8871 Y70.1642
G01 X127.9005 Y70.1654
G01 X127.9120 Y70.1674
G01 X128.0488 Y70.2028
G01 X128.0633 Y70.2074
G01 X128.0781 Y70.2137
G01 X128.0887 Y70.2194
G01 X128.0984 Y70.2254
G01 X128.1044 Y70.2297
G01 X128.1160 Y70.2390
G01 X128.1283 Y70.2511
G01 X128.1373 Y70.2618
G01 X128.1470 Y70.2757
G01 X128.1555 Y70.2912
G01 X128.1627 Y70.3085
G01 X128.1669 Y70.3222
G01 X128.1703 Y70.3388
G01 X128.1718 Y70.3522
G01 X128.1723 Y70.3641
G01 X128.1723 Y71.0910
G01 X131.1877 Y71.0910
G01 X131.1960 Y71.0912
G01 X131.2116 Y71.0927
G01 X131.2286 Y71.0961
G01 X131.2409 Y71.0997
G01 X131.2505 Y71.1033
G01 X131.2597 Y71.1073
G01 X131.2724 Y71.1141
G01 X131.2880 Y71.1244
G01 X131.3007 Y71.1349
G01 X131.3066 Y71.1407
G01 X131.5104 Y71.3469
G01 X131.7544 Y71.5088
G01 X132.0240 Y71.6207
G01 X132.3092 Y71.6778
G01 X132.6013 Y71.6778
G01 X132.8890 Y71.6207
G01 X133.1585 Y71.5088
G01 X133.4025 Y71.3469
G01 X133.6063 Y71.1407
G01 X133.6122 Y71.1349
G01 X133.6249 Y71.1244
G01 X133.6410 Y71.1138
G01 X133.6510 Y71.1084
G01 X133.6624 Y71.1033
G01 X133.6706 Y71.1002
G01 X133.6803 Y71.0972
G01 X133.6875 Y71.0954
G01 X133.7013 Y71.0927
G01 X133.7169 Y71.0912
G01 X133.7252 Y71.0910
G01 X136.6009 Y71.0910
G01 X136.6009 Y65.5833
G01 X133.7861 Y65.5833
G01 X133.7747 Y65.5829
G01 X133.7593 Y65.5812
G01 X133.7452 Y65.5782
G01 X133.7330 Y65.5746
G01 X133.7234 Y65.5711
G01 X133.7141 Y65.5670
G01 X133.7014 Y65.5603
G01 X133.6919 Y65.5542
G01 X133.6831 Y65.5478
G01 X133.6720 Y65.5383
G01 X133.6614 Y65.5275
G01 X133.6510 Y65.5146
G01 X133.6072 Y65.4482
G01 X133.4025 Y65.2412
G01 X133.1585 Y65.0792
G01 X132.8890 Y64.9673
G01 X132.6013 Y64.9102
G01 X132.3092 Y64.9102
G01 X132.0240 Y64.9673
G01 X131.7544 Y65.0792
G01 X131.5104 Y65.2412
G01 X131.3042 Y65.4496
G01 X131.2581 Y65.5163
G01 X131.2467 Y65.5300
G01 X131.2382 Y65.5384
G01 X131.2267 Y65.5482
G01 X131.2179 Y65.5546
G01 X131.2086 Y65.5605
G01 X131.1947 Y65.5678
G01 X131.1834 Y65.5725
G01 X131.1745 Y65.5756
G01 X131.1642 Y65.5785
G01 X131.1484 Y65.5816
G01 X131.1355 Y65.5829
G01 X131.1242 Y65.5833
G01 X128.5995 Y65.5833
G01 X128.5916 Y65.5832
G01 X128.5791 Y65.5821
G01 X128.5728 Y65.5812
G01 X128.5604 Y65.5787
G01 X128.5470 Y65.5749
G01 X128.5372 Y65.5713
G01 X128.5259 Y65.5663
G01 X128.5167 Y65.5614
G01 X128.5035 Y65.5531
G01 X128.4975 Y65.5486
G01 X128.4883 Y65.5410
G01 X128.4794 Y65.5325
G01 X128.4690 Y65.5207
G01 X128.4589 Y65.5067
G01 X128.3927 Y65.3950
G01 X128.2554 Y65.2577
G01 X128.0878 Y65.1605
G01 X127.9019 Y65.1109
G01 X127.7102 Y65.1109
G01 X127.6286 Y65.1333
G01 X127.6212 Y65.1351
G01 X127.6082 Y65.1373
G01 X127.5959 Y65.1385
G01 X127.5878 Y65.1388
G01 X127.5775 Y65.1386
G01 X127.5640 Y65.1374
G01 X127.5481 Y65.1345
G01 X127.5312 Y65.1296
G01 X127.5178 Y65.1243
G01 X127.5025 Y65.1165
G01 X127.4928 Y65.1104
G01 X127.4850 Y65.1049
G01 X127.3754 Y65.0197
G01 X127.3656 Y65.0105
G01 X127.3566 Y65.0007
G01 X127.3467 Y64.9876
G01 X127.3409 Y64.9786
G01 X127.3348 Y64.9675
G01 X127.3316 Y64.9606
G01 X127.3276 Y64.9510
G01 X127.3234 Y64.9380
G01 X127.3213 Y64.9294
G01 X127.3190 Y64.9169
G01 X127.3177 Y64.9045
G01 X127.3173 Y64.8947
G01 X127.3172 Y63.3588
G01 X127.3177 Y63.3474
G01 X127.3196 Y63.3311
G01 X127.3226 Y63.3168
G01 X127.3250 Y63.3083
G01 X127.3287 Y63.2980
G01 X127.3329 Y63.2881
G01 X127.3414 Y63.2723
G01 X127.3494 Y63.2603
G01 X127.3600 Y63.2471
G01 X127.3731 Y63.2341
G01 X127.3833 Y63.2257
G01 X127.3945 Y63.2179
G01 X127.4036 Y63.2124
G01 X127.4562 Y63.1834
G01 X127.6835 Y62.9539
G01 X127.8442 Y62.6787
G01 X127.8469 Y62.6700
G01 X127.8514 Y62.6582
G01 X127.8583 Y62.6438
G01 X127.8666 Y62.6302
G01 X127.8770 Y62.6164
G01 X127.8848 Y62.6077
G01 X127.8919 Y62.6008
G01 X127.8986 Y62.5949
G01 X127.9087 Y62.5873
G01 X127.9162 Y62.5823
G01 X127.9249 Y62.5771
G01 X127.9393 Y62.5701
G01 X127.9542 Y62.5646
G01 X127.9656 Y62.5614
G01 X127.9745 Y62.5595
G01 X127.9853 Y62.5578
G01 X127.9955 Y62.5569
G01 X128.0043 Y62.5566
G01 X128.0147 Y62.5569
G01 X128.0250 Y62.5578
G01 X128.1600 Y62.5742
G01 X128.1733 Y62.5770
G01 X128.1849 Y62.5804
G01 X128.1933 Y62.5835
G01 X128.2060 Y62.5891
G01 X128.2206 Y62.5972
G01 X128.2356 Y62.6078
G01 X128.2443 Y62.6151
G01 X128.2493 Y62.6199
G01 X128.2571 Y62.6281
G01 X128.2635 Y62.6357
G01 X128.2689 Y62.6430
G01 X128.2748 Y62.6520
G01 X128.2820 Y62.6651
G01 X128.2898 Y62.6835
G01 X128.2944 Y62.6990
G01 X128.2979 Y62.7181
G01 X128.2991 Y62.7309
G01 X128.2993 Y62.7390
G01 X128.2993 Y63.7250
G01 X131.1877 Y63.7250
G01 X131.1979 Y63.7253
G01 X131.2124 Y63.7269
G01 X131.2239 Y63.7290
G01 X131.2326 Y63.7312
G01 X131.2444 Y63.7349
G01 X131.2548 Y63.7391
G01 X131.2622 Y63.7426
G01 X131.2724 Y63.7481
G01 X131.2880 Y63.7584
G01 X131.3007 Y63.7689
G01 X131.3066 Y63.7747
G01 X131.5104 Y63.9809
G01 X131.7544 Y64.1428
G01 X132.0240 Y64.2547
G01 X132.3092 Y64.3118
G01 X132.6013 Y64.3118
G01 X132.8890 Y64.2547
G01 X133.1585 Y64.1428
G01 X133.4025 Y63.9809
G01 X133.6063 Y63.7747
G01 X133.6122 Y63.7689
G01 X133.6250 Y63.7584
G01 X133.6342 Y63.7520
G01 X133.6410 Y63.7478
G01 X133.6510 Y63.7424
G01 X133.6593 Y63.7386
G01 X133.6685 Y63.7349
G01 X133.6803 Y63.7312
G01 X133.6934 Y63.7281
G01 X133.7005 Y63.7269
G01 X133.7140 Y63.7254
G01 X133.7252 Y63.7250
G01 X136.7279 Y63.7250
G01 X136.7279 Y58.2173
G01 X133.7861 Y58.2173
G01 X133.7759 Y58.2170
G01 X133.7614 Y58.2155
G01 X133.7499 Y58.2134
G01 X133.7380 Y58.2102
G01 X133.7267 Y58.2064
G01 X133.7141 Y58.2010
G01 X133.7014 Y58.1943
G01 X133.6915 Y58.1880
G01 X133.6831 Y58.1818
G01 X133.6720 Y58.1723
G01 X133.6614 Y58.1615
G01 X133.6510 Y58.1486
G01 X133.6072 Y58.0822
G01 X133.4025 Y57.8752
G01 X133.1585 Y57.7132
G01 X132.8890 Y57.6013
G01 X132.6013 Y57.5442
G01 X132.3092 Y57.5442
G01 X132.0240 Y57.6013
G01 X131.7544 Y57.7132
G01 X131.5104 Y57.8752
G01 X131.3042 Y58.0836
G01 X131.2571 Y58.1516
G01 X131.2467 Y58.1640
G01 X131.2385 Y58.1722
G01 X131.2326 Y58.1774
G01 X131.2220 Y58.1857
G01 X131.2090 Y58.1943
G01 X131.1956 Y58.2014
G01 X131.1842 Y58.2062
G01 X131.1728 Y58.2101
G01 X131.1603 Y58.2134
G01 X131.1484 Y58.2156
G01 X131.1323 Y58.2171
G01 X128.5995 Y58.2173
G01 X128.5884 Y58.2170
G01 X128.5783 Y58.2160
G01 X128.5644 Y58.2136
G01 X128.5519 Y58.2104
G01 X128.5387 Y58.2059
G01 X128.5259 Y58.2003
G01 X128.5167 Y58.1954
G01 X128.5029 Y58.1867
G01 X128.4909 Y58.1773
G01 X128.4794 Y58.1665
G01 X128.4690 Y58.1547
G01 X128.4589 Y58.1407
G01 X128.3927 Y58.0290
G01 X128.2554 Y57.8917
G01 X128.0878 Y57.7945
G01 X127.9019 Y57.7449
G01 X127.7095 Y57.7449
G01 X127.5236 Y57.7945
G01 X127.3560 Y57.8917
G01 X127.2198 Y58.0279
G01 X127.1243 Y58.1961
G01 X127.0724 Y58.3828
G01 X127.0724 Y58.5735
G01 X127.1243 Y58.7603
G01 X127.2198 Y58.9284
G01 X127.3560 Y59.0646
G01 X127.5236 Y59.1619
G01 X127.7095 Y59.2114
G01 X127.9009 Y59.2114
G01 X127.9932 Y59.1858
G01 X128.0097 Y59.1826
G01 X128.0254 Y59.1811
G01 X128.0428 Y59.1812
G01 X128.0584 Y59.1829
G01 X128.0739 Y59.1860
G01 X128.0870 Y59.1899
G01 X128.0986 Y59.1944
G01 X128.1098 Y59.1996
G01 X128.1176 Y59.2039
G01 X128.1308 Y59.2125
G01 X128.2425 Y59.3014
G01 X128.2521 Y59.3106
G01 X128.2567 Y59.3155
G01 X128.2652 Y59.3258
G01 X128.2704 Y59.3330
G01 X128.2763 Y59.3425
G01 X128.2826 Y59.3542
G01 X128.2891 Y59.3696
G01 X128.2941 Y59.3855
G01 X128.2968 Y59.3986
G01 X128.2988 Y59.4151
G01 X128.2993 Y59.4269
G01 X128.2993 Y61.6544
G01 X128.2991 Y61.6624
G01 X128.2975 Y61.6783
G01 X128.2939 Y61.6963
G01 X128.2900 Y61.7093
G01 X128.2854 Y61.7211
G01 X128.2821 Y61.7282
G01 X128.2768 Y61.7382
G01 X128.2681 Y61.7516
G01 X128.2582 Y61.7641
G01 X128.2458 Y61.7769
G01 X128.2393 Y61.7827
G01 X128.2294 Y61.7903
G01 X128.2147 Y61.7997
G01 X128.2001 Y61.8071
G01 X128.1837 Y61.8134
G01 X128.1739 Y61.8163
G01 X128.1651 Y61.8183
G01 X128.1553 Y61.8200
G01 X128.0267 Y61.8380
G01 X128.0137 Y61.8392
G01 X128.0001 Y61.8393
G01 X127.9880 Y61.8385
G01 X127.9796 Y61.8374
G01 X127.9693 Y61.8355
G01 X127.9564 Y61.8321
G01 X127.9473 Y61.8291
G01 X127.9366 Y61.8247
G01 X127.9267 Y61.8198
G01 X127.9144 Y61.8126
G01 X127.9000 Y61.8022
G01 X127.8871 Y61.7906
G01 X127.8768 Y61.7794
G01 X127.8693 Y61.7697
G01 X127.8653 Y61.7638
G01 X127.8586 Y61.7528
G01 X127.8521 Y61.7396
G01 X127.8470 Y61.7263
G01 X127.8442 Y61.7173
G01 X127.6835 Y61.4421
G01 X127.4550 Y61.2113
G01 X127.1736 Y61.0483
G01 X126.8607 Y60.9656
G01 X126.5357 Y60.9656
G01 X126.2205 Y61.0483
G01 X125.9414 Y61.2113
G01 X125.7103 Y61.4424
G01 X125.5472 Y61.7217
G01 X125.4646 Y62.0343
G01 X125.4646 Y62.3617
G01 X125.5472 Y62.6742
G01 X125.6652 Y62.8755
G01 X125.6712 Y62.8867
G01 X125.6771 Y62.9003
G01 X125.6809 Y62.9113
G01 X125.6836 Y62.9216
G01 X125.6867 Y62.9382
G01 X125.6877 Y62.9476
G01 X125.6881 Y62.9593
G01 X125.6878 Y62.9703
G01 X125.6866 Y62.9826
G01 X125.6845 Y62.9949
G01 X125.6820 Y63.0050
G01 X125.6796 Y63.0127
G01 X125.6750 Y63.0250
G01 X125.6672 Y63.0411
G01 X125.6596 Y63.0535
G01 X125.6541 Y63.0611
G01 X125.5646 Y63.1774
G01 X125.5534 Y63.1894
G01 X125.5399 Y63.2011
G01 X125.5255 Y63.2111
G01 X125.5161 Y63.2166
G01 X125.5082 Y63.2205
G01 X125.4985 Y63.2247
G01 X125.4901 Y63.2278
G01 X125.4830 Y63.2300
G01 X125.4711 Y63.2329
G01 X125.4621 Y63.2345
G01 X125.4528 Y63.2356
G01 X125.4366 Y63.2364
G01 X125.4179 Y63.2353
G01 X125.4065 Y63.2336
G01 X125.3954 Y63.2311
G01 X125.1789 Y63.1729
G01 X124.8549 Y63.1729
G01 X124.5422 Y63.2578
G01 X124.3770 Y63.3541
G01 X124.3624 Y63.3615
G01 X124.3475 Y63.3673
G01 X124.3338 Y63.3713
G01 X124.3252 Y63.3732
G01 X124.3110 Y63.3752
G01 X124.2995 Y63.3760
G01 X124.2864 Y63.3759
G01 X124.2759 Y63.3751
G01 X124.2635 Y63.3733
G01 X124.2498 Y63.3701
G01 X124.2380 Y63.3663
G01 X124.2298 Y63.3632
G01 X124.2186 Y63.3580
G01 X124.2116 Y63.3543
G01 X124.0943 Y63.2875
G01 X124.0798 Y63.2774
G01 X124.0677 Y63.2670
G01 X124.0566 Y63.2555
G01 X124.0466 Y63.2429
G01 X124.0379 Y63.2295
G01 X124.0305 Y63.2153
G01 X124.0245 Y63.2004
G01 X124.0200 Y63.1851
G01 X124.0170 Y63.1694
G01 X124.0154 Y63.1534
G01 X124.0152 Y57.2475
G01 X124.0157 Y57.2360
G01 X124.0170 Y57.2230
G01 X124.0202 Y57.2069
G01 X124.0227 Y57.1983
G01 X124.0262 Y57.1881
G01 X124.0313 Y57.1761
G01 X124.0402 Y57.1597
G01 X124.0475 Y57.1488
G01 X124.0540 Y57.1406
G01 X124.0608 Y57.1329
G01 X124.0701 Y57.1237
G01 X124.0781 Y57.1169
G01 X124.0850 Y57.1117
G01 X124.0943 Y57.1055
G01 X124.1054 Y57.0992
G01 X124.1132 Y57.0954
G01 X124.1253 Y57.0904
G01 X124.1350 Y57.0873
G01 X124.1490 Y57.0838
G01 X124.1632 Y57.0815
G01 X124.1742 Y57.0806
G01 X124.3207 Y57.0804
G01 X124.6336 Y56.9977
G01 X124.9150 Y56.8347
G01 X125.1435 Y56.6039
G01 X125.3067 Y56.3243
G01 X125.3894 Y56.0117
G01 X125.3894 Y55.6843
G01 X125.3067 Y55.3717
G01 X125.1435 Y55.0921
G01 X124.9150 Y54.8613
G01 X124.6336 Y54.6983
G01 X124.3207 Y54.6156
G01 X123.9957 Y54.6156
G01 X123.6805 Y54.6983
G01 X123.4014 Y54.8613
G01 X123.1703 Y55.0924
G01 X123.0072 Y55.3717
G01 X122.9246 Y55.6843
G01 X122.9246 Y56.0111
G01 X123.0070 Y56.3148
G01 X123.0097 Y56.3305
G01 X123.0109 Y56.3465
G01 X123.0106 Y56.3624
G01 X123.0087 Y56.3783
G01 X123.0054 Y56.3939
G01 X123.0002 Y56.4099
G01 X122.9943 Y56.4238
G01 X122.9849 Y56.4406
G01 X122.9777 Y56.4510
G01 X122.9657 Y56.4653
G01 X122.8596 Y56.6038
G01 X122.8208 Y56.6937
G01 X122.7985 Y56.7512
G01 X122.7748 Y56.9237
G01 X122.7748 Y63.3410
G01 X122.7746 Y63.3492
G01 X122.7730 Y63.3655
G01 X122.7698 Y63.3816
G01 X122.7650 Y63.3973
G01 X122.7601 Y63.4094
G01 X122.7569 Y63.4161
G01 X122.7510 Y63.4269
G01 X122.7425 Y63.4398
G01 X122.7339 Y63.4505
G01 X122.7258 Y63.4592
G01 X115.0042 Y71.1808
G01 X114.9970 Y71.1876
G01 X114.9856 Y71.1969
G01 X114.9733 Y71.2051
G01 X114.9630 Y71.2109
G01 X114.9563 Y71.2142
G01 X114.9423 Y71.2200
G01 X114.9266 Y71.2248
G01 X114.9098 Y71.2281
G01 X114.8942 Y71.2296
G01 X114.8860 Y71.2298
G01 X93.6770 Y71.2298
G01 X93.6657 Y71.2293
G01 X93.6518 Y71.2278
G01 X93.6364 Y71.2248
G01 X93.6264 Y71.2219
G01 X93.6179 Y71.2189
G01 X93.6029 Y71.2124
G01 X93.5911 Y71.2060
G01 X93.5788 Y71.1979
G01 X93.5698 Y71.1909
G01 X93.5635 Y71.1853
G01 X93.5543 Y71.1761
G01 X93.5487 Y71.1698
G01 X93.5427 Y71.1622
G01 X93.5370 Y71.1540
G01 X93.5323 Y71.1463
G01 X93.5272 Y71.1367
G01 X93.5196 Y71.1189
G01 X93.5148 Y71.1032
G01 X93.5115 Y71.0864
G01 X93.5103 Y71.0739
G01 X93.5099 Y71.0643
G01 X93.5100 Y70.0892
G01 X93.5116 Y70.0729
G01 X93.5148 Y70.0568
G01 X93.5191 Y70.0425
G01 X93.5240 Y70.0301
G01 X93.5272 Y70.0233
G01 X93.5323 Y70.0137
G01 X93.5389 Y70.0033
G01 X93.5487 Y69.9902
G01 X93.5576 Y69.9804
G01 X93.5660 Y69.9724
G01 X93.5788 Y69.9621
G01 X93.5911 Y69.9540
G01 X93.6067 Y69.9458
G01 X93.6207 Y69.9400
G01 X93.6364 Y69.9352
G01 X93.6525 Y69.9320
G01 X93.6688 Y69.9304
G01 X94.6826 Y69.9302
G01 X94.8531 Y69.9089
G01 X95.0018 Y69.8475
G01 X95.1383 Y69.7408
G01 X98.8068 Y66.0723
G01 X98.9133 Y65.9360
G01 X98.9505 Y65.8451
G01 X98.9750 Y65.7867
G01 X98.9962 Y65.6166
G01 X98.9962 Y50.5244
G01 X98.9750 Y50.3543
G01 X98.9505 Y50.2959
G01 X98.9133 Y50.2050
G01 X98.8068 Y50.0687
G01 X72.8832 Y24.1425
G01 X72.8775 Y24.1366
G01 X72.8710 Y24.1289
G01 X72.8648 Y24.1206
G01 X72.8567 Y24.1080
G01 X72.8502 Y24.0956
G01 X72.8440 Y24.0807
G01 X72.8392 Y24.0650
G01 X72.8360 Y24.0489
G01 X72.8347 Y24.0358
G01 X72.8342 Y24.0243
G01 X72.8342 Y15.2184
G01 X72.8130 Y15.0483
G01 X72.7885 Y14.9899
G01 X72.7513 Y14.8990
G01 X72.6448 Y14.7627
G01 X67.9607 Y10.0786
G01 X67.9506 Y10.0675
G01 X67.9415 Y10.0555
G01 X67.9353 Y10.0459
G01 X67.9278 Y10.0318
G01 X67.9223 Y10.0188
G01 X67.9183 Y10.0066
G01 X67.9158 Y9.9970
G01 X67.9134 Y9.9838
G01 X67.9119 Y9.9673
G01 X67.9120 Y9.9507
G01 X67.9141 Y9.9322
G01 X67.9159 Y9.9231
G01 X67.9183 Y9.9139
G01 X67.9270 Y9.8863
G01 X67.9270 Y9.5659
G01 X67.8420 Y9.2507
G01 X67.6785 Y8.9707
G01 X67.4504 Y8.7404
G01 X67.1687 Y8.5794
G01 X66.8552 Y8.4943
G01 X66.5314 Y8.4943
G01 X66.2180 Y8.5794
G01 X65.9359 Y8.7406
G01 X65.7057 Y8.9707
G01 X65.5447 Y9.2502
G01 X65.4597 Y9.5659
G01 X65.4597 Y9.8898
G01 X65.5447 Y10.2033
G01 X65.7057 Y10.4850
G01 X65.9359 Y10.7129
G01 X66.2180 Y10.8764
G01 X66.5309 Y10.9591
G01 X66.8551 Y10.9591
G01 X66.9530 Y10.9326
G01 X66.9703 Y10.9297
G01 X66.9830 Y10.9287
G01 X66.9919 Y10.9286
G01 X67.0068 Y10.9295
G01 X67.0183 Y10.9312
G01 X67.0322 Y10.9342
G01 X67.0474 Y10.9390
G01 X67.0574 Y10.9431
G01 X67.0703 Y10.9496
G01 X67.0836 Y10.9578
G01 X67.0950 Y10.9664
G01 X67.1075 Y10.9777
G01 X68.4334 Y12.3061
G01 X68.4450 Y12.3190
G01 X68.4536 Y12.3306
G01 X68.4585 Y12.3383
G01 X68.4637 Y12.3476
G01 X68.4665 Y12.3534
G01 X68.4714 Y12.3650
G01 X68.4755 Y12.3771
G01 X68.4773 Y12.3836
G01 X68.4799 Y12.3964
G01 X68.4818 Y12.4127
G01 X68.4822 Y12.4225
G01 X68.4821 Y12.4306
G01 X68.4809 Y12.4450
G01 X68.4799 Y12.4519
G01 X68.4773 Y12.4647
G01 X68.4745 Y12.4744
G01 X68.4702 Y12.4864
G01 X68.4207 Y12.6063
G01 X68.4154 Y12.6175
G01 X68.4091 Y12.6288
G01 X68.4035 Y12.6373
G01 X68.3963 Y12.6467
G01 X68.3893 Y12.6548
G01 X68.3812 Y12.6629
G01 X68.3726 Y12.6704
G01 X68.3665 Y12.6752
G01 X68.3513 Y12.6852
G01 X68.3398 Y12.6914
G01 X68.3313 Y12.6952
G01 X68.3232 Y12.6984
G01 X68.3132 Y12.7016
G01 X68.3015 Y12.7045
G01 X68.2914 Y12.7064
G01 X68.2815 Y12.7075
G01 X68.2709 Y12.7081
G01 X66.0113 Y12.7082
G01 X65.9966 Y12.7075
G01 X65.9852 Y12.7061
G01 X65.9724 Y12.7036
G01 X65.9608 Y12.7003
G01 X65.9501 Y12.6965
G01 X65.9388 Y12.6916
G01 X65.9259 Y12.6847
G01 X65.9153 Y12.6778
G01 X65.9050 Y12.6700
G01 X65.8962 Y12.6622
G01 X65.8846 Y12.6500
G01 X65.8764 Y12.6397
G01 X65.8285 Y12.5692
G01 X65.6230 Y12.3637
G01 X65.3786 Y12.2015
G01 X65.1090 Y12.0896
G01 X64.8238 Y12.0325
G01 X64.5317 Y12.0325
G01 X64.2440 Y12.0896
G01 X63.9748 Y12.2014
G01 X63.7325 Y12.3637
G01 X63.5257 Y12.5683
G01 X63.4848 Y12.6316
G01 X63.4788 Y12.6402
G01 X63.4729 Y12.6478
G01 X63.4664 Y12.6552
G01 X63.4581 Y12.6635
G01 X63.4492 Y12.6712
G01 X63.4381 Y12.6793
G01 X63.4244 Y12.6877
G01 X63.4151 Y12.6924
G01 X63.4029 Y12.6976
G01 X63.3916 Y12.7013
G01 X63.3781 Y12.7047
G01 X63.3678 Y12.7065
G01 X63.3546 Y12.7078
G01 X63.3443 Y12.7082
G01 X60.8221 Y12.7082
G01 X60.8070 Y12.7075
G01 X60.7918 Y12.7054
G01 X60.7760 Y12.7017
G01 X60.7614 Y12.6968
G01 X60.7507 Y12.6922
G01 X60.7380 Y12.6855
G01 X60.7246 Y12.6768
G01 X60.7121 Y12.6668
G01 X60.7020 Y12.6572
G01 X60.6901 Y12.6436
G01 X60.6796 Y12.6284
G01 X60.6143 Y12.5137
G01 X60.4786 Y12.3780
G01 X60.3112 Y12.2830
G01 X60.1246 Y12.2332
G01 X59.9296 Y12.2332
G01 X59.7434 Y12.2828
G01 X59.5784 Y12.3777
G01 X59.4419 Y12.5142
G01 X59.3447 Y12.6818
G01 X59.2951 Y12.8677
G01 X59.2951 Y13.0603
G01 X59.3447 Y13.2483
G01 X59.4416 Y13.4133
G01 X59.5790 Y13.5507
G01 X59.7442 Y13.6477
G01 X59.9296 Y13.6972
G01 X60.0226 Y13.6972
G01 X60.0372 Y13.6979
G01 X60.0483 Y13.6993
G01 X60.0643 Y13.7026
G01 X60.0783 Y13.7070
G01 X60.0935 Y13.7132
G01 X60.1062 Y13.7199
G01 X60.1139 Y13.7247
G01 X60.1216 Y13.7301
G01 X60.1301 Y13.7368
G01 X60.1378 Y13.7438
G01 X60.1459 Y13.7521
G01 X60.1575 Y13.7664
G01 X60.1627 Y13.7741
G01 X60.1691 Y13.7849
G01 X60.1737 Y13.7940
G01 X60.1787 Y13.8061
G01 X60.1814 Y13.8141
G01 X60.1842 Y13.8237
G01 X60.1866 Y13.8353
G01 X60.1880 Y13.8449
G01 X60.1890 Y13.8561
G01 X60.1892 Y13.8643
G01 X60.1892 Y18.2158
G01 X63.4129 Y18.2158
G01 X63.4226 Y18.2161
G01 X63.4356 Y18.2174
G01 X63.4445 Y18.2189
G01 X63.4549 Y18.2212
G01 X63.4674 Y18.2250
G01 X63.4759 Y18.2282
G01 X63.4855 Y18.2324
G01 X63.4971 Y18.2386
G01 X63.5125 Y18.2487
G01 X63.5210 Y18.2555
G01 X63.5311 Y18.2648
G01 X63.7329 Y18.4666
G01 X63.9748 Y18.6286
G01 X64.2440 Y18.7404
G01 X64.5317 Y18.7975
G01 X64.8238 Y18.7975
G01 X65.1090 Y18.7405
G01 X65.3786 Y18.6285
G01 X65.6230 Y18.4663
G01 X65.8245 Y18.2648
G01 X65.8321 Y18.2577
G01 X65.8422 Y18.2494
G01 X65.8502 Y18.2438
G01 X65.8585 Y18.2386
G01 X65.8667 Y18.2342
G01 X65.8783 Y18.2288
G01 X65.8864 Y18.2256
G01 X65.8976 Y18.2221
G01 X65.9069 Y18.2197
G01 X65.9182 Y18.2176
G01 X65.9292 Y18.2164
G01 X65.9427 Y18.2158
G01 X68.6178 Y18.2158
G01 X68.6180 Y17.0207
G01 X68.6193 Y17.0043
G01 X68.6223 Y16.9882
G01 X68.6610 Y16.8467
G01 X68.6610 Y16.5234
G01 X68.6223 Y16.3818
G01 X68.6193 Y16.3657
G01 X68.6182 Y16.3538
G01 X68.6179 Y16.3449
G01 X68.6179 Y14.4851
G01 X68.6182 Y14.4762
G01 X68.6193 Y14.4643
G01 X68.6223 Y14.4482
G01 X68.6610 Y14.3067
G01 X68.6610 Y13.9834
G01 X68.6223 Y13.8418
G01 X68.6193 Y13.8257
G01 X68.6180 Y13.8108
G01 X68.6178 Y13.0592
G01 X68.6183 Y13.0477
G01 X68.6196 Y13.0346
G01 X68.6233 Y13.0170
G01 X68.6276 Y13.0028
G01 X68.6352 Y12.9851
G01 X68.6417 Y12.9732
G01 X68.6520 Y12.9579
G01 X68.6628 Y12.9452
G01 X68.6698 Y12.9380
G01 X68.6759 Y12.9325
G01 X68.6855 Y12.9248
G01 X68.6961 Y12.9176
G01 X68.7051 Y12.9124
G01 X68.7137 Y12.9080
G01 X68.8380 Y12.8564
G01 X68.8474 Y12.8529
G01 X68.8614 Y12.8487
G01 X68.8705 Y12.8467
G01 X68.8839 Y12.8447
G01 X68.8954 Y12.8439
G01 X68.9084 Y12.8439
G01 X68.9198 Y12.8447
G01 X68.9284 Y12.8459
G01 X68.9413 Y12.8485
G01 X68.9504 Y12.8510
G01 X68.9597 Y12.8541
G01 X68.9733 Y12.8598
G01 X68.9827 Y12.8646
G01 X68.9943 Y12.8717
G01 X69.0014 Y12.8766
G01 X69.0123 Y12.8855
G01 X69.0200 Y12.8926
G01 X71.5453 Y15.4155
G01 X71.5544 Y15.4254
G01 X71.5608 Y15.4335
G01 X71.5651 Y15.4396
G01 X71.5713 Y15.4495
G01 X71.5777 Y15.4616
G01 X71.5829 Y15.4739
G01 X71.5861 Y15.4832
G01 X71.5887 Y15.4925
G01 X71.5920 Y15.5090
G01 X71.5936 Y15.5249
G01 X71.5938 Y15.5331
G01 X71.5938 Y24.3406
G01 X71.6172 Y24.5112
G01 X71.6794 Y24.6615
G01 X71.7838 Y24.7979
G01 X97.7068 Y50.7209
G01 X97.7149 Y50.7296
G01 X97.7252 Y50.7428
G01 X97.7335 Y50.7559
G01 X97.7411 Y50.7707
G01 X97.7466 Y50.7846
G01 X97.7493 Y50.7930
G01 X97.7515 Y50.8017
G01 X97.7544 Y50.8179
G01 X97.7556 Y50.8309
G01 X97.7557 Y50.8375
G01 X97.7558 Y51.1236
G01 X97.7556 Y51.1316
G01 X97.7544 Y51.1443
G01 X97.7517 Y51.1601
G01 X97.7485 Y51.1723
G01 X97.7444 Y51.1842
G01 X97.7405 Y51.1933
G01 X97.7332 Y51.2075
G01 X97.7274 Y51.2168
G01 X97.7222 Y51.2241
G01 X97.7137 Y51.2345
G01 X97.7029 Y51.2456
G01 X97.6897 Y51.2567
G01 X97.6819 Y51.2623
G01 X97.6740 Y51.2673
G01 X97.6645 Y51.2726
G01 X97.6566 Y51.2763
G01 X97.6429 Y51.2817
G01 X97.5154 Y51.3250
G01 X97.5008 Y51.3293
G01 X97.4851 Y51.3323
G01 X97.4714 Y51.3336
G01 X97.4607 Y51.3339
G01 X97.4512 Y51.3336
G01 X97.4338 Y51.3316
G01 X97.4233 Y51.3295
G01 X97.4139 Y51.3270
G01 X97.4070 Y51.3248
G01 X97.3954 Y51.3203
G01 X97.3877 Y51.3167
G01 X97.3784 Y51.3117
G01 X97.3704 Y51.3068
G01 X97.3621 Y51.3011
G01 X97.3490 Y51.2903
G01 X97.3421 Y51.2836
G01 X97.3327 Y51.2731
G01 X97.2838 Y51.2127
G01 X81.0413 Y34.9702
G01 X80.9048 Y34.8635
G01 X80.7561 Y34.8021
G01 X80.5856 Y34.7808
G01 X68.7240 Y34.7808
G01 X68.7082 Y34.7800
G01 X68.6995 Y34.7790
G01 X68.6906 Y34.7774
G01 X68.6734 Y34.7729
G01 X68.6576 Y34.7670
G01 X68.6424 Y34.7594
G01 X68.6299 Y34.7517
G01 X68.6224 Y34.7463
G01 X68.6138 Y34.7392
G01 X68.6025 Y34.7283
G01 X68.5977 Y34.7231
G01 X68.5898 Y34.7132
G01 X68.5819 Y34.7015
G01 X68.5733 Y34.6858
G01 X68.5678 Y34.6730
G01 X68.5643 Y34.6629
G01 X68.5622 Y34.6556
G01 X68.5593 Y34.6414
G01 X68.5573 Y34.6251
G01 X68.5569 Y34.6153
G01 X68.5569 Y32.5054
G01 X68.5571 Y32.4972
G01 X68.5583 Y32.4842
G01 X68.5611 Y32.4681
G01 X68.5634 Y32.4593
G01 X68.5666 Y32.4493
G01 X68.5715 Y32.4372
G01 X68.5757 Y32.4284
G01 X68.5805 Y32.4197
G01 X68.5874 Y32.4092
G01 X68.5916 Y32.4035
G01 X68.6010 Y32.3922
G01 X69.1117 Y31.8788
G01 X69.1223 Y31.8692
G01 X69.1308 Y31.8625
G01 X69.1433 Y31.8542
G01 X69.1535 Y31.8485
G01 X69.1646 Y31.8434
G01 X69.1730 Y31.8401
G01 X69.1814 Y31.8373
G01 X69.1937 Y31.8341
G01 X69.2049 Y31.8321
G01 X69.2160 Y31.8308
G01 X69.2295 Y31.8302
G01 X72.1835 Y31.8302
G01 X72.1970 Y31.8308
G01 X72.2101 Y31.8324
G01 X72.2241 Y31.8352
G01 X72.2398 Y31.8400
G01 X72.2550 Y31.8463
G01 X72.2708 Y31.8549
G01 X72.2776 Y31.8593
G01 X72.2867 Y31.8659
G01 X72.2958 Y31.8735
G01 X72.3011 Y31.8786
G01 X72.8656 Y32.4431
G01 X72.8737 Y32.4518
G01 X72.8800 Y32.4595
G01 X72.8870 Y32.4694
G01 X72.8915 Y32.4766
G01 X72.8980 Y32.4888
G01 X72.9017 Y32.4971
G01 X72.9049 Y32.5054
G01 X72.9091 Y32.5190
G01 X72.9128 Y32.5376
G01 X72.9142 Y32.5508
G01 X72.9145 Y32.5636
G01 X72.9142 Y32.5723
G01 X72.9134 Y32.5810
G01 X72.9105 Y32.5978
G01 X72.8917 Y32.6656
G01 X72.8917 Y32.9886
G01 X72.9768 Y33.3021
G01 X73.1378 Y33.5838
G01 X73.3679 Y33.8117
G01 X73.6500 Y33.9751
G01 X73.9629 Y34.0578
G01 X74.2878 Y34.0578
G01 X74.6007 Y33.9751
G01 X74.8828 Y33.8117
G01 X75.1129 Y33.5838
G01 X75.2739 Y33.3021
G01 X75.3590 Y32.9886
G01 X75.3590 Y32.6647
G01 X75.2739 Y32.3490
G01 X75.1129 Y32.0695
G01 X74.8824 Y31.8390
G01 X74.6007 Y31.6758
G01 X74.2878 Y31.5931
G01 X73.9618 Y31.5931
G01 X73.8921 Y31.6103
G01 X73.8750 Y31.6127
G01 X73.8578 Y31.6134
G01 X73.8465 Y31.6128
G01 X73.8362 Y31.6117
G01 X73.8237 Y31.6094
G01 X73.8126 Y31.6065
G01 X73.8051 Y31.6041
G01 X73.7923 Y31.5991
G01 X73.7845 Y31.5954
G01 X73.7744 Y31.5898
G01 X73.7595 Y31.5798
G01 X73.7514 Y31.5734
G01 X73.7417 Y31.5644
G01 X72.9569 Y30.7796
G01 X72.8177 Y30.6725
G01 X72.6710 Y30.6111
G01 X72.4984 Y30.5898
G01 X68.9142 Y30.5898
G01 X68.8313 Y30.5994
G01 X68.8198 Y30.5999
G01 X68.8077 Y30.5996
G01 X68.7966 Y30.5985
G01 X68.7812 Y30.5958
G01 X68.7677 Y30.5922
G01 X68.7530 Y30.5868
G01 X68.7402 Y30.5807
G01 X68.7295 Y30.5746
G01 X68.7183 Y30.5669
G01 X68.7091 Y30.5596
G01 X68.6128 Y30.4737
G01 X68.6059 Y30.4671
G01 X68.5964 Y30.4569
G01 X68.5868 Y30.4444
G01 X68.5771 Y30.4285
G01 X68.5715 Y30.4173
G01 X68.5682 Y30.4094
G01 X68.5650 Y30.4005
G01 X68.5617 Y30.3886
G01 X68.5621 Y30.4262
G01 X68.5617 Y30.4387
G01 X68.5558 Y30.5120
G01 X68.5542 Y30.5244
G01 X68.5414 Y30.5969
G01 X68.5387 Y30.6091
G01 X68.5192 Y30.6800
G01 X68.5153 Y30.6919
G01 X68.4892 Y30.7607
G01 X68.4843 Y30.7722
G01 X68.4519 Y30.8382
G01 X68.4459 Y30.8492
G01 X68.4074 Y30.9118
G01 X68.4004 Y30.9222
G01 X68.3562 Y30.9810
G01 X68.3486 Y30.9903
G01 X68.5209 Y30.8182
G01 X68.5575 Y30.7853
G01 X68.5930 Y30.7588
G01 X68.6030 Y30.7519
G01 X68.6408 Y30.7292
G01 X68.6532 Y30.7227
G01 X68.6942 Y30.7035
G01 X68.7383 Y30.6875
G01 X68.7524 Y30.6833
G01 X68.7967 Y30.6723
G01 X68.8425 Y30.6653
G01 X68.8561 Y30.6638
G01 X68.9044 Y30.6616
G01 X72.5107 Y30.6617
G01 X72.5623 Y30.6643
G01 X72.6163 Y30.6723
G01 X72.6687 Y30.6855
G01 X72.7108 Y30.7004
G01 X72.7218 Y30.7048
G01 X72.7679 Y30.7268
G01 X72.8128 Y30.7538
G01 X72.8555 Y30.7853
G01 X72.8930 Y30.8190
G01 X73.7837 Y31.7096
G01 X73.7933 Y31.7068
G01 X73.8885 Y31.6830
G01 X73.9046 Y31.6798
G01 X74.0098 Y31.6644
G01 X74.1249 Y31.6588
G01 X74.2384 Y31.6644
G01 X74.3436 Y31.6798
G01 X74.3588 Y31.6828
G01 X74.4548 Y31.7068
G01 X74.4705 Y31.7116
G01 X74.5709 Y31.7477
G01 X74.6733 Y31.7962
G01 X74.7718 Y31.8551
G01 X74.8577 Y31.9186
G01 X74.8704 Y31.9290
G01 X74.9437 Y31.9954
G01 X74.9547 Y32.0064
G01 X75.0264 Y32.0860
G01 X75.0942 Y32.1774
G01 X75.1533 Y32.2762
G01 X75.2021 Y32.3794
G01 X75.2405 Y32.4867
G01 X75.2682 Y32.5972
G01 X75.2851 Y32.7114
G01 X75.2907 Y32.8263
G01 X75.2851 Y32.9395
G01 X75.2682 Y33.0537
G01 X75.2405 Y33.1642
G01 X75.2021 Y33.2715
G01 X75.1533 Y33.3747
G01 X75.0940 Y33.4738
G01 X75.0264 Y33.5649
G01 X74.9484 Y33.6510
G01 X74.8641 Y33.7274
G01 X74.7789 Y33.7908
G01 X74.7682 Y33.7981
G01 X74.6748 Y33.8539
G01 X74.5773 Y33.9003
G01 X74.5634 Y33.9061
G01 X74.4705 Y33.9393
G01 X74.4548 Y33.9440
G01 X74.3507 Y33.9699
G01 X74.2381 Y33.9865
G01 X74.1249 Y33.9921
G01 X74.0179 Y33.9871
G01 X74.0023 Y33.9856
G01 X73.9046 Y33.9711
G01 X73.8885 Y33.9679
G01 X73.7853 Y33.9418
G01 X73.6780 Y33.9034
G01 X73.5814 Y33.8580
G01 X73.5670 Y33.8503
G01 X73.4758 Y33.7954
G01 X73.3841 Y33.7274
G01 X73.3051 Y33.6560
G01 X73.2935 Y33.6444
G01 X73.2217 Y33.5649
G01 X73.1540 Y33.4735
G01 X73.0956 Y33.3762
G01 X73.0496 Y33.2794
G01 X73.0433 Y33.2642
G01 X73.0077 Y33.1642
G01 X72.9800 Y33.0537
G01 X72.9640 Y32.9479
G01 X72.9624 Y32.9316
G01 X72.9574 Y32.8246
G01 X72.9630 Y32.7114
G01 X72.9784 Y32.6059
G01 X72.9816 Y32.5898
G01 X73.0055 Y32.4947
G01 X73.0082 Y32.4851
G01 X72.2815 Y31.7584
G01 X69.1315 Y31.7584
G01 X68.3693 Y32.5206
G01 X68.3720 Y32.5302
G01 X68.3958 Y32.6254
G01 X68.3990 Y32.6415
G01 X68.4144 Y32.7470
G01 X68.4200 Y32.8618
G01 X68.4144 Y32.9751
G01 X68.3990 Y33.0805
G01 X68.3958 Y33.0966
G01 X68.3718 Y33.1925
G01 X68.3672 Y33.2075
G01 X68.3307 Y33.3086
G01 X68.2826 Y33.4103
G01 X68.2235 Y33.5091
G01 X68.1603 Y33.5947
G01 X68.1499 Y33.6073
G01 X68.0834 Y33.6806
G01 X68.0724 Y33.6916
G01 X67.9934 Y33.7629
G01 X67.9044 Y33.8291
G01 X67.8946 Y33.8354
G01 X67.8105 Y33.8859
G01 X67.7960 Y33.8936
G01 X67.6995 Y33.9390
G01 X67.5998 Y33.9748
G01 X67.5841 Y33.9796
G01 X67.4817 Y34.0051
G01 X67.3759 Y34.0210
G01 X67.3639 Y34.0224
G01 X67.2537 Y34.0277
G01 X66.2473 Y34.0276
G01 X66.1386 Y34.0221
G01 X66.0331 Y34.0066
G01 X66.0170 Y34.0034
G01 X65.9139 Y33.9774
G01 X65.8065 Y33.9390
G01 X65.7100 Y33.8936
G01 X65.6962 Y33.8863
G01 X65.6114 Y33.8354
G01 X65.5978 Y33.8263
G01 X65.5118 Y33.7623
G01 X65.4271 Y33.6854
G01 X65.3503 Y33.6005
G01 X65.2827 Y33.5093
G01 X65.2241 Y33.4117
G01 X65.1781 Y33.3150
G01 X65.1721 Y33.3006
G01 X65.1388 Y33.2075
G01 X65.1340 Y33.1918
G01 X65.1082 Y33.0876
G01 X65.0916 Y32.9751
G01 X65.0860 Y32.8618
G01 X65.0910 Y32.7539
G01 X65.0926 Y32.7385
G01 X65.1082 Y32.6344
G01 X65.1340 Y32.5302
G01 X65.1388 Y32.5146
G01 X65.1718 Y32.4222
G01 X65.1778 Y32.4078
G01 X65.2241 Y32.3103
G01 X65.2825 Y32.2129
G01 X65.3503 Y32.1215
G01 X65.4226 Y32.0414
G01 X65.4330 Y32.0310
G01 X65.5063 Y31.9645
G01 X65.5190 Y31.9541
G01 X65.6045 Y31.8909
G01 X65.7034 Y31.8317
G01 X65.8058 Y31.7833
G01 X65.9070 Y31.7469
G01 X65.9211 Y31.7426
G01 X66.0179 Y31.7183
G01 X66.0291 Y31.7160
G01 X66.0491 Y31.7130
G01 X66.0377 Y31.7140
G01 X66.0242 Y31.7144
G01 X65.9487 Y31.7138
G01 X65.9319 Y31.7128
G01 X65.8568 Y31.7045
G01 X65.8435 Y31.7025
G01 X65.7663 Y31.6861
G01 X65.7500 Y31.6818
G01 X65.6781 Y31.6586
G01 X65.6655 Y31.6540
G01 X65.5931 Y31.6224
G01 X65.5810 Y31.6165
G01 X65.5121 Y31.5779
G01 X65.5007 Y31.5708
G01 X65.4361 Y31.5254
G01 X65.4229 Y31.5150
G01 X65.3658 Y31.4655
G01 X65.3560 Y31.4563
G01 X65.3018 Y31.3989
G01 X65.2930 Y31.3887
G01 X65.2448 Y31.3262
G01 X65.2371 Y31.3152
G01 X65.1955 Y31.2481
G01 X65.1889 Y31.2363
G01 X65.1542 Y31.1654
G01 X65.1489 Y31.1531
G01 X65.1215 Y31.0790
G01 X65.1175 Y31.0662
G01 X65.0977 Y30.9898
G01 X65.0949 Y30.9766
G01 X65.0829 Y30.8986
G01 X65.0812 Y30.8811
G01 X65.0810 Y32.4437
G01 X65.0800 Y32.4568
G01 X65.0789 Y32.4643
G01 X65.0772 Y32.4733
G01 X65.0740 Y32.4854
G01 X65.0680 Y32.5019
G01 X65.0513 Y32.5404
G01 X65.0090 Y32.8610
G01 X65.0513 Y33.1816
G01 X65.0680 Y33.2201
G01 X65.0715 Y33.2290
G01 X65.0750 Y33.2400
G01 X65.0779 Y33.2521
G01 X65.0796 Y33.2618
G01 X65.0808 Y33.2737
G01 X65.0812 Y33.2834
G01 X65.0812 Y34.5975
G01 X65.0808 Y34.6073
G01 X65.0794 Y34.6203
G01 X65.0762 Y34.6364
G01 X65.0720 Y34.6504
G01 X65.0665 Y34.6643
G01 X65.0633 Y34.6709
G01 X65.0574 Y34.6818
