(G-CODE GENERATED BY FLATCAM v8.991 - www.flatcam.org - Version Date: 2019/12/30)

(Name: Cncjob_AlignDrill_1mm)
(Type: G-code from Excellon)
(Units: MM)

(Created on Friday, 10 March 2023 at 15:48)

(Feedrate: 240 mm/min)
(Feedrate rapids 1500 mm/min)

(Z_Cut: -3.9 mm)
(Z_Move: 1 mm)
(Z Toolchange: 15 mm)
(X,Y Toolchange: None mm)
(Z Start: None mm)
(Z End: 0.5 mm)
(Steps per circle: 64)
(Preprocessor Excellon: default)

(X range:    0.7500 ...  139.2500  mm)
(Y range:    0.7500 ...  189.7500  mm)

(Spindle Speed: 0 RPM)
G21
G90
G94




G01 F240.00
G00 Z1.0000

M03
G4 P1.0
G00 X1.2500 Y1.2500
G01 Z-3.9000
G01 Z0
G00 Z1.0000
G00 X138.7500 Y1.2500
G01 Z-3.9000
G01 Z0
G00 Z1.0000
G00 X84.0000 Y189.2500
G01 Z-3.9000
G01 Z0
G00 Z1.0000
G00 X56.0000 Y189.2500
G01 Z-3.9000
G01 Z0
G00 Z1.0000
M05
G00 Z0.50

