(G-CODE GENERATED BY FLATCAM v8.991 - www.flatcam.org - Version Date: 2019/12/30)

(Name: Cncjob_Top_Copper_straightend)
(Type: G-code from Geometry)
(Units: MM)

(Created on Friday, 10 March 2023 at 15:48)

(TOOL DIAMETER: 1.5 mm)
(Feedrate: 1250.0 mm/min)
(Feedrate_Z: 250.0 mm/min)
(Feedrate rapids 1500.0 mm/min)

(Z_Cut: -0.04 mm)
(Z_Move: 0.5 mm)
(Z Toolchange: 15.0 mm)
(X,Y Toolchange: 0.0000, 0.0000 mm)
(Z Start: 0.5 mm)
(Z End: 2.0 mm)
(Steps per circle: 64)
(Preprocessor Geometry: default)

(X range:    2.2264 ...  116.3276  mm)
(Y range:    8.4266 ...  149.2687  mm)

(Spindle Speed: None RPM)
G21
G90
G94




G01 F1250.00
G00 Z0.5000
G00 Z0.5000
M03
G4 P1.0
G00 X6.1926 Y64.6615
G01 F250.00
G01 Z-0.0400
G01 F1250.00
G01 X6.2606 Y64.6110
G01 X6.1926 Y64.5605
G01 X6.1926 Y64.6615
G00 Z0.5000
G00 X8.8290 Y64.6110
G01 F250.00
G01 Z-0.0400
G01 F1250.00
G01 X8.9135 Y64.6738
G01 X8.9450 Y64.6989
G01 X8.9638 Y64.7150
G01 X9.0762 Y64.8168
G01 X9.1060 Y64.8459
G01 X9.1316 Y64.8731
G01 X9.2239 Y64.9751
G01 X9.2516 Y65.0081
G01 X9.2679 Y65.0291
G01 X9.3461 Y65.1345
G01 X9.3670 Y65.1638
G01 X9.3903 Y65.1995
G01 X9.4359 Y65.2753
G01 X9.5169 Y65.2371
G01 X9.5370 Y65.2283
G01 X9.5587 Y65.2193
G01 X9.5909 Y65.2071
G01 X9.6928 Y65.1707
G01 X9.7172 Y65.1626
G01 X9.7442 Y65.1545
G01 X9.7724 Y65.1470
G01 X9.8766 Y65.1209
G01 X9.8998 Y65.1157
G01 X9.9274 Y65.1102
G01 X9.9589 Y65.1050
G01 X10.0688 Y65.0888
G01 X10.1086 Y65.0843
G01 X10.1335 Y65.0823
G01 X10.2557 Y65.0763
G01 X10.2790 Y65.0756
G01 X10.3023 Y65.0756
G01 X10.3397 Y65.0767
G01 X10.4475 Y65.0820
G01 X10.4724 Y65.0838
G01 X10.5004 Y65.0867
G01 X10.5303 Y65.0906
G01 X10.6363 Y65.1064
G01 X10.6635 Y65.1111
G01 X10.6864 Y65.1157
G01 X10.7187 Y65.1232
G01 X10.8261 Y65.1502
G01 X10.8462 Y65.1557
G01 X10.8690 Y65.1626
G01 X10.9066 Y65.1753
G01 X10.9193 Y65.1514
G01 X10.9306 Y65.1312
G01 X10.9679 Y65.0689
G01 X10.9808 Y65.0485
G01 X10.9938 Y65.0289
G01 X11.0147 Y64.9996
G01 X11.0520 Y64.9496
G01 X11.0654 Y64.9323
G01 X11.0804 Y64.9141
G01 X11.1031 Y64.8882
G01 X11.1423 Y64.8450
G01 X11.1583 Y64.8281
G01 X11.1747 Y64.8116
G01 X11.1951 Y64.7921
G01 X11.2383 Y64.7529
G01 X11.2682 Y64.7270
G01 X11.2997 Y64.7018
G01 X11.3607 Y64.6566
G01 X11.3791 Y64.6437
G01 X11.3986 Y64.6307
G01 X11.4190 Y64.6178
G01 X11.4693 Y64.5876
G01 X11.5015 Y64.5692
G01 X11.5221 Y64.5582
G01 X11.5430 Y64.5477
G01 X11.6036 Y64.5191
G01 X11.6279 Y64.5083
G01 X11.6678 Y64.4922
G01 X11.7281 Y64.4705
G01 X11.7620 Y64.4591
G01 X11.7890 Y64.4510
G01 X11.8172 Y64.4435
G01 X11.8739 Y64.4294
G01 X11.9020 Y64.4231
G01 X11.9425 Y64.4155
G01 X12.0047 Y64.4062
G01 X12.0346 Y64.4023
G01 X12.0627 Y64.3994
G01 X12.0876 Y64.3976
G01 X12.1465 Y64.3947
G01 X12.1789 Y64.3936
G01 X12.2022 Y64.3936
G01 X12.2304 Y64.3943
G01 X12.2985 Y64.3976
G01 X12.3286 Y64.3999
G01 X12.3684 Y64.4044
G01 X12.4299 Y64.4134
G01 X12.4613 Y64.4186
G01 X12.4841 Y64.4231
G01 X12.5121 Y64.4294
G01 X12.5769 Y64.4456
G01 X12.6013 Y64.4522
G01 X12.6240 Y64.4591
G01 X12.6580 Y64.4705
G01 X12.7182 Y64.4922
G01 X12.7582 Y64.5083
G01 X12.7833 Y64.5195
G01 X13.0421 Y64.2607
G01 X13.0443 Y64.2285
G01 X13.0471 Y64.2005
G01 X13.0499 Y64.1790
G01 X13.0571 Y64.1301
G01 X12.9598 Y64.1156
G01 X12.9373 Y64.1118
G01 X12.9146 Y64.1074
G01 X12.8774 Y64.0989
G01 X12.7700 Y64.0719
G01 X12.7322 Y64.0610
G01 X12.6932 Y64.0480
G01 X12.5868 Y64.0098
G01 X12.5638 Y64.0008
G01 X12.5268 Y63.9849
G01 X12.4178 Y63.9334
G01 X12.3968 Y63.9229
G01 X12.3720 Y63.9096
G01 X12.3440 Y63.8935
G01 X12.2474 Y63.8354
G01 X12.2270 Y63.8224
G01 X12.1934 Y63.7993
G01 X12.0930 Y63.7249
G01 X12.0615 Y63.6998
G01 X12.0428 Y63.6837
G01 X11.9589 Y63.6079
G01 X11.9353 Y63.5857
G01 X11.9153 Y63.5658
G01 X11.8812 Y63.5289
G01 X11.7151 Y63.5288
G01 X11.6808 Y63.5658
G01 X11.6643 Y63.5823
G01 X11.6439 Y63.6017
G01 X11.5533 Y63.6837
G01 X11.5346 Y63.6998
G01 X11.5031 Y63.7249
G01 X11.4066 Y63.7965
G01 X11.3882 Y63.8095
G01 X11.3691 Y63.8224
G01 X11.3363 Y63.8430
G01 X11.2521 Y63.8935
G01 X11.2242 Y63.9096
G01 X11.1993 Y63.9229
G01 X11.1784 Y63.9334
G01 X11.0813 Y63.9793
G01 X11.0493 Y63.9937
G01 X11.0275 Y64.0028
G01 X11.0045 Y64.0116
G01 X10.9029 Y64.0480
G01 X10.8639 Y64.0610
G01 X10.8420 Y64.0675
G01 X10.8218 Y64.0730
G01 X10.7096 Y64.1011
G01 X10.6864 Y64.1063
G01 X10.6588 Y64.1118
G01 X10.6273 Y64.1170
G01 X10.5303 Y64.1314
G01 X10.4959 Y64.1359
G01 X10.4724 Y64.1382
G01 X10.4475 Y64.1400
G01 X10.3256 Y64.1459
G01 X10.3023 Y64.1464
G01 X10.2606 Y64.1459
G01 X10.1486 Y64.1405
G01 X10.1086 Y64.1377
G01 X10.0688 Y64.1332
G01 X9.9499 Y64.1156
G01 X9.9274 Y64.1118
G01 X9.9047 Y64.1074
G01 X9.8675 Y64.0989
G01 X9.7724 Y64.0750
G01 X9.7400 Y64.0663
G01 X9.7172 Y64.0594
G01 X9.6833 Y64.0480
G01 X9.5909 Y64.0149
G01 X9.5587 Y64.0028
G01 X9.5370 Y63.9937
G01 X9.5169 Y63.9849
G01 X9.4359 Y63.9467
G01 X9.3903 Y64.0225
G01 X9.3670 Y64.0582
G01 X9.3461 Y64.0875
G01 X9.2679 Y64.1930
G01 X9.2516 Y64.2139
G01 X9.2239 Y64.2469
G01 X9.1316 Y64.3489
G01 X9.1060 Y64.3761
G01 X9.0762 Y64.4052
G01 X8.9638 Y64.5070
G01 X8.9450 Y64.5231
G01 X8.9135 Y64.5482
G01 X8.8290 Y64.6110
G01 X9.6243 Y64.6586
G01 X9.7589 Y64.6247
G01 X9.7945 Y64.6167
G01 X9.8226 Y64.6110
G01 X9.7945 Y64.6053
G01 X9.7589 Y64.5973
G01 X9.6243 Y64.5634
G01 X9.6062 Y64.5844
G01 X9.5824 Y64.6110
G01 X9.6062 Y64.6376
G01 X9.6243 Y64.6586
G00 Z0.5000
G00 X9.6243 Y72.0246
G01 F250.00
G01 Z-0.0400
G01 F1250.00
G01 X9.7589 Y71.9907
G01 X9.7945 Y71.9827
G01 X9.8226 Y71.9770
G01 X9.7945 Y71.9713
G01 X9.7589 Y71.9633
G01 X9.6243 Y71.9294
G01 X9.6062 Y71.9504
G01 X9.5824 Y71.9770
G01 X9.6062 Y72.0036
G01 X9.6243 Y72.0246
G00 Z0.5000
G00 X6.2606 Y71.9770
G01 F250.00
G01 Z-0.0400
G01 F1250.00
G01 X6.2154 Y71.9435
G01 X6.2154 Y72.0105
G01 X6.2606 Y71.9770
G00 Z0.5000
G00 X13.0367 Y71.5058
G01 F250.00
G01 Z-0.0400
G01 F1250.00
G01 X12.9551 Y71.4936
G01 X12.9146 Y71.4861
G01 X12.8774 Y71.4776
G01 X12.7823 Y71.4537
G01 X12.7541 Y71.4462
G01 X12.7271 Y71.4381
G01 X12.7027 Y71.4300
G01 X12.5917 Y71.3903
G01 X12.5638 Y71.3795
G01 X12.5426 Y71.3706
G01 X12.5226 Y71.3617
G01 X12.4178 Y71.3121
G01 X12.3968 Y71.3016
G01 X12.3720 Y71.2883
G01 X12.3440 Y71.2722
G01 X12.2474 Y71.2141
G01 X12.2270 Y71.2011
G01 X12.1934 Y71.1780
G01 X12.0930 Y71.1036
G01 X12.0615 Y71.0785
G01 X12.0428 Y71.0624
G01 X11.9589 Y70.9866
G01 X11.9353 Y70.9644
G01 X11.9187 Y70.9479
G01 X11.9026 Y70.9311
G01 X11.8722 Y70.8977
G01 X11.7134 Y70.8967
G01 X11.6935 Y70.9184
G01 X11.6774 Y70.9352
G01 X11.6609 Y70.9517
G01 X11.6439 Y70.9677
G01 X11.5533 Y71.0497
G01 X11.5346 Y71.0658
G01 X11.5031 Y71.0909
G01 X11.4066 Y71.1625
G01 X11.3882 Y71.1755
G01 X11.3691 Y71.1884
G01 X11.3363 Y71.2090
G01 X11.2521 Y71.2595
G01 X11.2242 Y71.2756
G01 X11.1993 Y71.2889
G01 X11.1784 Y71.2994
G01 X11.0813 Y71.3453
G01 X11.0493 Y71.3597
G01 X11.0275 Y71.3688
G01 X11.0045 Y71.3776
G01 X10.9029 Y71.4140
G01 X10.8639 Y71.4270
G01 X10.8420 Y71.4335
G01 X10.8218 Y71.4390
G01 X10.7096 Y71.4671
G01 X10.6864 Y71.4723
G01 X10.6588 Y71.4778
G01 X10.6273 Y71.4830
G01 X10.5303 Y71.4974
G01 X10.4959 Y71.5019
G01 X10.4724 Y71.5042
G01 X10.4475 Y71.5060
G01 X10.3256 Y71.5119
G01 X10.3023 Y71.5124
G01 X10.2606 Y71.5119
G01 X10.1486 Y71.5065
G01 X10.1086 Y71.5037
G01 X10.0688 Y71.4992
G01 X9.9499 Y71.4816
G01 X9.9274 Y71.4778
G01 X9.9047 Y71.4734
G01 X9.8675 Y71.4649
G01 X9.7724 Y71.4410
G01 X9.7400 Y71.4323
G01 X9.7172 Y71.4254
G01 X9.6833 Y71.4140
G01 X9.5909 Y71.3809
G01 X9.5587 Y71.3688
G01 X9.5370 Y71.3597
G01 X9.5169 Y71.3509
G01 X9.4359 Y71.3127
G01 X9.3903 Y71.3885
G01 X9.3670 Y71.4242
G01 X9.3461 Y71.4535
G01 X9.2679 Y71.5590
G01 X9.2516 Y71.5799
G01 X9.2239 Y71.6129
G01 X9.1316 Y71.7149
G01 X9.1060 Y71.7421
G01 X9.0762 Y71.7712
G01 X8.9638 Y71.8730
G01 X8.9450 Y71.8891
G01 X8.9135 Y71.9142
G01 X8.8290 Y71.9770
G01 X8.9135 Y72.0398
G01 X8.9450 Y72.0649
G01 X8.9638 Y72.0810
G01 X9.0762 Y72.1828
G01 X9.1060 Y72.2119
G01 X9.1316 Y72.2391
G01 X9.2239 Y72.3411
G01 X9.2516 Y72.3741
G01 X9.2679 Y72.3951
G01 X9.3461 Y72.5005
G01 X9.3670 Y72.5298
G01 X9.3903 Y72.5655
G01 X9.4359 Y72.6413
G01 X9.5169 Y72.6031
G01 X9.5370 Y72.5943
G01 X9.5587 Y72.5853
G01 X9.5909 Y72.5731
G01 X9.6928 Y72.5367
G01 X9.7172 Y72.5286
G01 X9.7442 Y72.5205
G01 X9.7724 Y72.5130
G01 X9.8766 Y72.4869
G01 X9.8998 Y72.4817
G01 X9.9274 Y72.4762
G01 X9.9589 Y72.4710
G01 X10.0688 Y72.4548
G01 X10.1086 Y72.4503
G01 X10.1335 Y72.4483
G01 X10.2557 Y72.4423
G01 X10.2790 Y72.4416
G01 X10.3023 Y72.4416
G01 X10.3397 Y72.4427
G01 X10.4475 Y72.4480
G01 X10.4724 Y72.4498
G01 X10.5004 Y72.4527
G01 X10.5303 Y72.4566
G01 X10.6363 Y72.4724
G01 X10.6635 Y72.4771
G01 X10.6864 Y72.4817
G01 X10.7187 Y72.4892
G01 X10.8261 Y72.5162
G01 X10.8462 Y72.5217
G01 X10.8690 Y72.5286
G01 X10.9066 Y72.5413
G01 X10.9193 Y72.5174
G01 X10.9306 Y72.4972
G01 X10.9679 Y72.4349
G01 X10.9808 Y72.4145
G01 X10.9938 Y72.3949
G01 X11.0147 Y72.3656
G01 X11.0520 Y72.3156
G01 X11.0654 Y72.2983
G01 X11.0804 Y72.2801
G01 X11.1031 Y72.2542
G01 X11.1423 Y72.2110
G01 X11.1583 Y72.1941
G01 X11.1747 Y72.1776
G01 X11.1951 Y72.1581
G01 X11.2383 Y72.1189
G01 X11.2682 Y72.0930
G01 X11.2997 Y72.0678
G01 X11.3607 Y72.0226
G01 X11.3791 Y72.0097
G01 X11.3986 Y71.9967
G01 X11.4190 Y71.9838
G01 X11.4693 Y71.9536
G01 X11.5015 Y71.9352
G01 X11.5221 Y71.9242
G01 X11.5430 Y71.9137
G01 X11.6036 Y71.8851
G01 X11.6279 Y71.8743
G01 X11.6678 Y71.8582
G01 X11.7281 Y71.8365
G01 X11.7620 Y71.8251
G01 X11.7890 Y71.8170
G01 X11.8172 Y71.8095
G01 X11.8739 Y71.7954
G01 X11.9020 Y71.7891
G01 X11.9425 Y71.7815
G01 X12.0047 Y71.7722
G01 X12.0346 Y71.7683
G01 X12.0627 Y71.7654
G01 X12.0876 Y71.7636
G01 X12.1465 Y71.7607
G01 X12.1789 Y71.7596
G01 X12.2022 Y71.7596
G01 X12.2304 Y71.7603
G01 X12.2985 Y71.7636
G01 X12.3286 Y71.7659
G01 X12.3684 Y71.7704
G01 X12.4299 Y71.7794
G01 X12.4613 Y71.7846
G01 X12.4841 Y71.7891
G01 X12.5121 Y71.7954
G01 X12.5769 Y71.8116
G01 X12.6013 Y71.8182
G01 X12.6240 Y71.8251
G01 X12.6580 Y71.8365
G01 X12.7182 Y71.8582
G01 X12.7582 Y71.8743
G01 X12.7833 Y71.8855
G01 X13.0427 Y71.6262
G01 X13.0367 Y71.5058
G00 Z0.5000
G00 X9.6243 Y79.3855
G01 F250.00
G01 Z-0.0400
G01 F1250.00
G01 X9.7558 Y79.3524
G01 X9.7883 Y79.3449
G01 X9.8098 Y79.3405
G01 X9.7883 Y79.3360
G01 X9.7558 Y79.3286
G01 X9.6243 Y79.2954
G01 X9.6062 Y79.3164
G01 X9.5847 Y79.3405
G01 X9.6062 Y79.3645
G01 X9.6243 Y79.3855
G01 X8.8324 Y79.3405
G01 X8.9135 Y79.4007
G01 X8.9450 Y79.4259
G01 X8.9638 Y79.4419
G01 X9.0762 Y79.5437
G01 X9.1060 Y79.5728
G01 X9.1316 Y79.6000
G01 X9.2239 Y79.7021
G01 X9.2516 Y79.7351
G01 X9.2679 Y79.7560
G01 X9.3461 Y79.8614
G01 X9.3670 Y79.8907
G01 X9.3903 Y79.9264
G01 X9.4359 Y80.0022
G01 X9.5169 Y79.9640
G01 X9.5370 Y79.9552
G01 X9.5587 Y79.9462
G01 X9.5909 Y79.9340
G01 X9.6928 Y79.8976
G01 X9.7172 Y79.8895
G01 X9.7442 Y79.8814
G01 X9.7724 Y79.8739
G01 X9.8766 Y79.8479
G01 X9.8998 Y79.8426
G01 X9.9274 Y79.8371
G01 X9.9589 Y79.8319
G01 X10.0688 Y79.8157
G01 X10.1086 Y79.8112
G01 X10.1335 Y79.8093
G01 X10.2557 Y79.8032
G01 X10.2790 Y79.8025
G01 X10.3023 Y79.8025
G01 X10.3397 Y79.8036
G01 X10.4475 Y79.8089
G01 X10.4724 Y79.8107
G01 X10.5004 Y79.8136
G01 X10.5303 Y79.8175
G01 X10.6363 Y79.8333
G01 X10.6635 Y79.8380
G01 X10.6864 Y79.8426
G01 X10.7187 Y79.8501
G01 X10.8261 Y79.8771
G01 X10.8462 Y79.8826
G01 X10.8690 Y79.8895
G01 X10.9066 Y79.9023
G01 X10.9193 Y79.8783
G01 X10.9306 Y79.8581
G01 X10.9679 Y79.7958
G01 X10.9836 Y79.7712
G01 X10.9965 Y79.7520
G01 X11.0095 Y79.7337
G01 X11.0520 Y79.6765
G01 X11.0771 Y79.6450
G01 X11.1031 Y79.6151
G01 X11.1423 Y79.5719
G01 X11.1617 Y79.5515
G01 X11.1915 Y79.5224
G01 X11.2455 Y79.4734
G01 X11.2682 Y79.4539
G01 X11.2860 Y79.4394
G01 X11.3033 Y79.4260
G01 X11.3607 Y79.3835
G01 X11.3944 Y79.3604
G01 X11.4271 Y79.3398
G01 X11.4771 Y79.3099
G01 X11.5015 Y79.2961
G01 X11.5221 Y79.2851
G01 X11.5430 Y79.2746
G01 X11.6036 Y79.2460
G01 X11.6279 Y79.2352
G01 X11.6497 Y79.2262
G01 X11.6818 Y79.2140
G01 X11.7376 Y79.1941
G01 X11.7671 Y79.1844
G01 X11.7890 Y79.1780
G01 X11.8172 Y79.1704
G01 X11.8739 Y79.1563
G01 X11.9020 Y79.1500
G01 X11.9247 Y79.1455
G01 X11.9562 Y79.1403
G01 X12.0177 Y79.1313
G01 X12.0575 Y79.1268
G01 X12.0876 Y79.1245
G01 X12.1465 Y79.1216
G01 X12.1789 Y79.1206
G01 X12.2022 Y79.1205
G01 X12.2304 Y79.1212
G01 X12.2985 Y79.1245
G01 X12.3234 Y79.1264
G01 X12.3469 Y79.1287
G01 X12.3729 Y79.1319
G01 X12.4388 Y79.1417
G01 X12.4613 Y79.1455
G01 X12.4841 Y79.1500
G01 X12.5121 Y79.1563
G01 X12.5689 Y79.1704
G01 X12.5970 Y79.1780
G01 X12.6174 Y79.1840
G01 X12.6457 Y79.1466
G01 X12.6635 Y79.1248
G01 X12.6862 Y79.0989
G01 X12.7269 Y79.0544
G01 X12.7434 Y79.0374
G01 X13.0472 Y78.7337
G01 X12.9598 Y78.7206
G01 X12.9373 Y78.7168
G01 X12.9146 Y78.7124
G01 X12.8774 Y78.7039
G01 X12.7700 Y78.6769
G01 X12.7322 Y78.6660
G01 X12.7027 Y78.6563
G01 X12.5917 Y78.6166
G01 X12.5686 Y78.6078
G01 X12.5469 Y78.5987
G01 X12.5148 Y78.5843
G01 X12.4261 Y78.5424
G01 X12.3968 Y78.5279
G01 X12.3762 Y78.5169
G01 X12.3440 Y78.4985
G01 X12.2598 Y78.4480
G01 X12.2270 Y78.4274
G01 X12.2079 Y78.4145
G01 X12.1824 Y78.3963
G01 X12.1036 Y78.3379
G01 X12.0758 Y78.3164
G01 X12.0576 Y78.3014
G01 X12.0389 Y78.2853
G01 X11.9589 Y78.2129
G01 X11.9416 Y78.1967
G01 X11.7731 Y78.1967
G01 X11.6968 Y78.2808
G01 X11.6808 Y78.2978
G01 X11.6643 Y78.3143
G01 X11.6372 Y78.3399
G01 X11.5645 Y78.4058
G01 X11.5346 Y78.4318
G01 X11.5167 Y78.4463
G01 X11.4925 Y78.4649
G01 X11.4137 Y78.5233
G01 X11.3844 Y78.5442
G01 X11.3648 Y78.5572
G01 X11.3444 Y78.5701
G01 X11.2443 Y78.6301
G01 X11.2242 Y78.6416
G01 X11.2037 Y78.6526
G01 X11.1700 Y78.6694
G01 X11.0693 Y78.7169
G01 X11.0323 Y78.7328
G01 X11.0045 Y78.7436
G01 X10.8934 Y78.7833
G01 X10.8690 Y78.7914
G01 X10.8462 Y78.7983
G01 X10.8138 Y78.8070
G01 X10.7187 Y78.8309
G01 X10.6815 Y78.8394
G01 X10.6588 Y78.8438
G01 X10.6273 Y78.8490
G01 X10.5303 Y78.8634
G01 X10.4959 Y78.8679
G01 X10.4724 Y78.8702
G01 X10.4475 Y78.8720
G01 X10.3305 Y78.8777
G01 X10.3072 Y78.8784
G01 X10.2839 Y78.8784
G01 X10.2465 Y78.8774
G01 X10.1335 Y78.8717
G01 X10.1086 Y78.8697
G01 X10.0688 Y78.8652
G01 X9.9499 Y78.8476
G01 X9.9274 Y78.8438
G01 X9.9047 Y78.8394
G01 X9.8675 Y78.8309
G01 X9.7724 Y78.8070
G01 X9.7400 Y78.7983
G01 X9.7172 Y78.7914
G01 X9.6833 Y78.7800
G01 X9.5909 Y78.7469
G01 X9.5587 Y78.7348
G01 X9.5370 Y78.7257
G01 X9.5169 Y78.7169
G01 X9.4359 Y78.6787
G01 X9.3903 Y78.7545
G01 X9.3670 Y78.7902
G01 X9.3461 Y78.8195
G01 X9.2679 Y78.9250
G01 X9.2516 Y78.9459
G01 X9.2239 Y78.9789
G01 X9.1316 Y79.0809
G01 X9.1060 Y79.1081
G01 X9.0762 Y79.1372
G01 X8.9638 Y79.2390
G01 X8.9450 Y79.2551
G01 X8.9135 Y79.2802
G01 X8.8324 Y79.3405
G00 Z0.5000
G00 X6.2154 Y79.3095
G01 F250.00
G01 Z-0.0400
G01 F1250.00
G01 X6.2154 Y79.3714
G01 X6.2572 Y79.3405
G01 X6.2154 Y79.3095
G00 Z0.5000
G00 X6.2641 Y86.7065
G01 F250.00
G01 Z-0.0400
G01 F1250.00
G01 X6.2154 Y86.6704
G01 X6.2154 Y86.7425
G01 X6.2641 Y86.7065
G00 Z0.5000
G00 X9.6243 Y86.7566
G01 F250.00
G01 Z-0.0400
G01 F1250.00
G01 X9.7638 Y86.7216
G01 X9.7994 Y86.7136
G01 X9.8360 Y86.7065
G01 X9.7994 Y86.6993
G01 X9.7638 Y86.6914
G01 X9.6243 Y86.6564
G01 X9.6028 Y86.6812
G01 X9.5801 Y86.7065
G01 X9.6028 Y86.7317
G01 X9.6243 Y86.7566
G01 X12.8539 Y86.2036
G01 X12.7700 Y86.1826
G01 X12.7499 Y86.1770
G01 X12.7271 Y86.1701
G01 X12.6932 Y86.1587
G01 X12.6008 Y86.1256
G01 X12.5686 Y86.1135
G01 X12.5469 Y86.1044
G01 X12.5226 Y86.0937
G01 X12.4178 Y86.0441
G01 X12.3924 Y86.0313
G01 X12.3720 Y86.0203
G01 X12.3518 Y86.0088
G01 X12.2517 Y85.9488
G01 X12.2313 Y85.9359
G01 X12.2117 Y85.9229
G01 X12.1824 Y85.9020
G01 X12.1036 Y85.8436
G01 X12.0794 Y85.8250
G01 X12.0576 Y85.8071
G01 X12.0389 Y85.7910
G01 X11.9486 Y85.7091
G01 X11.9318 Y85.6930
G01 X11.9153 Y85.6765
G01 X11.8993 Y85.6595
G01 X11.8703 Y85.6276
G01 X11.7115 Y85.6257
G01 X11.6935 Y85.6453
G01 X11.6774 Y85.6622
G01 X11.6609 Y85.6786
G01 X11.6439 Y85.6946
G01 X11.5533 Y85.7766
G01 X11.5346 Y85.7927
G01 X11.5031 Y85.8178
G01 X11.4066 Y85.8895
G01 X11.3882 Y85.9024
G01 X11.3691 Y85.9154
G01 X11.3363 Y85.9360
G01 X11.2521 Y85.9864
G01 X11.2199 Y86.0048
G01 X11.1993 Y86.0158
G01 X11.1700 Y86.0303
G01 X11.0813 Y86.0722
G01 X11.0493 Y86.0867
G01 X11.0275 Y86.0957
G01 X11.0045 Y86.1045
G01 X10.9029 Y86.1409
G01 X10.8639 Y86.1539
G01 X10.8420 Y86.1604
G01 X10.8218 Y86.1659
G01 X10.7096 Y86.1940
G01 X10.6864 Y86.1992
G01 X10.6588 Y86.2047
G01 X10.6273 Y86.2099
G01 X10.5303 Y86.2243
G01 X10.4959 Y86.2288
G01 X10.4724 Y86.2311
G01 X10.4475 Y86.2329
G01 X10.3256 Y86.2388
G01 X10.3023 Y86.2394
G01 X10.2606 Y86.2388
G01 X10.1486 Y86.2335
G01 X10.1086 Y86.2306
G01 X10.0688 Y86.2262
G01 X9.9499 Y86.2086
G01 X9.9274 Y86.2047
G01 X9.9047 Y86.2003
G01 X9.8675 Y86.1918
G01 X9.7724 Y86.1679
G01 X9.7400 Y86.1592
G01 X9.7172 Y86.1523
G01 X9.6833 Y86.1409
G01 X9.5909 Y86.1079
G01 X9.5587 Y86.0957
G01 X9.5370 Y86.0867
G01 X9.5169 Y86.0778
G01 X9.4359 Y86.0396
G01 X9.3903 Y86.1155
G01 X9.3670 Y86.1511
G01 X9.3461 Y86.1804
G01 X9.2679 Y86.2859
G01 X9.2516 Y86.3068
G01 X9.2239 Y86.3398
G01 X9.1316 Y86.4418
G01 X9.1060 Y86.4690
G01 X9.0762 Y86.4981
G01 X8.9638 Y86.6000
G01 X8.9450 Y86.6160
G01 X8.9135 Y86.6411
G01 X8.8256 Y86.7065
G01 X8.9135 Y86.7718
G01 X8.9450 Y86.7969
G01 X8.9638 Y86.8130
G01 X9.0762 Y86.9148
G01 X9.1060 Y86.9439
G01 X9.1316 Y86.9711
G01 X9.2239 Y87.0731
G01 X9.2516 Y87.1061
G01 X9.2679 Y87.1271
G01 X9.3461 Y87.2325
G01 X9.3670 Y87.2618
G01 X9.3903 Y87.2975
G01 X9.4359 Y87.3733
G01 X9.5169 Y87.3351
G01 X9.5370 Y87.3263
G01 X9.5587 Y87.3173
G01 X9.5909 Y87.3051
G01 X9.6928 Y87.2687
G01 X9.7172 Y87.2606
G01 X9.7442 Y87.2525
G01 X9.7724 Y87.2450
G01 X9.8766 Y87.2189
G01 X9.8998 Y87.2137
G01 X9.9274 Y87.2082
G01 X9.9589 Y87.2030
G01 X10.0688 Y87.1868
G01 X10.1086 Y87.1823
G01 X10.1335 Y87.1803
G01 X10.2557 Y87.1743
G01 X10.2790 Y87.1736
G01 X10.3023 Y87.1736
G01 X10.3397 Y87.1747
G01 X10.4475 Y87.1800
G01 X10.4724 Y87.1818
G01 X10.5004 Y87.1847
G01 X10.5303 Y87.1886
G01 X10.6363 Y87.2044
G01 X10.6635 Y87.2091
G01 X10.6864 Y87.2137
G01 X10.7187 Y87.2212
G01 X10.8261 Y87.2482
G01 X10.8462 Y87.2537
G01 X10.8690 Y87.2606
G01 X10.9066 Y87.2733
G01 X10.9193 Y87.2494
G01 X10.9306 Y87.2292
G01 X10.9679 Y87.1669
G01 X10.9836 Y87.1422
G01 X10.9965 Y87.1231
G01 X11.0095 Y87.1047
G01 X11.0520 Y87.0476
G01 X11.0771 Y87.0161
G01 X11.1031 Y86.9862
G01 X11.1423 Y86.9430
G01 X11.1617 Y86.9226
G01 X11.1915 Y86.8935
G01 X11.2455 Y86.8444
G01 X11.2682 Y86.8250
G01 X11.2860 Y86.8105
G01 X11.3033 Y86.7971
G01 X11.3607 Y86.7546
G01 X11.3944 Y86.7315
G01 X11.4271 Y86.7109
G01 X11.4771 Y86.6810
G01 X11.5015 Y86.6672
G01 X11.5221 Y86.6562
G01 X11.5430 Y86.6457
G01 X11.6036 Y86.6171
G01 X11.6279 Y86.6063
G01 X11.6497 Y86.5973
G01 X11.6727 Y86.5884
G01 X11.7281 Y86.5685
G01 X11.7620 Y86.5571
G01 X11.7848 Y86.5502
G01 X11.8092 Y86.5436
G01 X11.8739 Y86.5274
G01 X11.9020 Y86.5211
G01 X11.9247 Y86.5166
G01 X11.9472 Y86.5128
G01 X12.0047 Y86.5042
G01 X12.0346 Y86.5003
G01 X12.0627 Y86.4974
G01 X12.0876 Y86.4956
G01 X12.1465 Y86.4927
G01 X12.1789 Y86.4916
G01 X12.2022 Y86.4916
G01 X12.2255 Y86.4921
G01 X12.3037 Y86.4959
G01 X12.3286 Y86.4979
G01 X12.3684 Y86.5024
G01 X12.4435 Y86.5135
G01 X12.4660 Y86.5175
G01 X12.4890 Y86.5221
G01 X12.5121 Y86.5274
G01 X12.5626 Y86.5399
G01 X12.5728 Y86.5239
G01 X12.5866 Y86.5035
G01 X12.5996 Y86.4852
G01 X12.6256 Y86.4499
G01 X12.6479 Y86.4209
G01 X12.6609 Y86.4050
G01 X12.6762 Y86.3871
G01 X12.7124 Y86.3469
G01 X12.7293 Y86.3289
G01 X12.8539 Y86.2036
G00 Z0.5000
G00 X72.8010 Y120.5340
G01 F250.00
G01 Z-0.0400
G01 F1250.00
G01 X72.8010 Y120.6995
G01 X73.6930 Y120.6995
G01 X73.6930 Y120.5340
G01 X72.8010 Y120.5340
G01 X74.2030 Y121.2647
G01 X74.2030 Y119.9688
G01 X74.1590 Y119.9797
G01 X74.1358 Y119.9848
G01 X74.1131 Y119.9893
G01 X74.0816 Y119.9945
G01 X73.9846 Y120.0089
G01 X73.9547 Y120.0128
G01 X73.9267 Y120.0156
G01 X73.8919 Y120.0180
G01 X73.7857 Y120.0232
G01 X73.7474 Y120.0240
G01 X72.7466 Y120.0240
G01 X72.7083 Y120.0232
G01 X72.5870 Y120.0171
G01 X72.5621 Y120.0152
G01 X72.5224 Y120.0107
G01 X72.4124 Y119.9945
G01 X72.3810 Y119.9893
G01 X72.3582 Y119.9848
G01 X72.3350 Y119.9797
G01 X72.2910 Y119.9688
G01 X72.2910 Y121.2647
G01 X72.3350 Y121.2538
G01 X72.3582 Y121.2487
G01 X72.3810 Y121.2442
G01 X72.4124 Y121.2390
G01 X72.5224 Y121.2228
G01 X72.5621 Y121.2183
G01 X72.5870 Y121.2163
G01 X72.7083 Y121.2103
G01 X72.7466 Y121.2095
G01 X73.7474 Y121.2095
G01 X73.7857 Y121.2103
G01 X73.8919 Y121.2155
G01 X73.9267 Y121.2178
G01 X73.9547 Y121.2207
G01 X73.9846 Y121.2246
G01 X74.0816 Y121.2390
G01 X74.1131 Y121.2442
G01 X74.1358 Y121.2487
G01 X74.1590 Y121.2538
G01 X74.2030 Y121.2647
G00 Z0.5000
G00 X74.0509 Y135.4160
G01 F250.00
G01 Z-0.0400
G01 F1250.00
G01 X74.0757 Y135.4446
G01 X74.0902 Y135.4624
G01 X74.1067 Y135.4839
G01 X74.1319 Y135.4679
G01 X74.2182 Y135.4160
G01 X74.1319 Y135.3642
G01 X74.1067 Y135.3482
G01 X74.0902 Y135.3697
G01 X74.0757 Y135.3875
G01 X74.0509 Y135.4160
G00 Z0.5000
G00 X76.5394 Y135.3471
G01 F250.00
G01 Z-0.0400
G01 F1250.00
G01 X76.5125 Y135.3642
G01 X76.4262 Y135.4160
G01 X76.5125 Y135.4679
G01 X76.5394 Y135.4850
G01 X76.5567 Y135.4624
G01 X76.5713 Y135.4446
G01 X76.5960 Y135.4160
G01 X76.5713 Y135.3875
G01 X76.5567 Y135.3697
G01 X76.5394 Y135.3471
G00 Z0.5000
G00 X73.4311 Y138.4347
G01 F250.00
G01 Z-0.0400
G01 F1250.00
G01 X73.3543 Y138.4710
G01 X73.3343 Y138.4800
G01 X73.3138 Y138.4886
G01 X74.1790 Y139.3538
G01 X74.4971 Y139.3538
G01 X74.4703 Y139.3428
G01 X74.4461 Y139.3321
G01 X74.3273 Y139.2760
G01 X74.2980 Y139.2615
G01 X74.2774 Y139.2505
G01 X74.2531 Y139.2367
G01 X74.1400 Y139.1690
G01 X74.1072 Y139.1484
G01 X74.0881 Y139.1355
G01 X74.0626 Y139.1173
G01 X73.9535 Y139.0363
G01 X73.9220 Y139.0111
G01 X73.9032 Y138.9951
G01 X73.7944 Y138.8966
G01 X73.7775 Y138.8805
G01 X73.7610 Y138.8641
G01 X73.7354 Y138.8369
G01 X73.6530 Y138.7461
G01 X73.6304 Y138.7201
G01 X73.6154 Y138.7019
G01 X73.5991 Y138.6810
G01 X73.5209 Y138.5756
G01 X73.5026 Y138.5501
G01 X73.4897 Y138.5309
G01 X73.4767 Y138.5106
G01 X73.4311 Y138.4347
G00 Z0.5000
G00 X98.8825 Y101.1191
G01 F250.00
G01 Z-0.0400
G01 F1250.00
G01 X98.8825 Y119.1390
G01 X98.1575 Y119.1390
G01 X98.1575 Y101.1191
G01 X98.8825 Y101.1191
G01 X99.3925 Y100.6091
G01 X99.3925 Y119.6490
G01 X97.6475 Y119.6490
G01 X97.6475 Y100.6091
G01 X99.3925 Y100.6091
G01 X99.9025 Y100.0991
G01 X99.9025 Y120.1590
G01 X97.1375 Y120.1590
G01 X97.1375 Y100.0991
G01 X99.9025 Y100.0991
G01 X100.4125 Y99.5891
G01 X100.4125 Y120.6690
G01 X96.6275 Y120.6690
G01 X96.6275 Y99.5891
G01 X100.4125 Y99.5891
G01 X100.9225 Y99.0791
G01 X100.9225 Y121.1790
G01 X96.1175 Y121.1790
G01 X96.1175 Y99.0791
G01 X100.9225 Y99.0791
G01 X101.4325 Y98.5691
G01 X101.4325 Y121.6890
G01 X95.6075 Y121.6890
G01 X95.6075 Y98.5691
G01 X101.4325 Y98.5691
G01 X101.9425 Y98.0591
G01 X101.9425 Y122.1990
G01 X95.0975 Y122.1990
G01 X95.0975 Y98.0591
G01 X101.9425 Y98.0591
G01 X102.4525 Y97.5491
G01 X102.4525 Y122.7090
G01 X94.5875 Y122.7090
G01 X94.5875 Y97.5491
G01 X102.4525 Y97.5491
G01 X102.9625 Y97.0391
G01 X102.9625 Y123.2190
G01 X94.0775 Y123.2190
G01 X94.0775 Y97.0391
G01 X102.9625 Y97.0391
G01 X103.4725 Y96.5291
G01 X103.4725 Y123.7290
G01 X93.5675 Y123.7290
G01 X93.5675 Y96.5291
G01 X103.4725 Y96.5291
G01 X103.9825 Y96.0191
G01 X103.9825 Y124.2390
G01 X93.0575 Y124.2390
G01 X93.0575 Y96.0191
G01 X103.9825 Y96.0191
G01 X104.5412 Y95.6274
G01 X104.5308 Y95.6604
G01 X104.5210 Y95.6959
G01 X104.5129 Y95.7318
G01 X104.5091 Y95.7510
G01 X104.5028 Y95.7873
G01 X104.4983 Y95.8239
G01 X104.4964 Y95.8433
G01 X104.4936 Y95.8801
G01 X104.4925 Y95.9267
G01 X104.4925 Y124.7490
G01 X92.5475 Y124.7490
G01 X92.5475 Y95.5091
G01 X104.0750 Y95.5091
G01 X104.1216 Y95.5080
G01 X104.1583 Y95.5053
G01 X104.1778 Y95.5034
G01 X104.2143 Y95.4989
G01 X104.2506 Y95.4926
G01 X104.2698 Y95.4887
G01 X104.3058 Y95.4807
G01 X104.3413 Y95.4708
G01 X104.3742 Y95.4604
G01 X104.5412 Y95.6274
G00 Z0.5000
G00 X104.6345 Y89.5203
G01 F250.00
G01 Z-0.0400
G01 F1250.00
G01 X104.6345 Y90.5158
G01 X111.1718 Y97.0531
G01 X111.2314 Y96.9875
G01 X111.2602 Y96.9569
G01 X111.2963 Y96.9203
G01 X111.3289 Y96.8889
G01 X111.3576 Y96.8623
G01 X111.4538 Y96.7755
G01 X111.4926 Y96.7423
G01 X111.5368 Y96.7066
G01 X111.5368 Y96.4226
G01 X104.6345 Y89.5203
G00 Z0.5000
G00 X112.1487 Y103.0320
G01 F250.00
G01 Z-0.0400
G01 F1250.00
G01 X112.1152 Y103.0031
G01 X112.0426 Y102.9373
G01 X112.0154 Y102.9116
G01 X111.9990 Y102.8951
G01 X111.9829 Y102.8782
G01 X111.9043 Y102.7915
G01 X111.8882 Y102.7728
G01 X111.8732 Y102.7546
G01 X111.8518 Y102.7268
G01 X111.7853 Y102.6370
G01 X111.7724 Y102.6186
G01 X111.7537 Y102.5901
G01 X111.7277 Y102.5830
G01 X111.7050 Y102.5761
G01 X111.6806 Y102.5680
G01 X111.6266 Y102.5487
G01 X111.6036 Y102.5399
G01 X111.5818 Y102.5309
G01 X111.5618 Y102.5220
G01 X111.5340 Y102.5090
G01 X111.5340 Y103.0320
G01 X112.1487 Y103.0320
G00 Z0.5000
G00 X90.1980 Y77.7628
G01 F250.00
G01 Z-0.0400
G01 F1250.00
G01 X90.1980 Y74.7586
G01 X91.3153 Y74.7586
G01 X112.5568 Y96.0001
G01 X112.5568 Y97.2664
G01 X112.4970 Y97.2948
G01 X112.4598 Y97.3141
G01 X112.4276 Y97.3325
G01 X112.3310 Y97.3906
G01 X112.2954 Y97.4138
G01 X112.2732 Y97.4295
G01 X112.1803 Y97.4983
G01 X112.1594 Y97.5146
G01 X112.1412 Y97.5296
G01 X112.1152 Y97.5522
G01 X112.0322 Y97.6276
G01 X112.0024 Y97.6568
G01 X111.9767 Y97.6839
G01 X111.9108 Y97.7566
G01 X111.8849 Y97.7865
G01 X111.8704 Y97.8044
G01 X111.8570 Y97.8217
G01 X111.7881 Y97.9146
G01 X111.7724 Y97.9367
G01 X111.7492 Y97.9724
G01 X111.6912 Y98.0690
G01 X111.6727 Y98.1012
G01 X111.6618 Y98.1218
G01 X111.6513 Y98.1428
G01 X111.6017 Y98.2476
G01 X111.5909 Y98.2719
G01 X111.5748 Y98.3118
G01 X111.5315 Y98.4328
G01 X111.5236 Y98.4572
G01 X111.5171 Y98.4791
G01 X111.5117 Y98.4993
G01 X111.4858 Y98.6024
G01 X111.4773 Y98.6396
G01 X111.4728 Y98.6623
G01 X111.4690 Y98.6848
G01 X111.4550 Y98.7788
G01 X103.6145 Y90.9383
G01 X103.6145 Y89.1995
G01 X103.6137 Y89.1649
G01 X103.6109 Y89.1095
G01 X103.6091 Y89.0846
G01 X103.6063 Y89.0566
G01 X103.6036 Y89.0351
G01 X103.5969 Y88.9897
G01 X103.5908 Y88.9535
G01 X103.5821 Y88.9123
G01 X103.5665 Y88.8498
G01 X103.5556 Y88.8120
G01 X103.5459 Y88.7825
G01 X103.5248 Y88.7237
G01 X103.5159 Y88.7007
G01 X103.5070 Y88.6795
G01 X103.4980 Y88.6595
G01 X103.4784 Y88.6178
G01 X103.4616 Y88.5842
G01 X103.4416 Y88.5478
G01 X103.4076 Y88.4912
G01 X103.3946 Y88.4708
G01 X103.3817 Y88.4517
G01 X103.3687 Y88.4333
G01 X103.3412 Y88.3961
G01 X103.3197 Y88.3683
G01 X103.3048 Y88.3501
G01 X103.2886 Y88.3314
G01 X103.2503 Y88.2891
G01 X103.2249 Y88.2627
G01 X93.9306 Y78.9684
G01 X93.8998 Y78.9393
G01 X93.8648 Y78.9076
G01 X93.8462 Y78.8915
G01 X93.8279 Y78.8765
G01 X93.8107 Y78.8630
G01 X93.7591 Y78.8248
G01 X93.7254 Y78.8016
G01 X93.6926 Y78.7810
G01 X93.6527 Y78.7571
G01 X93.6325 Y78.7457
G01 X93.6121 Y78.7347
G01 X93.5912 Y78.7241
G01 X93.5326 Y78.6963
G01 X93.4955 Y78.6804
G01 X93.4585 Y78.6663
G01 X93.4138 Y78.6503
G01 X93.3894 Y78.6422
G01 X93.3666 Y78.6354
G01 X93.3465 Y78.6298
G01 X93.2840 Y78.6142
G01 X93.2608 Y78.6090
G01 X93.2380 Y78.6046
G01 X93.1892 Y78.5968
G01 X93.1843 Y78.5614
G01 X93.1780 Y78.5253
G01 X93.1699 Y78.4895
G01 X93.1651 Y78.4706
G01 X93.1553 Y78.4352
G01 X93.1437 Y78.4003
G01 X93.1371 Y78.3820
G01 X93.1239 Y78.3478
G01 X93.1090 Y78.3142
G01 X93.1006 Y78.2966
G01 X93.0841 Y78.2638
G01 X93.0660 Y78.2319
G01 X93.0559 Y78.2152
G01 X93.0363 Y78.1842
G01 X93.0151 Y78.1542
G01 X93.0035 Y78.1385
G01 X92.9809 Y78.1096
G01 X92.9569 Y78.0818
G01 X92.9438 Y78.0674
G01 X92.9185 Y78.0408
G01 X92.8919 Y78.0154
G01 X92.8775 Y78.0024
G01 X92.8497 Y77.9784
G01 X92.8208 Y77.9558
G01 X92.8051 Y77.9442
G01 X92.7751 Y77.9230
G01 X92.7441 Y77.9033
G01 X92.7274 Y77.8933
G01 X92.6955 Y77.8752
G01 X92.6627 Y77.8587
G01 X92.6451 Y77.8503
G01 X92.6115 Y77.8354
G01 X92.5773 Y77.8222
G01 X92.5589 Y77.8156
G01 X92.5241 Y77.8040
G01 X92.4887 Y77.7942
G01 X92.4698 Y77.7894
G01 X92.4340 Y77.7813
G01 X92.3979 Y77.7750
G01 X92.3786 Y77.7721
G01 X92.3422 Y77.7675
G01 X92.3142 Y77.7652
G01 X92.2863 Y77.7636
G01 X92.2621 Y77.7629
G01 X90.1980 Y77.7628
G01 X90.7080 Y77.2528
G01 X90.7080 Y75.2686
G01 X91.1040 Y75.2686
G01 X112.0468 Y96.2114
G01 X112.0468 Y96.9669
G01 X112.0063 Y96.9936
G01 X111.9646 Y97.0233
G01 X111.8681 Y97.0950
G01 X111.8416 Y97.1157
G01 X111.8176 Y97.1353
G01 X111.7752 Y97.1721
G01 X111.6851 Y97.2540
G01 X111.6627 Y97.2753
G01 X111.6417 Y97.2961
G01 X111.6126 Y97.3265
G01 X111.5242 Y97.4239
G01 X111.4899 Y97.4639
G01 X111.4715 Y97.4866
G01 X111.4536 Y97.5095
G01 X111.3819 Y97.6060
G01 X111.3523 Y97.6477
G01 X111.3351 Y97.6734
G01 X111.3186 Y97.6991
G01 X111.2537 Y97.8068
G01 X111.2355 Y97.8381
G01 X104.1245 Y90.7270
G01 X104.1243 Y89.1799
G01 X104.1232 Y89.1436
G01 X104.1207 Y89.0910
G01 X104.1192 Y89.0659
G01 X104.1161 Y89.0281
G01 X104.1131 Y88.9990
G01 X104.1085 Y88.9632
G01 X104.0990 Y88.8999
G01 X104.0922 Y88.8605
G01 X104.0852 Y88.8253
G01 X104.0783 Y88.7946
G01 X104.0598 Y88.7204
G01 X104.0524 Y88.6937
G01 X104.0442 Y88.6658
G01 X104.0273 Y88.6139
G01 X104.0028 Y88.5457
G01 X103.9909 Y88.5151
G01 X103.9771 Y88.4818
G01 X103.9615 Y88.4468
G01 X103.9394 Y88.3998
G01 X103.9277 Y88.3757
G01 X103.9113 Y88.3437
G01 X103.8973 Y88.3177
G01 X103.8822 Y88.2909
G01 X103.8417 Y88.2234
G01 X103.8245 Y88.1964
G01 X103.8081 Y88.1716
G01 X103.7882 Y88.1431
G01 X103.7731 Y88.1224
G01 X103.7439 Y88.0831
G01 X103.7251 Y88.0587
G01 X103.6914 Y88.0175
G01 X103.6687 Y87.9914
G01 X103.6290 Y87.9475
G01 X103.6079 Y87.9250
G01 X103.5861 Y87.9027
G01 X94.2824 Y78.5991
G01 X94.2504 Y78.5687
G01 X94.2024 Y78.5253
G01 X94.1737 Y78.5005
G01 X94.1422 Y78.4748
G01 X94.1063 Y78.4472
G01 X94.0531 Y78.4081
G01 X94.0298 Y78.3917
G01 X94.0093 Y78.3779
G01 X93.9728 Y78.3546
G01 X93.9201 Y78.3228
G01 X93.8840 Y78.3020
G01 X93.8470 Y78.2820
G01 X93.8076 Y78.2622
G01 X93.7494 Y78.2347
G01 X93.7087 Y78.2167
G01 X93.6811 Y78.2053
G01 X93.6568 Y78.1958
G01 X93.6046 Y78.1769
G01 X93.5899 Y78.1406
G01 X93.5698 Y78.0957
G01 X93.5560 Y78.0669
G01 X93.5394 Y78.0341
G01 X93.5277 Y78.0121
G01 X93.5032 Y77.9694
G01 X93.4867 Y77.9421
G01 X93.4670 Y77.9111
G01 X93.4531 Y77.8903
G01 X93.4320 Y77.8603
G01 X93.4130 Y77.8346
G01 X93.3829 Y77.7957
G01 X93.3670 Y77.7764
G01 X93.3430 Y77.7486
G01 X93.3132 Y77.7157
G01 X93.2879 Y77.6891
G01 X93.2702 Y77.6714
G01 X93.2436 Y77.6461
G01 X93.2200 Y77.6245
G01 X93.1829 Y77.5923
G01 X93.1636 Y77.5764
G01 X93.1347 Y77.5538
G01 X93.0990 Y77.5273
G01 X93.0690 Y77.5062
G01 X93.0482 Y77.4923
G01 X93.0066 Y77.4661
G01 X92.9791 Y77.4498
G01 X92.9471 Y77.4316
G01 X92.9251 Y77.4198
G01 X92.8924 Y77.4033
G01 X92.8635 Y77.3895
G01 X92.8186 Y77.3694
G01 X92.7956 Y77.3598
G01 X92.7613 Y77.3465
G01 X92.7195 Y77.3315
G01 X92.6847 Y77.3200
G01 X92.6608 Y77.3127
G01 X92.6254 Y77.3028
G01 X92.5944 Y77.2949
G01 X92.5465 Y77.2839
G01 X92.5220 Y77.2790
G01 X92.4858 Y77.2726
G01 X92.4419 Y77.2660
G01 X92.3868 Y77.2595
G01 X92.3526 Y77.2567
G01 X92.3058 Y77.2540
G01 X92.2603 Y77.2529
G01 X90.7080 Y77.2528
G01 X91.2180 Y76.1038
G01 X91.8570 Y76.7428
G01 X91.2180 Y76.7428
G01 X91.2180 Y76.1038
G00 Z0.5000
G00 X104.6830 Y55.9150
G01 F250.00
G01 Z-0.0400
G01 F1250.00
G01 X92.7380 Y55.9150
G01 X92.7380 Y26.6751
G01 X104.6830 Y26.6751
G01 X104.6830 Y55.9150
G01 X104.1730 Y55.4050
G01 X93.2480 Y55.4050
G01 X93.2480 Y27.1851
G01 X104.1730 Y27.1851
G01 X104.1730 Y55.4050
G01 X103.6630 Y54.8950
G01 X93.7580 Y54.8950
G01 X93.7580 Y27.6951
G01 X103.6630 Y27.6951
G01 X103.6630 Y54.8950
G01 X103.1530 Y54.3850
G01 X94.2680 Y54.3850
G01 X94.2680 Y28.2051
G01 X103.1530 Y28.2051
G01 X103.1530 Y54.3850
G01 X102.6430 Y53.8750
G01 X94.7780 Y53.8750
G01 X94.7780 Y28.7151
G01 X102.6430 Y28.7151
G01 X102.6430 Y53.8750
G01 X102.1330 Y53.3650
G01 X95.2880 Y53.3650
G01 X95.2880 Y29.2251
G01 X102.1330 Y29.2251
G01 X102.1330 Y53.3650
G01 X101.6230 Y52.8550
G01 X95.7980 Y52.8550
G01 X95.7980 Y29.7351
G01 X101.6230 Y29.7351
G01 X101.6230 Y52.8550
G01 X101.1130 Y52.3450
G01 X96.3080 Y52.3450
G01 X96.3080 Y30.2451
G01 X101.1130 Y30.2451
G01 X101.1130 Y52.3450
G01 X100.6030 Y51.8350
G01 X96.8180 Y51.8350
G01 X96.8180 Y30.7551
G01 X100.6030 Y30.7551
G01 X100.6030 Y51.8350
G01 X100.0930 Y51.3250
G01 X97.3280 Y51.3250
G01 X97.3280 Y31.2651
G01 X100.0930 Y31.2651
G01 X100.0930 Y51.3250
G01 X99.5830 Y50.8150
G01 X97.8380 Y50.8150
G01 X97.8380 Y31.7751
G01 X99.5830 Y31.7751
G01 X99.5830 Y50.8150
G01 X99.0730 Y50.3050
G01 X98.3480 Y50.3050
G01 X98.3480 Y32.2851
G01 X99.0730 Y32.2851
G01 X99.0730 Y50.3050
G00 Z0.5000
G00 X74.1319 Y30.9509
G01 F250.00
G01 Z-0.0400
G01 F1250.00
G01 X74.1131 Y30.9472
G01 X74.0816 Y30.9420
G01 X73.9846 Y30.9276
G01 X73.9502 Y30.9231
G01 X73.9267 Y30.9208
G01 X73.9018 Y30.9190
G01 X73.7721 Y30.9128
G01 X73.7474 Y30.9125
G01 X72.7311 Y30.9126
G01 X72.7001 Y30.9137
G01 X72.5870 Y30.9193
G01 X72.5438 Y30.9231
G01 X72.5094 Y30.9276
G01 X72.4035 Y30.9434
G01 X72.3810 Y30.9472
G01 X72.3582 Y30.9517
G01 X72.3210 Y30.9602
G01 X72.2199 Y30.9855
G01 X72.2199 Y29.6565
G01 X72.3210 Y29.6819
G01 X72.3582 Y29.6904
G01 X72.3810 Y29.6948
G01 X72.4035 Y29.6986
G01 X72.5094 Y29.7144
G01 X72.5438 Y29.7189
G01 X72.5870 Y29.7227
G01 X72.7001 Y29.7284
G01 X72.7311 Y29.7294
G01 X73.7474 Y29.7295
G01 X73.7721 Y29.7292
G01 X73.9018 Y29.7230
G01 X73.9267 Y29.7212
G01 X73.9502 Y29.7189
G01 X73.9846 Y29.7144
G01 X74.0816 Y29.7000
G01 X74.1131 Y29.6948
G01 X74.1319 Y29.6911
G01 X74.1319 Y30.9509
G01 X72.7299 Y30.2394
G01 X73.6219 Y30.2395
G01 X73.6219 Y30.4025
G01 X72.7466 Y30.4025
G01 X72.7299 Y30.4026
G01 X72.7299 Y30.2394
G00 Z0.5000
G00 X74.0509 Y15.4137
G01 F250.00
G01 Z-0.0400
G01 F1250.00
G01 X74.0757 Y15.4423
G01 X74.0902 Y15.4601
G01 X74.1067 Y15.4816
G01 X74.1319 Y15.4656
G01 X74.2182 Y15.4137
G01 X74.1319 Y15.3619
G01 X74.1067 Y15.3459
G01 X74.0902 Y15.3674
G01 X74.0757 Y15.3852
G01 X74.0509 Y15.4137
G00 Z0.5000
G00 X76.4262 Y15.4137
G01 F250.00
G01 Z-0.0400
G01 F1250.00
G01 X76.5125 Y15.4656
G01 X76.5394 Y15.4827
G01 X76.5567 Y15.4601
G01 X76.5713 Y15.4423
G01 X76.5960 Y15.4137
G01 X76.5713 Y15.3852
G01 X76.5567 Y15.3674
G01 X76.5394 Y15.3448
G01 X76.5125 Y15.3619
G01 X76.4262 Y15.4137
G00 Z0.5000
M05
G00 Z0.5000
G00 Z2.00
G00 X0.0 Y0.0

