(G-CODE GENERATED BY FLATCAM v8.991 - www.flatcam.org - Version Date: 2019/12/30)

(Name: Cncjob_Top_Copper_pyramidal)
(Type: G-code from Geometry)
(Units: MM)

(Created on Friday, 10 March 2023 at 15:48)

(TOOL DIAMETER: 0.199 mm)
(Feedrate: 2500.0 mm/min)
(Feedrate_Z: 250.0 mm/min)
(Feedrate rapids 1500.0 mm/min)

(Z_Cut: -0.04 mm)
(Z_Move: 0.5 mm)
(Z Toolchange: 15.0 mm)
(X,Y Toolchange: 0.0000, 0.0000 mm)
(Z Start: 0.5 mm)
(Z End: 2.0 mm)
(Steps per circle: 64)
(Preprocessor Geometry: default)

(X range:    2.2264 ...  116.3276  mm)
(Y range:    8.4266 ...  149.2687  mm)

(Spindle Speed: None RPM)
G21
G90
G94




G01 F2500.00
G00 Z0.5000
G00 Z0.5000
M03
G4 P1.0
G00 X4.1325 Y58.2157
G01 F250.00
G01 Z-0.0400
G01 F2500.00
G01 X4.1212 Y58.2263
G01 X4.1142 Y58.2323
G01 X4.1103 Y58.2354
G01 X4.1077 Y58.2374
G01 X4.1058 Y58.2388
G01 X4.0888 Y58.2503
G01 X4.0733 Y58.2590
G01 X4.0560 Y58.2670
G01 X4.0372 Y58.2739
G01 X4.0199 Y58.2787
G01 X4.0010 Y58.2824
G01 X3.9815 Y58.2845
G01 X3.9668 Y58.2850
G01 X3.6924 Y58.2850
G01 X3.6876 Y58.3006
G01 X3.6815 Y58.3164
G01 X3.6738 Y58.3327
G01 X3.6658 Y58.3469
G01 X3.6558 Y58.3619
G01 X3.6464 Y58.3740
G01 X3.6335 Y58.3883
G01 X3.6219 Y58.3994
G01 X3.6219 Y59.2737
G01 X3.6499 Y59.1953
G01 X3.6544 Y59.1838
G01 X3.7003 Y59.0864
G01 X3.7062 Y59.0748
G01 X3.7615 Y58.9820
G01 X3.7676 Y58.9725
G01 X3.7743 Y58.9628
G01 X3.8394 Y58.8755
G01 X3.8474 Y58.8662
G01 X3.9211 Y58.7854
G01 X3.9296 Y58.7773
G01 X4.0101 Y58.7046
G01 X4.0200 Y58.6968
G01 X4.1070 Y58.6326
G01 X4.1176 Y58.6258
G01 X4.1881 Y58.5835
G01 X4.1881 Y58.3760
G01 X4.1812 Y58.3674
G01 X4.1742 Y58.3577
G01 X4.1635 Y58.3409
G01 X4.1538 Y58.3219
G01 X4.1501 Y58.3134
G01 X4.1456 Y58.3015
G01 X4.1424 Y58.2918
G01 X4.1391 Y58.2796
G01 X4.1353 Y58.2603
G01 X4.1330 Y58.2395
G01 X4.1325 Y58.2157
G01 X3.8248 Y58.4880
G01 X3.8248 Y58.5982
G01 X3.8682 Y58.5589
G01 X3.8842 Y58.5453
G01 X3.8978 Y58.5347
G01 X3.9608 Y58.4880
G01 X3.8248 Y58.4880
G01 X3.7572 Y58.4521
G01 X3.7572 Y58.7643
G01 X3.8138 Y58.7018
G01 X3.8269 Y58.6882
G01 X3.8385 Y58.6772
G01 X3.9176 Y58.6056
G01 X3.9368 Y58.5901
G01 X4.0199 Y58.5284
G01 X4.0352 Y58.5178
G01 X4.0528 Y58.5068
G01 X4.0528 Y58.4194
G01 X4.0478 Y58.4111
G01 X4.0318 Y58.4144
G01 X4.0156 Y58.4170
G01 X3.9993 Y58.4188
G01 X3.9798 Y58.4201
G01 X3.9660 Y58.4203
G01 X3.7794 Y58.4203
G01 X3.7696 Y58.4352
G01 X3.7572 Y58.4521
G01 X3.6895 Y58.4275
G01 X3.6895 Y58.9706
G01 X3.7064 Y58.9425
G01 X3.7158 Y58.9283
G01 X3.7843 Y58.8360
G01 X3.7973 Y58.8208
G01 X3.8635 Y58.7477
G01 X3.8745 Y58.7363
G01 X3.8840 Y58.7273
G01 X3.9573 Y58.6608
G01 X3.9742 Y58.6466
G01 X4.0658 Y58.5788
G01 X4.0812 Y58.5687
G01 X4.1205 Y58.5452
G01 X4.1205 Y58.3990
G01 X4.1092 Y58.3819
G01 X4.1001 Y58.3659
G01 X4.0919 Y58.3494
G01 X4.0835 Y58.3289
G01 X4.0631 Y58.3366
G01 X4.0512 Y58.3404
G01 X4.0374 Y58.3441
G01 X4.0239 Y58.3470
G01 X4.0106 Y58.3493
G01 X3.9993 Y58.3508
G01 X3.9853 Y58.3520
G01 X3.9808 Y58.3523
G01 X3.9791 Y58.3524
G01 X3.9775 Y58.3524
G01 X3.9771 Y58.3524
G01 X3.9660 Y58.3527
G01 X3.7394 Y58.3527
G01 X3.7331 Y58.3654
G01 X3.7281 Y58.3744
G01 X3.7170 Y58.3923
G01 X3.7051 Y58.4089
G01 X3.6984 Y58.4173
G01 X3.6895 Y58.4275
G00 Z0.5000
G00 X3.7172 Y59.8772
G01 F250.00
G01 Z-0.0400
G01 F2500.00
G01 X3.7153 Y59.8676
G01 X3.7009 Y59.7703
G01 X3.6999 Y59.7609
G01 X3.6950 Y59.6580
G01 X3.6999 Y59.5552
G01 X3.7009 Y59.5457
G01 X3.7161 Y59.4437
G01 X3.7422 Y59.3395
G01 X3.7788 Y59.2372
G01 X3.8237 Y59.1421
G01 X3.8272 Y59.1357
G01 X3.8803 Y59.0473
G01 X3.9415 Y58.9647
G01 X3.9477 Y58.9571
G01 X4.0135 Y58.8844
G01 X4.0186 Y58.8792
G01 X4.0970 Y58.8083
G01 X4.1813 Y58.7457
G01 X4.1876 Y58.7416
G01 X4.2738 Y58.6900
G01 X4.3235 Y58.6662
G01 X4.3235 Y58.3135
G01 X4.3120 Y58.3069
G01 X4.3041 Y58.3011
G01 X4.2942 Y58.2917
G01 X4.2904 Y58.2873
G01 X4.2846 Y58.2795
G01 X4.2815 Y58.2746
G01 X4.2774 Y58.2669
G01 X4.2721 Y58.2532
G01 X4.2689 Y58.2388
G01 X4.2678 Y58.2267
G01 X4.2678 Y57.4803
G01 X4.2651 Y57.4368
G01 X4.2664 Y57.3946
G01 X4.2678 Y57.3819
G01 X4.2678 Y56.7738
G01 X4.2683 Y56.7639
G01 X4.2697 Y56.7543
G01 X4.2735 Y56.7405
G01 X4.2774 Y56.7311
G01 X4.2815 Y56.7234
G01 X4.2846 Y56.7185
G01 X4.2904 Y56.7107
G01 X4.2994 Y56.7011
G01 X4.3041 Y56.6969
G01 X4.3120 Y56.6911
G01 X4.3242 Y56.6841
G01 X4.3347 Y56.6798
G01 X4.3477 Y56.6763
G01 X4.3622 Y56.6745
G01 X5.2664 Y56.6743
G01 X5.2764 Y56.6748
G01 X5.2860 Y56.6763
G01 X5.2991 Y56.6799
G01 X5.3097 Y56.6842
G01 X5.3218 Y56.6911
G01 X5.3296 Y56.6969
G01 X5.3395 Y56.7063
G01 X5.3433 Y56.7107
G01 X5.3491 Y56.7185
G01 X5.3522 Y56.7234
G01 X5.3563 Y56.7311
G01 X5.3616 Y56.7448
G01 X5.3649 Y56.7593
G01 X5.3659 Y56.7703
G01 X5.3659 Y58.2259
G01 X5.3654 Y58.2341
G01 X5.3640 Y58.2437
G01 X5.3602 Y58.2575
G01 X5.3563 Y58.2669
G01 X5.3522 Y58.2746
G01 X5.3491 Y58.2795
G01 X5.3433 Y58.2873
G01 X5.3368 Y58.2945
G01 X5.3296 Y58.3011
G01 X5.3248 Y58.3048
G01 X5.3172 Y58.3098
G01 X5.3095 Y58.3139
G01 X5.2990 Y58.3182
G01 X5.2916 Y58.3204
G01 X5.2849 Y58.3219
G01 X5.2849 Y58.6758
G01 X5.3142 Y58.6900
G01 X5.4026 Y58.7429
G01 X5.4893 Y58.8069
G01 X5.4949 Y58.8117
G01 X5.5711 Y58.8809
G01 X5.6421 Y58.9591
G01 X5.7077 Y59.0473
G01 X5.7632 Y59.1399
G01 X5.8092 Y59.2372
G01 X5.8450 Y59.3369
G01 X5.8719 Y59.4437
G01 X5.8877 Y59.5499
G01 X5.8930 Y59.6580
G01 X5.8877 Y59.7653
G01 X5.8719 Y59.8723
G01 X5.8458 Y59.9765
G01 X5.8092 Y60.0788
G01 X5.7643 Y60.1739
G01 X5.7104 Y60.2644
G01 X5.7050 Y60.2726
G01 X5.6437 Y60.3550
G01 X5.5711 Y60.4351
G01 X5.4949 Y60.5043
G01 X5.4873 Y60.5105
G01 X5.4045 Y60.5718
G01 X5.3121 Y60.6272
G01 X5.2148 Y60.6732
G01 X5.1177 Y60.7081
G01 X5.1083 Y60.7110
G01 X5.0083 Y60.7359
G01 X4.9021 Y60.7517
G01 X4.7989 Y60.7569
G01 X4.7891 Y60.7569
G01 X4.6912 Y60.7521
G01 X4.6814 Y60.7511
G01 X4.5797 Y60.7359
G01 X4.4797 Y60.7110
G01 X4.4703 Y60.7081
G01 X4.3780 Y60.6751
G01 X4.3690 Y60.6714
G01 X4.2759 Y60.6272
G01 X4.1835 Y60.5718
G01 X4.0970 Y60.5077
G01 X4.0204 Y60.4385
G01 X4.0135 Y60.4316
G01 X3.9477 Y60.3589
G01 X3.9415 Y60.3513
G01 X3.8803 Y60.2687
G01 X3.8248 Y60.1761
G01 X3.7806 Y60.0830
G01 X3.7769 Y60.0740
G01 X3.7422 Y59.9765
G01 X3.7172 Y59.8772
G00 Z0.5000
G00 X3.6515 Y59.8931
G01 F250.00
G01 Z-0.0400
G01 F2500.00
G01 X3.6484 Y59.8780
G01 X3.6331 Y59.7737
G01 X3.6324 Y59.7642
G01 X3.6276 Y59.6662
G01 X3.6276 Y59.6498
G01 X3.6324 Y59.5511
G01 X3.6339 Y59.5358
G01 X3.6499 Y59.4296
G01 X3.6776 Y59.3193
G01 X3.7160 Y59.2119
G01 X3.7614 Y59.1154
G01 X3.7688 Y59.1015
G01 X3.8196 Y59.0168
G01 X3.8287 Y59.0031
G01 X3.8924 Y58.9176
G01 X3.9688 Y58.8334
G01 X4.0536 Y58.7564
G01 X4.1398 Y58.6922
G01 X4.1520 Y58.6840
G01 X4.2369 Y58.6332
G01 X4.2447 Y58.6287
G01 X4.2558 Y58.6233
G01 X4.2558 Y58.3487
G01 X4.2491 Y58.3424
G01 X4.2432 Y58.3362
G01 X4.2325 Y58.3230
G01 X4.2225 Y58.3078
G01 X4.2156 Y58.2944
G01 X4.2093 Y58.2787
G01 X4.2047 Y58.2632
G01 X4.2017 Y58.2471
G01 X4.2006 Y58.2370
G01 X4.2002 Y58.2274
G01 X4.2001 Y57.4826
G01 X4.1977 Y57.4468
G01 X4.1975 Y57.4365
G01 X4.1988 Y57.3918
G01 X4.2001 Y57.3775
G01 X4.2001 Y56.7715
G01 X4.2006 Y56.7610
G01 X4.2018 Y56.7503
G01 X4.2034 Y56.7410
G01 X4.2057 Y56.7311
G01 X4.2093 Y56.7193
G01 X4.2123 Y56.7113
G01 X4.2192 Y56.6964
G01 X4.2242 Y56.6874
G01 X4.2294 Y56.6794
G01 X4.2372 Y56.6689
G01 X4.2432 Y56.6618
G01 X4.2499 Y56.6548
G01 X4.2596 Y56.6460
G01 X4.2743 Y56.6349
G01 X4.2833 Y56.6293
G01 X4.2936 Y56.6238
G01 X4.3032 Y56.6195
G01 X4.3138 Y56.6155
G01 X4.3237 Y56.6125
G01 X4.3344 Y56.6099
G01 X4.3445 Y56.6082
G01 X4.3559 Y56.6071
G01 X4.3673 Y56.6067
G01 X5.2698 Y56.6067
G01 X5.2795 Y56.6072
G01 X5.2892 Y56.6082
G01 X5.2993 Y56.6099
G01 X5.3070 Y56.6117
G01 X5.3232 Y56.6166
G01 X5.3323 Y56.6202
G01 X5.3441 Y56.6258
G01 X5.3535 Y56.6311
G01 X5.3634 Y56.6377
G01 X5.3725 Y56.6446
G01 X5.3813 Y56.6524
G01 X5.3883 Y56.6594
G01 X5.3956 Y56.6678
G01 X5.4044 Y56.6794
G01 X5.4095 Y56.6874
G01 X5.4146 Y56.6964
G01 X5.4202 Y56.7082
G01 X5.4233 Y56.7162
G01 X5.4268 Y56.7268
G01 X5.4300 Y56.7394
G01 X5.4320 Y56.7509
G01 X5.4332 Y56.7626
G01 X5.4336 Y56.7738
G01 X5.4334 Y58.2322
G01 X5.4328 Y58.2409
G01 X5.4314 Y58.2510
G01 X5.4288 Y58.2637
G01 X5.4263 Y58.2729
G01 X5.4233 Y58.2818
G01 X5.4181 Y58.2944
G01 X5.4138 Y58.3031
G01 X5.4095 Y58.3106
G01 X5.4054 Y58.3171
G01 X5.3993 Y58.3257
G01 X5.3905 Y58.3362
G01 X5.3846 Y58.3424
G01 X5.3709 Y58.3547
G01 X5.3634 Y58.3603
G01 X5.3525 Y58.3674
G01 X5.3525 Y58.6340
G01 X5.4423 Y58.6881
G01 X5.5344 Y58.7564
G01 X5.6193 Y58.8334
G01 X5.6905 Y58.9117
G01 X5.7004 Y58.9237
G01 X5.7593 Y59.0031
G01 X5.7684 Y59.0168
G01 X5.8230 Y59.1083
G01 X5.8720 Y59.2119
G01 X5.9107 Y59.3203
G01 X5.9382 Y59.4300
G01 X5.9550 Y59.5430
G01 X5.9605 Y59.6498
G01 X5.9605 Y59.6662
G01 X5.9556 Y59.7648
G01 X5.9541 Y59.7802
G01 X5.9382 Y59.8860
G01 X5.9126 Y59.9888
G01 X5.9093 Y60.0002
G01 X5.8720 Y60.1041
G01 X5.8266 Y60.2006
G01 X5.8193 Y60.2144
G01 X5.7684 Y60.2992
G01 X5.7593 Y60.3129
G01 X5.6956 Y60.3984
G01 X5.6193 Y60.4826
G01 X5.5344 Y60.5596
G01 X5.4489 Y60.6233
G01 X5.4352 Y60.6324
G01 X5.3504 Y60.6833
G01 X5.3373 Y60.6903
G01 X5.2401 Y60.7360
G01 X5.1327 Y60.7744
G01 X5.0223 Y60.8021
G01 X4.9165 Y60.8180
G01 X4.9011 Y60.8196
G01 X4.8022 Y60.8245
G01 X4.7858 Y60.8245
G01 X4.6878 Y60.8196
G01 X4.6783 Y60.8189
G01 X4.5657 Y60.8021
G01 X4.4553 Y60.7744
G01 X4.3552 Y60.7388
G01 X4.3408 Y60.7329
G01 X4.2514 Y60.6906
G01 X4.2369 Y60.6829
G01 X4.1457 Y60.6279
G01 X4.0536 Y60.5596
G01 X3.9688 Y60.4826
G01 X3.8975 Y60.4043
G01 X3.8876 Y60.3923
G01 X3.8287 Y60.3129
G01 X3.8196 Y60.2992
G01 X3.7650 Y60.2077
G01 X3.7164 Y60.1052
G01 X3.6776 Y59.9967
G01 X3.6515 Y59.8931
G01 X3.6895 Y60.3455
G01 X3.6895 Y61.5106
G01 X3.7064 Y61.4825
G01 X3.7158 Y61.4683
G01 X3.7200 Y61.4625
G01 X3.7784 Y61.3837
G01 X3.7832 Y61.3775
G01 X3.7967 Y61.3615
G01 X3.8687 Y61.2821
G01 X3.8837 Y61.2676
G01 X3.9570 Y61.2011
G01 X3.9670 Y61.1924
G01 X3.9794 Y61.1827
G01 X4.0642 Y61.1199
G01 X4.0827 Y61.1078
G01 X4.1675 Y61.0570
G01 X4.1791 Y61.0504
G01 X4.1931 Y61.0433
G01 X4.2928 Y60.9964
G01 X4.3094 Y60.9899
G01 X4.4123 Y60.9533
G01 X4.4289 Y60.9485
G01 X4.5107 Y60.9280
G01 X4.4289 Y60.9075
G01 X4.4123 Y60.9027
G01 X4.3094 Y60.8661
G01 X4.2928 Y60.8596
G01 X4.1932 Y60.8127
G01 X4.1791 Y60.8056
G01 X4.1675 Y60.7990
G01 X4.0827 Y60.7482
G01 X4.0642 Y60.7361
G01 X3.9794 Y60.6733
G01 X3.9670 Y60.6636
G01 X3.9570 Y60.6549
G01 X3.8837 Y60.5885
G01 X3.8687 Y60.5739
G01 X3.7967 Y60.4946
G01 X3.7832 Y60.4785
G01 X3.7158 Y60.3877
G01 X3.7064 Y60.3735
G01 X3.6895 Y60.3455
G01 X3.7572 Y60.5517
G01 X3.7572 Y61.3043
G01 X3.8130 Y61.2427
G01 X3.8137 Y61.2419
G01 X3.8265 Y61.2285
G01 X3.8381 Y61.2176
G01 X3.9123 Y61.1502
G01 X3.9245 Y61.1398
G01 X3.9362 Y61.1306
G01 X4.0234 Y61.0659
G01 X4.0350 Y61.0579
G01 X4.0474 Y61.0501
G01 X4.1334 Y60.9986
G01 X4.1490 Y60.9897
G01 X4.1634 Y60.9825
G01 X4.2550 Y60.9392
G01 X4.2681 Y60.9334
G01 X4.2816 Y60.9280
G01 X4.2681 Y60.9226
G01 X4.2550 Y60.9168
G01 X4.1634 Y60.8735
G01 X4.1490 Y60.8663
G01 X4.1334 Y60.8574
G01 X4.0474 Y60.8059
G01 X4.0350 Y60.7981
G01 X4.0234 Y60.7901
G01 X3.9362 Y60.7255
G01 X3.9245 Y60.7162
G01 X3.9123 Y60.7058
G01 X3.8381 Y60.6384
G01 X3.8265 Y60.6275
G01 X3.8137 Y60.6141
G01 X3.7572 Y60.5517
G01 X3.8248 Y60.7178
G01 X3.8248 Y61.1382
G01 X3.8687 Y61.0985
G01 X3.8860 Y61.0839
G01 X3.8989 Y61.0739
G01 X3.9858 Y61.0096
G01 X3.9987 Y61.0008
G01 X4.0131 Y60.9918
G01 X4.0999 Y60.9398
G01 X4.1211 Y60.9280
G01 X4.0999 Y60.9163
G01 X4.0131 Y60.8643
G01 X3.9987 Y60.8552
G01 X3.9859 Y60.8464
G01 X3.8987 Y60.7819
G01 X3.8860 Y60.7721
G01 X3.8684 Y60.7572
G01 X3.8248 Y60.7178
G01 X3.8925 Y60.8616
G01 X3.8925 Y60.9944
G01 X3.9496 Y60.9523
G01 X3.9677 Y60.9403
G01 X3.9879 Y60.9280
G01 X3.9678 Y60.9158
G01 X3.9497 Y60.9037
G01 X3.8925 Y60.8616
G01 X3.6219 Y61.8137
G01 X3.6497 Y61.7359
G01 X3.6541 Y61.7245
G01 X3.7004 Y61.6261
G01 X3.7104 Y61.6073
G01 X3.7620 Y61.5212
G01 X3.7736 Y61.5038
G01 X3.8384 Y61.4167
G01 X3.8471 Y61.4066
G01 X3.9141 Y61.3327
G01 X3.9293 Y61.3175
G01 X4.0101 Y61.2446
G01 X4.0200 Y61.2368
G01 X4.1070 Y61.1726
G01 X4.1180 Y61.1655
G01 X4.2114 Y61.1099
G01 X4.2216 Y61.1047
G01 X4.3122 Y61.0618
G01 X4.3320 Y61.0536
G01 X4.4351 Y61.0170
G01 X4.4468 Y61.0138
G01 X4.5526 Y60.9875
G01 X4.5646 Y60.9854
G01 X4.6616 Y60.9710
G01 X4.6731 Y60.9696
G01 X4.6845 Y60.9688
G01 X4.7829 Y60.9640
G01 X4.8014 Y60.9638
G01 X4.9035 Y60.9688
G01 X4.9165 Y60.9698
G01 X5.0247 Y60.9856
G01 X5.0456 Y60.9898
G01 X5.1426 Y61.0141
G01 X5.1632 Y61.0205
G01 X5.2661 Y61.0576
G01 X5.2765 Y61.0622
G01 X5.3563 Y61.0999
G01 X5.9530 Y60.5033
G01 X5.9930 Y60.4672
G01 X6.0333 Y60.4370
G01 X6.0504 Y60.4255
G01 X6.0847 Y60.4050
G01 X6.0951 Y60.3992
G01 X6.1378 Y60.3788
G01 X6.1485 Y60.3740
G01 X6.1943 Y60.3574
G01 X6.2054 Y60.3537
G01 X6.2163 Y60.3507
G01 X6.2632 Y60.3392
G01 X6.2752 Y60.3371
G01 X6.3238 Y60.3302
G01 X6.3352 Y60.3293
G01 X6.3823 Y60.3272
G01 X6.8277 Y60.3272
G01 X6.7298 Y60.2686
G01 X6.7195 Y60.2620
G01 X6.6122 Y60.1827
G01 X6.6022 Y60.1749
G01 X6.5035 Y60.0857
G01 X6.4950 Y60.0776
G01 X6.4872 Y60.0694
G01 X6.4048 Y59.9786
G01 X6.3958 Y59.9681
G01 X6.3171 Y59.8623
G01 X6.3105 Y59.8528
G01 X6.3043 Y59.8431
G01 X6.2413 Y59.7379
G01 X6.2353 Y59.7273
G01 X6.1780 Y59.6067
G01 X6.1732 Y59.5958
G01 X6.1278 Y59.4699
G01 X6.1225 Y59.4529
G01 X6.0914 Y59.3289
G01 X6.0887 Y59.3168
G01 X6.0689 Y59.1849
G01 X6.0674 Y59.1726
G01 X6.0606 Y59.0396
G01 X6.0603 Y59.0275
G01 X6.0667 Y58.8933
G01 X6.0681 Y58.8768
G01 X6.0869 Y58.7496
G01 X6.0890 Y58.7376
G01 X6.1212 Y58.6083
G01 X6.1258 Y58.5922
G01 X6.1693 Y58.4703
G01 X6.1757 Y58.4545
G01 X6.2331 Y58.3332
G01 X6.2404 Y58.3197
G01 X6.2646 Y58.2794
G01 X6.2539 Y58.2816
G01 X6.2403 Y58.2835
G01 X6.2265 Y58.2847
G01 X6.2147 Y58.2850
G01 X5.6652 Y58.2850
G01 X5.6537 Y58.2847
G01 X5.6438 Y58.2840
G01 X5.6249 Y58.2815
G01 X5.6058 Y58.2774
G01 X5.5861 Y58.2713
G01 X5.5664 Y58.2632
G01 X5.5473 Y58.2532
G01 X5.5325 Y58.2439
G01 X5.5166 Y58.2320
G01 X5.5013 Y58.2182
G01 X5.5011 Y58.2323
G01 X5.5003 Y58.2457
G01 X5.4988 Y58.2578
G01 X5.4967 Y58.2703
G01 X5.4936 Y58.2836
G01 X5.4908 Y58.2934
G01 X5.4870 Y58.3046
G01 X5.4820 Y58.3173
G01 X5.4771 Y58.3279
G01 X5.4702 Y58.3409
G01 X5.4622 Y58.3539
G01 X5.4555 Y58.3635
G01 X5.4479 Y58.3732
G01 X5.4382 Y58.3843
G01 X5.4283 Y58.3943
G01 X5.4202 Y58.4016
G01 X5.4202 Y58.5957
G01 X5.4704 Y58.6258
G01 X5.4814 Y58.6328
G01 X5.5706 Y58.6988
G01 X5.5854 Y58.7111
G01 X5.6618 Y58.7803
G01 X5.6745 Y58.7933
G01 X5.7478 Y58.8746
G01 X5.7552 Y58.8840
G01 X5.8167 Y58.9670
G01 X5.8263 Y58.9817
G01 X5.8821 Y59.0753
G01 X5.8878 Y59.0864
G01 X5.9339 Y59.1846
G01 X5.9385 Y59.1964
G01 X5.9716 Y59.2888
G01 X5.9755 Y59.3007
G01 X6.0021 Y59.4060
G01 X6.0049 Y59.4187
G01 X6.0223 Y59.5362
G01 X6.0232 Y59.5478
G01 X6.0281 Y59.6474
G01 X6.0281 Y59.6673
G01 X6.0232 Y59.7676
G01 X6.0223 Y59.7793
G01 X6.0210 Y59.7904
G01 X6.0065 Y59.8877
G01 X6.0044 Y59.8996
G01 X5.9782 Y60.0052
G01 X5.9751 Y60.0164
G01 X5.9716 Y60.0272
G01 X5.9345 Y60.1300
G01 X5.9297 Y60.1409
G01 X5.8836 Y60.2379
G01 X5.8771 Y60.2495
G01 X5.8260 Y60.3348
G01 X5.8202 Y60.3439
G01 X5.8137 Y60.3532
G01 X5.7552 Y60.4320
G01 X5.7478 Y60.4414
G01 X5.6747 Y60.5224
G01 X5.6670 Y60.5306
G01 X5.6584 Y60.5387
G01 X5.5854 Y60.6049
G01 X5.5772 Y60.6120
G01 X5.5680 Y60.6192
G01 X5.4892 Y60.6777
G01 X5.4793 Y60.6846
G01 X5.4700 Y60.6905
G01 X5.3766 Y60.7461
G01 X5.3664 Y60.7513
G01 X5.2758 Y60.7942
G01 X5.2661 Y60.7985
G01 X5.2556 Y60.8025
G01 X5.1632 Y60.8356
G01 X5.1521 Y60.8392
G01 X5.1412 Y60.8422
G01 X5.0354 Y60.8685
G01 X5.0234 Y60.8706
G01 X4.9253 Y60.8851
G01 X4.9149 Y60.8864
G01 X4.9035 Y60.8872
G01 X4.8055 Y60.8920
G01 X4.7932 Y60.8923
G01 X4.6766 Y60.8867
G01 X4.6620 Y60.8850
G01 X4.5642 Y60.8705
G01 X4.5526 Y60.8685
G01 X4.5420 Y60.8661
G01 X4.4464 Y60.8421
G01 X4.4351 Y60.8390
G01 X4.3324 Y60.8025
G01 X4.3219 Y60.7985
G01 X4.3111 Y60.7937
G01 X4.2212 Y60.7512
G01 X4.2021 Y60.7409
G01 X4.1180 Y60.6905
G01 X4.1081 Y60.6842
G01 X4.0988 Y60.6777
G01 X4.0126 Y60.6135
G01 X4.0026 Y60.6049
G01 X3.9293 Y60.5385
G01 X3.9211 Y60.5306
G01 X3.9133 Y60.5224
G01 X3.8474 Y60.4498
G01 X3.8394 Y60.4405
G01 X3.7688 Y60.3454
G01 X3.7617 Y60.3343
G01 X3.7109 Y60.2496
G01 X3.7010 Y60.2311
G01 X3.7003 Y60.2296
G01 X3.6583 Y60.1409
G01 X3.6541 Y60.1315
G01 X3.6497 Y60.1201
G01 X3.6219 Y60.0423
G01 X3.6219 Y61.8137
G00 Z0.5000
G00 X3.7172 Y62.4172
G01 F250.00
G01 Z-0.0400
G01 F2500.00
G01 X3.7153 Y62.4076
G01 X3.7009 Y62.3103
G01 X3.6999 Y62.3009
G01 X3.6950 Y62.1980
G01 X3.7003 Y62.0899
G01 X3.7161 Y61.9837
G01 X3.7410 Y61.8837
G01 X3.7439 Y61.8743
G01 X3.7788 Y61.7772
G01 X3.8226 Y61.6843
G01 X3.8272 Y61.6757
G01 X3.8803 Y61.5873
G01 X3.9443 Y61.5010
G01 X4.0135 Y61.4244
G01 X4.0204 Y61.4175
G01 X4.0970 Y61.3483
G01 X4.1794 Y61.2870
G01 X4.1876 Y61.2816
G01 X4.2717 Y61.2312
G01 X4.2803 Y61.2266
G01 X4.3732 Y61.1828
G01 X4.4755 Y61.1462
G01 X4.5748 Y61.1212
G01 X4.5844 Y61.1193
G01 X4.6859 Y61.1043
G01 X4.7916 Y61.0990
G01 X4.7989 Y61.0991
G01 X4.8969 Y61.1039
G01 X4.9066 Y61.1049
G01 X5.0083 Y61.1201
G01 X5.1125 Y61.1462
G01 X5.2100 Y61.1809
G01 X5.2190 Y61.1846
G01 X5.3121 Y61.2288
G01 X5.3788 Y61.2687
G01 X6.0441 Y60.6033
G01 X6.0793 Y60.5715
G01 X6.1168 Y60.5437
G01 X6.1532 Y60.5217
G01 X6.1613 Y60.5174
G01 X6.1956 Y60.5011
G01 X6.2046 Y60.4974
G01 X6.2450 Y60.4831
G01 X6.2904 Y60.4718
G01 X6.3366 Y60.4649
G01 X6.3820 Y60.4626
G01 X8.7041 Y60.4626
G01 X8.7453 Y60.4645
G01 X8.7550 Y60.4655
G01 X8.7967 Y60.4718
G01 X8.8379 Y60.4819
G01 X8.8472 Y60.4848
G01 X8.8873 Y60.4992
G01 X8.9297 Y60.5193
G01 X8.9703 Y60.5437
G01 X9.0042 Y60.5687
G01 X9.0117 Y60.5749
G01 X9.0430 Y60.6033
G01 X9.7083 Y61.2687
G01 X9.7750 Y61.2288
G01 X9.8681 Y61.1846
G01 X9.8771 Y61.1809
G01 X9.9694 Y61.1479
G01 X9.9788 Y61.1450
G01 X10.0788 Y61.1201
G01 X10.1828 Y61.1046
G01 X10.1903 Y61.1039
G01 X10.2931 Y61.0990
G01 X10.4012 Y61.1043
G01 X10.5074 Y61.1201
G01 X10.6095 Y61.1456
G01 X10.6168 Y61.1479
G01 X10.7139 Y61.1828
G01 X10.8112 Y61.2288
G01 X10.9038 Y61.2843
G01 X10.9921 Y61.3499
G01 X11.0702 Y61.4209
G01 X11.1394 Y61.4971
G01 X11.1443 Y61.5028
G01 X11.2082 Y61.5894
G01 X11.2611 Y61.6778
G01 X11.2801 Y61.7173
G01 X12.3160 Y61.7173
G01 X12.3350 Y61.6778
G01 X12.3866 Y61.5916
G01 X12.3907 Y61.5853
G01 X12.4533 Y61.5010
G01 X12.5242 Y61.4226
G01 X12.5294 Y61.4175
G01 X12.6021 Y61.3517
G01 X12.6097 Y61.3455
G01 X12.6925 Y61.2842
G01 X12.7807 Y61.2312
G01 X12.7871 Y61.2277
G01 X12.8822 Y61.1828
G01 X12.9845 Y61.1462
G01 X13.0887 Y61.1201
G01 X13.1904 Y61.1049
G01 X13.2002 Y61.1039
G01 X13.2981 Y61.0991
G01 X13.3079 Y61.0991
G01 X13.4111 Y61.1043
G01 X13.4156 Y61.1049
G01 X13.5126 Y61.1193
G01 X13.5197 Y61.1206
G01 X13.6215 Y61.1462
G01 X13.7238 Y61.1828
G01 X13.8211 Y61.2288
G01 X13.9094 Y61.2816
G01 X13.9176 Y61.2870
G01 X13.9963 Y61.3455
G01 X14.0039 Y61.3517
G01 X14.0801 Y61.4209
G01 X14.1527 Y61.5010
G01 X14.2167 Y61.5873
G01 X14.2698 Y61.6757
G01 X14.2744 Y61.6843
G01 X14.3164 Y61.7730
G01 X14.3201 Y61.7820
G01 X14.3548 Y61.8795
G01 X14.3809 Y61.9837
G01 X14.3967 Y62.0899
G01 X14.4020 Y62.1956
G01 X14.4019 Y62.2029
G01 X14.3967 Y62.3053
G01 X14.3809 Y62.4123
G01 X14.3548 Y62.5165
G01 X14.3182 Y62.6188
G01 X14.2722 Y62.7161
G01 X14.2168 Y62.8085
G01 X14.1527 Y62.8950
G01 X14.0801 Y62.9751
G01 X14.0000 Y63.0477
G01 X13.9135 Y63.1118
G01 X13.8211 Y63.1672
G01 X13.7238 Y63.2132
G01 X13.6215 Y63.2498
G01 X13.5173 Y63.2759
G01 X13.4111 Y63.2917
G01 X13.3054 Y63.2970
G01 X13.2981 Y63.2969
G01 X13.2002 Y63.2921
G01 X13.1904 Y63.2911
G01 X13.0887 Y63.2759
G01 X12.9845 Y63.2498
G01 X12.8870 Y63.2151
G01 X12.8780 Y63.2114
G01 X12.7849 Y63.1672
G01 X12.6944 Y63.1131
G01 X12.6097 Y63.0505
G01 X12.6021 Y63.0443
G01 X12.5259 Y62.9751
G01 X12.4549 Y62.8970
G01 X12.3920 Y62.8126
G01 X12.3879 Y62.8066
G01 X12.3350 Y62.7182
G01 X12.3160 Y62.6787
G01 X11.2801 Y62.6787
G01 X11.2611 Y62.7182
G01 X11.2095 Y62.8044
G01 X11.2054 Y62.8107
G01 X11.1428 Y62.8950
G01 X11.0736 Y62.9716
G01 X11.0685 Y62.9768
G01 X10.9901 Y63.0477
G01 X10.9036 Y63.1118
G01 X10.8112 Y63.1672
G01 X10.7181 Y63.2114
G01 X10.7115 Y63.2142
G01 X10.6116 Y63.2498
G01 X10.5074 Y63.2759
G01 X10.4012 Y63.2917
G01 X10.2931 Y63.2970
G01 X10.1850 Y63.2917
G01 X10.0788 Y63.2759
G01 X9.9746 Y63.2498
G01 X9.8747 Y63.2142
G01 X9.7794 Y63.1694
G01 X9.7708 Y63.1648
G01 X9.6826 Y63.1118
G01 X9.5998 Y63.0505
G01 X9.5922 Y63.0443
G01 X9.5160 Y62.9751
G01 X9.4468 Y62.8989
G01 X9.4420 Y62.8932
G01 X9.3793 Y62.8085
G01 X9.3239 Y62.7161
G01 X9.2779 Y62.6188
G01 X9.2421 Y62.5191
G01 X9.2152 Y62.4123
G01 X9.1994 Y62.3061
G01 X9.1941 Y62.1980
G01 X9.1979 Y62.1179
G01 X8.5040 Y61.4239
G01 X6.5832 Y61.4239
G01 X5.8892 Y62.1179
G01 X5.8930 Y62.1980
G01 X5.8876 Y62.3063
G01 X5.8719 Y62.4123
G01 X5.8450 Y62.5191
G01 X5.8092 Y62.6188
G01 X5.7632 Y62.7161
G01 X5.7077 Y62.8087
G01 X5.6421 Y62.8970
G01 X5.5711 Y62.9751
G01 X5.4910 Y63.0477
G01 X5.4047 Y63.1117
G01 X5.3163 Y63.1648
G01 X5.3077 Y63.1694
G01 X5.2190 Y63.2114
G01 X5.2100 Y63.2151
G01 X5.1125 Y63.2498
G01 X5.0083 Y63.2759
G01 X4.9021 Y63.2917
G01 X4.7940 Y63.2970
G01 X4.6859 Y63.2917
G01 X4.5797 Y63.2759
G01 X4.4755 Y63.2498
G01 X4.3732 Y63.2132
G01 X4.2759 Y63.1672
G01 X4.1835 Y63.1118
G01 X4.0970 Y63.0477
G01 X4.0169 Y62.9751
G01 X3.9443 Y62.8950
G01 X3.8803 Y62.8087
G01 X3.8248 Y62.7161
G01 X3.7788 Y62.6188
G01 X3.7422 Y62.5165
G01 X3.7172 Y62.4172
G00 Z0.5000
G00 X3.6515 Y62.4331
G01 F250.00
G01 Z-0.0400
G01 F2500.00
G01 X3.6484 Y62.4180
G01 X3.6340 Y62.3205
G01 X3.6324 Y62.3042
G01 X3.6274 Y62.1977
G01 X3.6329 Y62.0839
G01 X3.6498 Y61.9703
G01 X3.6755 Y61.8669
G01 X3.6802 Y61.8516
G01 X3.7135 Y61.7583
G01 X3.7192 Y61.7447
G01 X3.7651 Y61.6481
G01 X3.8239 Y61.5499
G01 X3.8917 Y61.4585
G01 X3.9634 Y61.3790
G01 X3.9750 Y61.3674
G01 X4.0483 Y61.3009
G01 X4.0600 Y61.2914
G01 X4.1459 Y61.2279
G01 X4.2397 Y61.1715
G01 X4.2512 Y61.1655
G01 X4.3479 Y61.1200
G01 X4.4476 Y61.0842
G01 X4.4632 Y61.0794
G01 X4.5657 Y61.0539
G01 X4.6715 Y61.0380
G01 X4.6878 Y61.0364
G01 X4.7948 Y61.0314
G01 X4.9002 Y61.0364
G01 X4.9165 Y61.0380
G01 X5.0223 Y61.0539
G01 X5.1276 Y61.0801
G01 X5.1405 Y61.0842
G01 X5.2416 Y61.1206
G01 X5.3398 Y61.1669
G01 X5.3483 Y61.1715
G01 X5.3683 Y61.1835
G01 X6.0005 Y60.5514
G01 X6.0371 Y60.5186
G01 X6.0795 Y60.4873
G01 X6.1248 Y60.4601
G01 X6.1709 Y60.4380
G01 X6.1819 Y60.4337
G01 X6.2248 Y60.4185
G01 X6.2764 Y60.4056
G01 X6.3289 Y60.3977
G01 X6.3763 Y60.3951
G01 X7.1765 Y60.3949
G01 X7.1407 Y60.3859
G01 X7.1292 Y60.3825
G01 X7.0103 Y60.3400
G01 X6.9979 Y60.3350
G01 X6.8762 Y60.2772
G01 X6.7646 Y60.2105
G01 X6.7535 Y60.2033
G01 X6.6457 Y60.1231
G01 X6.5427 Y60.0296
G01 X6.4491 Y59.9263
G01 X6.3715 Y59.8219
G01 X6.3641 Y59.8112
G01 X6.2951 Y59.6957
G01 X6.2357 Y59.5699
G01 X6.1915 Y59.4471
G01 X6.1887 Y59.4384
G01 X6.1553 Y59.3049
G01 X6.1348 Y59.1673
G01 X6.1280 Y59.0287
G01 X6.1348 Y58.8897
G01 X6.1547 Y58.7543
G01 X6.1570 Y58.7437
G01 X6.1887 Y58.6178
G01 X6.1915 Y58.6091
G01 X6.2357 Y58.4863
G01 X6.2951 Y58.3605
G01 X6.3667 Y58.2410
G01 X6.4491 Y58.1299
G01 X6.5427 Y58.0265
G01 X6.6457 Y57.9331
G01 X6.7510 Y57.8547
G01 X6.7646 Y57.8456
G01 X6.8698 Y57.7826
G01 X6.8843 Y57.7748
G01 X7.0030 Y57.7189
G01 X7.1257 Y57.6748
G01 X7.1414 Y57.6701
G01 X7.2694 Y57.6383
G01 X7.4062 Y57.6180
G01 X7.5457 Y57.6112
G01 X7.6755 Y57.6175
G01 X7.6888 Y57.6187
G01 X7.8219 Y57.6386
G01 X7.9562 Y57.6723
G01 X8.0867 Y57.7189
G01 X8.2056 Y57.7749
G01 X8.2199 Y57.7826
G01 X8.3250 Y57.8456
G01 X8.3384 Y57.8546
G01 X8.4440 Y57.9331
G01 X8.5473 Y58.0268
G01 X8.6398 Y58.1289
G01 X8.7228 Y58.2408
G01 X8.7943 Y58.3600
G01 X8.8505 Y58.4784
G01 X8.8568 Y58.4935
G01 X8.8981 Y58.6090
G01 X8.9028 Y58.6247
G01 X8.9346 Y58.7526
G01 X8.9538 Y58.8811
G01 X8.9551 Y58.8924
G01 X8.9617 Y59.0289
G01 X8.9549 Y59.1665
G01 X8.9344 Y59.3049
G01 X8.9028 Y59.4315
G01 X8.8981 Y59.4471
G01 X8.8568 Y59.5626
G01 X8.8505 Y59.5778
G01 X8.7940 Y59.6966
G01 X8.7273 Y59.8083
G01 X8.7209 Y59.8181
G01 X8.6398 Y59.9272
G01 X8.5473 Y60.0294
G01 X8.4440 Y60.1231
G01 X8.3359 Y60.2035
G01 X8.3250 Y60.2105
G01 X8.2135 Y60.2772
G01 X8.0917 Y60.3350
G01 X8.0794 Y60.3400
G01 X7.9605 Y60.3825
G01 X7.9489 Y60.3859
G01 X7.9131 Y60.3949
G01 X8.7094 Y60.3950
G01 X8.7582 Y60.3977
G01 X8.8091 Y60.4052
G01 X8.8607 Y60.4181
G01 X8.9061 Y60.4340
G01 X8.9197 Y60.4396
G01 X8.9609 Y60.4593
G01 X9.0050 Y60.4856
G01 X9.0142 Y60.4918
G01 X9.0499 Y60.5186
G01 X9.0853 Y60.5502
G01 X9.7188 Y61.1835
G01 X9.7388 Y61.1715
G01 X9.7473 Y61.1669
G01 X9.8434 Y61.1216
G01 X9.8543 Y61.1172
G01 X9.9518 Y61.0824
G01 X9.9623 Y61.0794
G01 X10.0648 Y61.0539
G01 X10.1774 Y61.0371
G01 X10.1869 Y61.0364
G01 X10.2923 Y61.0314
G01 X10.4072 Y61.0369
G01 X10.5197 Y61.0536
G01 X10.6302 Y61.0811
G01 X10.6396 Y61.0842
G01 X10.7392 Y61.1200
G01 X10.8424 Y61.1687
G01 X10.9412 Y61.2279
G01 X11.0335 Y61.2964
G01 X11.1175 Y61.3725
G01 X11.1947 Y61.4576
G01 X11.2632 Y61.5499
G01 X11.3180 Y61.6409
G01 X11.3228 Y61.6496
G01 X12.2733 Y61.6496
G01 X12.2782 Y61.6409
G01 X12.3331 Y61.5497
G01 X12.3965 Y61.4638
G01 X12.4065 Y61.4517
G01 X12.4786 Y61.3725
G01 X12.5567 Y61.3015
G01 X12.5694 Y61.2911
G01 X12.6549 Y61.2279
G01 X12.7459 Y61.1732
G01 X12.7597 Y61.1657
G01 X12.8569 Y61.1200
G01 X12.9566 Y61.0842
G01 X12.9722 Y61.0794
G01 X13.0747 Y61.0539
G01 X13.1805 Y61.0380
G01 X13.1933 Y61.0366
G01 X13.2956 Y61.0315
G01 X13.3112 Y61.0316
G01 X13.4171 Y61.0369
G01 X13.5225 Y61.0524
G01 X13.5386 Y61.0556
G01 X13.6401 Y61.0811
G01 X13.6495 Y61.0842
G01 X13.7491 Y61.1200
G01 X13.8537 Y61.1695
G01 X13.9442 Y61.2236
G01 X13.9579 Y61.2327
G01 X14.0434 Y61.2964
G01 X14.1220 Y61.3674
G01 X14.1336 Y61.3790
G01 X14.2046 Y61.4576
G01 X14.2729 Y61.5497
G01 X14.3279 Y61.6409
G01 X14.3356 Y61.6554
G01 X14.3810 Y61.7519
G01 X14.4194 Y61.8593
G01 X14.4454 Y61.9624
G01 X14.4486 Y61.9785
G01 X14.4641 Y62.0842
G01 X14.4697 Y62.1972
G01 X14.4646 Y62.3042
G01 X14.4630 Y62.3205
G01 X14.4472 Y62.4260
G01 X14.4197 Y62.5357
G01 X14.3838 Y62.6368
G01 X14.3775 Y62.6520
G01 X14.3356 Y62.7406
G01 X14.3291 Y62.7530
G01 X14.2731 Y62.8461
G01 X14.2098 Y62.9318
G01 X14.1995 Y62.9443
G01 X14.1274 Y63.0235
G01 X14.0434 Y63.0996
G01 X13.9576 Y63.1635
G01 X13.9442 Y63.1724
G01 X13.8601 Y63.2229
G01 X13.8471 Y63.2299
G01 X13.7491 Y63.2760
G01 X13.6495 Y63.3118
G01 X13.6338 Y63.3166
G01 X13.5386 Y63.3404
G01 X13.5257 Y63.3431
G01 X13.4171 Y63.3591
G01 X13.3038 Y63.3647
G01 X13.1916 Y63.3593
G01 X13.1805 Y63.3580
G01 X13.1138 Y63.3481
G01 X13.1602 Y63.3609
G01 X13.1725 Y63.3648
G01 X13.2436 Y63.3919
G01 X13.2585 Y63.3985
G01 X13.3236 Y63.4309
G01 X13.3349 Y63.4372
G01 X13.3995 Y63.4775
G01 X13.4128 Y63.4868
G01 X13.4730 Y63.5333
G01 X13.4828 Y63.5418
G01 X13.5359 Y63.5916
G01 X13.5472 Y63.6033
G01 X13.5952 Y63.6580
G01 X13.6033 Y63.6681
G01 X13.6478 Y63.7298
G01 X13.6566 Y63.7435
G01 X13.6931 Y63.8064
G01 X13.7006 Y63.8209
G01 X13.7321 Y63.8901
G01 X13.7369 Y63.9022
G01 X13.7606 Y63.9710
G01 X13.7651 Y63.9866
G01 X13.7820 Y64.0574
G01 X13.7845 Y64.0701
G01 X13.7950 Y64.1455
G01 X13.7964 Y64.1616
G01 X13.7993 Y64.2344
G01 X13.7993 Y64.2473
G01 X13.7950 Y64.3233
G01 X13.7933 Y64.3395
G01 X13.7816 Y64.4146
G01 X13.7789 Y64.4273
G01 X13.7608 Y64.4978
G01 X13.7570 Y64.5102
G01 X13.7311 Y64.5818
G01 X13.7249 Y64.5967
G01 X13.6920 Y64.6654
G01 X13.6858 Y64.6767
G01 X13.6482 Y64.7391
G01 X13.6391 Y64.7526
G01 X13.5957 Y64.8110
G01 X13.5876 Y64.8209
G01 X13.8314 Y64.5771
G01 X13.8243 Y64.5295
G01 X13.8231 Y64.5184
G01 X13.8180 Y64.4160
G01 X13.8179 Y64.4037
G01 X13.8228 Y64.3016
G01 X13.8236 Y64.2921
G01 X13.8388 Y64.1883
G01 X13.8411 Y64.1763
G01 X13.8681 Y64.0691
G01 X13.9037 Y63.9690
G01 X13.9071 Y63.9602
G01 X13.9557 Y63.8576
G01 X14.0101 Y63.7666
G01 X14.0164 Y63.7568
G01 X14.0829 Y63.6674
G01 X14.1590 Y63.5834
G01 X14.2441 Y63.5062
G01 X14.3296 Y63.4425
G01 X14.3433 Y63.4334
G01 X14.4281 Y63.3825
G01 X14.4412 Y63.3755
G01 X14.5384 Y63.3298
G01 X14.6457 Y63.2914
G01 X14.7562 Y63.2637
G01 X14.8704 Y63.2467
G01 X14.9853 Y63.2412
G01 X15.0985 Y63.2467
G01 X15.2128 Y63.2637
G01 X15.3232 Y63.2914
G01 X15.4306 Y63.3298
G01 X15.5337 Y63.3785
G01 X15.6326 Y63.4377
G01 X15.7249 Y63.5062
G01 X15.8100 Y63.5834
G01 X15.8861 Y63.6674
G01 X15.9546 Y63.7597
G01 X16.0133 Y63.8576
G01 X16.0625 Y63.9617
G01 X16.0998 Y64.0656
G01 X16.1031 Y64.0770
G01 X16.1269 Y64.1722
G01 X16.1301 Y64.1883
G01 X16.1455 Y64.2938
G01 X16.1511 Y64.4070
G01 X16.1461 Y64.5144
G01 X16.1445 Y64.5303
G01 X16.1286 Y64.6361
G01 X16.1012 Y64.7455
G01 X16.0653 Y64.8466
G01 X16.0590 Y64.8618
G01 X16.0133 Y64.9580
G01 X15.9546 Y65.0559
G01 X15.8914 Y65.1415
G01 X15.8810 Y65.1541
G01 X15.8088 Y65.2333
G01 X15.7302 Y65.3049
G01 X15.7188 Y65.3142
G01 X15.6393 Y65.3731
G01 X15.6257 Y65.3822
G01 X15.5337 Y65.4371
G01 X15.4321 Y65.4852
G01 X15.3309 Y65.5216
G01 X15.3152 Y65.5264
G01 X15.2111 Y65.5522
G01 X15.1032 Y65.5683
G01 X15.0907 Y65.5694
G01 X14.9927 Y65.5743
G01 X14.9763 Y65.5743
G01 X14.8704 Y65.5689
G01 X14.7610 Y65.5528
G01 X14.7489 Y65.5502
G01 X14.6537 Y65.5264
G01 X14.6423 Y65.5231
G01 X14.5416 Y65.4871
G01 X14.5312 Y65.4827
G01 X14.4943 Y65.4652
G01 X14.2324 Y65.7271
G01 X14.2324 Y66.1640
G01 X14.2397 Y66.1696
G01 X14.2461 Y66.1752
G01 X14.2518 Y66.1806
G01 X14.2618 Y66.1916
G01 X14.2725 Y66.2059
G01 X14.2809 Y66.2199
G01 X14.2886 Y66.2363
G01 X14.2916 Y66.2443
G01 X14.2950 Y66.2555
G01 X14.2975 Y66.2660
G01 X14.2988 Y66.2733
G01 X14.2999 Y66.2825
G01 X14.3006 Y66.2924
G01 X14.3007 Y67.7526
G01 X14.3000 Y67.7644
G01 X14.2988 Y67.7747
G01 X14.2971 Y67.7839
G01 X14.2935 Y67.7979
G01 X14.2886 Y67.8117
G01 X14.2846 Y67.8208
G01 X14.2801 Y67.8296
G01 X14.2734 Y67.8408
G01 X14.2678 Y67.8488
G01 X14.2612 Y67.8571
G01 X14.2518 Y67.8674
G01 X14.2436 Y67.8750
G01 X14.2329 Y67.8836
G01 X14.2265 Y67.8881
G01 X14.2138 Y67.8958
G01 X14.2043 Y67.9006
G01 X14.1944 Y67.9049
G01 X14.1846 Y67.9083
G01 X14.1694 Y67.9124
G01 X14.1596 Y67.9143
G01 X14.1503 Y67.9155
G01 X14.1344 Y67.9163
G01 X13.2336 Y67.9163
G01 X13.2194 Y67.9156
G01 X13.2084 Y67.9143
G01 X13.1986 Y67.9124
G01 X13.1857 Y67.9091
G01 X13.1686 Y67.9028
G01 X13.1607 Y67.8992
G01 X13.1502 Y67.8936
G01 X13.1415 Y67.8881
G01 X13.1351 Y67.8836
G01 X13.1273 Y67.8775
G01 X13.1176 Y67.8688
G01 X13.1052 Y67.8553
G01 X13.0990 Y67.8472
G01 X13.0943 Y67.8404
G01 X13.0894 Y67.8323
G01 X13.0843 Y67.8228
G01 X13.0800 Y67.8133
G01 X13.0764 Y67.8037
G01 X13.0730 Y67.7925
G01 X13.0705 Y67.7820
G01 X13.0683 Y67.7673
G01 X13.0674 Y67.7556
G01 X13.0673 Y67.5724
G01 X11.3228 Y67.5724
G01 X11.3180 Y67.5811
G01 X11.2632 Y67.6721
G01 X11.1957 Y67.7631
G01 X11.1896 Y67.7703
G01 X11.1186 Y67.8484
G01 X11.0394 Y67.9205
G01 X11.0274 Y67.9304
G01 X10.9480 Y67.9893
G01 X10.9343 Y67.9984
G01 X10.8424 Y68.0533
G01 X10.7471 Y68.0985
G01 X10.7319 Y68.1048
G01 X10.6318 Y68.1404
G01 X10.5287 Y68.1664
G01 X10.5197 Y68.1684
G01 X10.4072 Y68.1851
G01 X10.2923 Y68.1907
G01 X10.1791 Y68.1851
G01 X10.0648 Y68.1681
G01 X9.9544 Y68.1404
G01 X9.8470 Y68.1020
G01 X9.7505 Y68.0566
G01 X9.7360 Y68.0489
G01 X9.6448 Y67.9939
G01 X9.5527 Y67.9256
G01 X9.4687 Y67.8495
G01 X9.3966 Y67.7703
G01 X9.3862 Y67.7577
G01 X9.3232 Y67.6723
G01 X9.2680 Y67.5808
G01 X9.2605 Y67.5666
G01 X9.2151 Y67.4701
G01 X9.1767 Y67.3627
G01 X9.1507 Y67.2596
G01 X9.1475 Y67.2435
G01 X9.1320 Y67.1381
G01 X9.1265 Y67.0281
G01 X9.1267 Y67.0158
G01 X9.1315 Y66.9178
G01 X9.1331 Y66.9015
G01 X9.1490 Y66.7957
G01 X9.1764 Y66.6863
G01 X9.2123 Y66.5852
G01 X9.2186 Y66.5700
G01 X9.2643 Y66.4738
G01 X9.3209 Y66.3792
G01 X9.3278 Y66.3691
G01 X9.3862 Y66.2904
G01 X9.3966 Y66.2777
G01 X9.4687 Y66.1985
G01 X9.5500 Y66.1246
G01 X9.5595 Y66.1171
G01 X9.6382 Y66.0587
G01 X9.6483 Y66.0518
G01 X9.7403 Y65.9967
G01 X9.7505 Y65.9914
G01 X9.8007 Y65.9677
G01 X9.7621 Y65.9816
G01 X9.7495 Y65.9855
G01 X9.6742 Y66.0045
G01 X9.6613 Y66.0072
G01 X9.5811 Y66.0190
G01 X9.5680 Y66.0202
G01 X9.4938 Y66.0238
G01 X9.4772 Y66.0238
G01 X9.4030 Y66.0200
G01 X9.3865 Y66.0183
G01 X9.3130 Y66.0072
G01 X9.3001 Y66.0046
G01 X9.2216 Y65.9846
G01 X9.2090 Y65.9807
G01 X9.1391 Y65.9553
G01 X9.1239 Y65.9489
G01 X9.0569 Y65.9167
G01 X9.0452 Y65.9105
G01 X8.9789 Y65.8702
G01 X8.9679 Y65.8629
G01 X8.9032 Y65.8141
G01 X8.8931 Y65.8056
G01 X8.8361 Y65.7529
G01 X8.8269 Y65.7434
G01 X8.7753 Y65.6853
G01 X8.7671 Y65.6750
G01 X8.7485 Y65.6492
G01 X8.7947 Y65.7269
G01 X8.8515 Y65.8465
G01 X8.8568 Y65.8595
G01 X8.8993 Y65.9784
G01 X8.9028 Y65.9907
G01 X8.9343 Y66.1170
G01 X8.9538 Y66.2471
G01 X8.9551 Y66.2581
G01 X8.9617 Y66.3949
G01 X8.9554 Y66.5252
G01 X8.9538 Y66.5411
G01 X8.9343 Y66.6712
G01 X8.9028 Y66.7975
G01 X8.8981 Y66.8132
G01 X8.8549 Y66.9335
G01 X8.8505 Y66.9438
G01 X8.7943 Y67.0622
G01 X8.7273 Y67.1743
G01 X8.7182 Y67.1879
G01 X8.6398 Y67.2932
G01 X8.5523 Y67.3900
G01 X8.5407 Y67.4016
G01 X8.4473 Y67.4863
G01 X8.4372 Y67.4944
G01 X8.3321 Y67.5720
G01 X8.2199 Y67.6396
G01 X8.2098 Y67.6451
G01 X8.0945 Y67.6997
G01 X8.0834 Y67.7045
G01 X7.9596 Y67.7488
G01 X7.9489 Y67.7519
G01 X7.9131 Y67.7609
G01 X8.7094 Y67.7610
G01 X8.7582 Y67.7637
G01 X8.8091 Y67.7712
G01 X8.8607 Y67.7841
G01 X8.9061 Y67.8000
G01 X8.9197 Y67.8056
G01 X8.9609 Y67.8253
G01 X9.0050 Y67.8516
G01 X9.0142 Y67.8578
G01 X9.0499 Y67.8846
G01 X9.0853 Y67.9162
G01 X9.7188 Y68.5495
G01 X9.7388 Y68.5375
G01 X9.7468 Y68.5332
G01 X9.8434 Y68.4876
G01 X9.8543 Y68.4832
G01 X9.9518 Y68.4484
G01 X9.9623 Y68.4454
G01 X10.0648 Y68.4199
G01 X10.1774 Y68.4031
G01 X10.1869 Y68.4024
G01 X10.2923 Y68.3974
G01 X10.4072 Y68.4029
G01 X10.5197 Y68.4196
G01 X10.6302 Y68.4471
G01 X10.6396 Y68.4502
G01 X10.7392 Y68.4860
G01 X10.8424 Y68.5347
G01 X10.9412 Y68.5939
G01 X11.0335 Y68.6624
G01 X11.1175 Y68.7385
G01 X11.1947 Y68.8236
G01 X11.2632 Y68.9159
G01 X11.3180 Y69.0069
G01 X11.3228 Y69.0156
G01 X12.2805 Y69.0156
G01 X12.3331 Y68.9284
G01 X12.3961 Y68.8431
G01 X12.4059 Y68.8310
G01 X12.4724 Y68.7577
G01 X12.4840 Y68.7461
G01 X12.5626 Y68.6751
G01 X12.6549 Y68.6066
G01 X12.7537 Y68.5474
G01 X12.8490 Y68.5022
G01 X12.8642 Y68.4959
G01 X12.9643 Y68.4603
G01 X13.0674 Y68.4343
G01 X13.0827 Y68.4312
G01 X13.1843 Y68.4162
G01 X13.1968 Y68.4151
G01 X13.3022 Y68.4101
G01 X13.4171 Y68.4156
G01 X13.5313 Y68.4326
G01 X13.6417 Y68.4603
G01 X13.7491 Y68.4987
G01 X13.8523 Y68.5474
G01 X13.9511 Y68.6066
G01 X14.0397 Y68.6722
G01 X14.0493 Y68.6802
G01 X14.1274 Y68.7512
G01 X14.1995 Y68.8304
G01 X14.2099 Y68.8431
G01 X14.2688 Y68.9225
G01 X14.2771 Y68.9349
G01 X14.3318 Y69.0265
G01 X14.3810 Y69.1306
G01 X14.4194 Y69.2380
G01 X14.4454 Y69.3411
G01 X14.4486 Y69.3572
G01 X14.4631 Y69.4550
G01 X14.4646 Y69.4701
G01 X14.4697 Y69.5775
G01 X14.4641 Y69.6908
G01 X14.4474 Y69.8033
G01 X14.4216 Y69.9075
G01 X14.4168 Y69.9232
G01 X14.3838 Y70.0155
G01 X14.3785 Y70.0285
G01 X14.3318 Y70.1269
G01 X14.2731 Y70.2248
G01 X14.2056 Y70.3158
G01 X14.1336 Y70.3957
G01 X14.1226 Y70.4067
G01 X14.0493 Y70.4732
G01 X14.0367 Y70.4836
G01 X13.9511 Y70.5468
G01 X13.8537 Y70.6052
G01 X13.7506 Y70.6541
G01 X13.6495 Y70.6905
G01 X13.6338 Y70.6953
G01 X13.5386 Y70.7191
G01 X13.5257 Y70.7218
G01 X13.4171 Y70.7378
G01 X13.3038 Y70.7434
G01 X13.1916 Y70.7380
G01 X13.1805 Y70.7367
G01 X13.1095 Y70.7262
G01 X13.1505 Y70.7375
G01 X13.1628 Y70.7415
G01 X13.2339 Y70.7686
G01 X13.2487 Y70.7751
G01 X13.3138 Y70.8077
G01 X13.3251 Y70.8139
G01 X13.3896 Y70.8543
G01 X13.4029 Y70.8635
G01 X13.4631 Y70.9101
G01 X13.4729 Y70.9185
G01 X13.5259 Y70.9684
G01 X13.5372 Y70.9800
G01 X13.5852 Y71.0348
G01 X13.5933 Y71.0449
G01 X13.6377 Y71.1066
G01 X13.6465 Y71.1203
G01 X13.6830 Y71.1832
G01 X13.6904 Y71.1977
G01 X13.7219 Y71.2669
G01 X13.7266 Y71.2789
G01 X13.7503 Y71.3478
G01 X13.7548 Y71.3633
G01 X13.7717 Y71.4341
G01 X13.7741 Y71.4468
G01 X13.7846 Y71.5222
G01 X13.7860 Y71.5383
G01 X13.7890 Y71.6144
G01 X13.7888 Y71.6273
G01 X13.7846 Y71.7000
G01 X13.7829 Y71.7161
G01 X13.7711 Y71.7912
G01 X13.7684 Y71.8039
G01 X13.7503 Y71.8744
G01 X13.7466 Y71.8868
G01 X13.7207 Y71.9583
G01 X13.7144 Y71.9732
G01 X13.6816 Y72.0419
G01 X13.6753 Y72.0532
G01 X13.6378 Y72.1155
G01 X13.6287 Y72.1290
G01 X13.5853 Y72.1874
G01 X13.5772 Y72.1973
G01 X13.8939 Y71.8806
G01 X13.8706 Y71.8155
G01 X13.8676 Y71.8061
G01 X13.8418 Y71.7038
G01 X13.8388 Y71.6885
G01 X13.8240 Y71.5885
G01 X13.8228 Y71.5752
G01 X13.8178 Y71.4698
G01 X13.8230 Y71.3602
G01 X13.8245 Y71.3465
G01 X13.8401 Y71.2424
G01 X13.8678 Y71.1313
G01 X13.9065 Y71.0229
G01 X13.9557 Y70.9188
G01 X14.0144 Y70.8209
G01 X14.0818 Y70.7299
G01 X14.0880 Y70.7227
G01 X14.1590 Y70.6446
G01 X14.2382 Y70.5725
G01 X14.2502 Y70.5626
G01 X14.3296 Y70.5037
G01 X14.3433 Y70.4946
G01 X14.4352 Y70.4397
G01 X14.5305 Y70.3945
G01 X14.5424 Y70.3894
G01 X14.6380 Y70.3552
G01 X14.6473 Y70.3521
G01 X14.7489 Y70.3266
G01 X14.7650 Y70.3234
G01 X14.8704 Y70.3079
G01 X14.9763 Y70.3026
G01 X14.9919 Y70.3025
G01 X15.0907 Y70.3074
G01 X15.1070 Y70.3090
G01 X15.2111 Y70.3246
G01 X15.2201 Y70.3266
G01 X15.3232 Y70.3526
G01 X15.4306 Y70.3910
G01 X15.5352 Y70.4405
G01 X15.6328 Y70.4991
G01 X15.7249 Y70.5674
G01 X15.8100 Y70.6446
G01 X15.8810 Y70.7227
G01 X15.8914 Y70.7354
G01 X15.9546 Y70.8209
G01 X16.0093 Y70.9119
G01 X16.0167 Y70.9257
G01 X16.0590 Y71.0150
G01 X16.0653 Y71.0302
G01 X16.1009 Y71.1303
G01 X16.1279 Y71.2375
G01 X16.1301 Y71.2495
G01 X16.1455 Y71.3550
G01 X16.1510 Y71.4614
G01 X16.1509 Y71.4772
G01 X16.1455 Y71.5831
G01 X16.1301 Y71.6885
G01 X16.1269 Y71.7046
G01 X16.1012 Y71.8067
G01 X16.0653 Y71.9078
G01 X16.0618 Y71.9166
G01 X16.0171 Y72.0116
G01 X16.0093 Y72.0261
G01 X15.9546 Y72.1171
G01 X15.8914 Y72.2027
G01 X15.8810 Y72.2153
G01 X15.8088 Y72.2945
G01 X15.7308 Y72.3655
G01 X15.7181 Y72.3759
G01 X15.6326 Y72.4391
G01 X15.5416 Y72.4939
G01 X15.5271 Y72.5016
G01 X15.4321 Y72.5464
G01 X15.3309 Y72.5828
G01 X15.3195 Y72.5865
G01 X15.2193 Y72.6116
G01 X15.2040 Y72.6146
G01 X15.0985 Y72.6301
G01 X14.9886 Y72.6356
G01 X14.9763 Y72.6355
G01 X14.8783 Y72.6306
G01 X14.8665 Y72.6296
G01 X14.7610 Y72.6140
G01 X14.7497 Y72.6116
G01 X14.7210 Y72.6045
G01 X14.2324 Y73.0931
G01 X14.2324 Y73.5300
G01 X14.2397 Y73.5356
G01 X14.2461 Y73.5412
G01 X14.2518 Y73.5466
G01 X14.2618 Y73.5576
G01 X14.2725 Y73.5719
G01 X14.2809 Y73.5859
G01 X14.2886 Y73.6023
G01 X14.2916 Y73.6103
G01 X14.2950 Y73.6215
G01 X14.2975 Y73.6320
G01 X14.2988 Y73.6393
G01 X14.2999 Y73.6485
G01 X14.3006 Y73.6584
G01 X14.3007 Y75.1186
G01 X14.3000 Y75.1304
G01 X14.2988 Y75.1407
G01 X14.2971 Y75.1499
G01 X14.2935 Y75.1639
G01 X14.2886 Y75.1777
G01 X14.2846 Y75.1868
G01 X14.2801 Y75.1956
G01 X14.2734 Y75.2068
G01 X14.2678 Y75.2148
G01 X14.2612 Y75.2231
G01 X14.2518 Y75.2334
G01 X14.2436 Y75.2410
G01 X14.2329 Y75.2496
G01 X14.2265 Y75.2541
G01 X14.2138 Y75.2618
G01 X14.2043 Y75.2666
G01 X14.1944 Y75.2709
G01 X14.1846 Y75.2743
G01 X14.1694 Y75.2784
G01 X14.1596 Y75.2803
G01 X14.1503 Y75.2815
G01 X14.1344 Y75.2823
G01 X13.2336 Y75.2823
G01 X13.2194 Y75.2816
G01 X13.2084 Y75.2803
G01 X13.1986 Y75.2784
G01 X13.1857 Y75.2751
G01 X13.1686 Y75.2688
G01 X13.1607 Y75.2652
G01 X13.1502 Y75.2596
G01 X13.1415 Y75.2541
G01 X13.1351 Y75.2496
G01 X13.1273 Y75.2435
G01 X13.1176 Y75.2348
G01 X13.1052 Y75.2213
G01 X13.0990 Y75.2132
G01 X13.0943 Y75.2064
G01 X13.0894 Y75.1983
G01 X13.0843 Y75.1888
G01 X13.0800 Y75.1793
G01 X13.0764 Y75.1697
G01 X13.0730 Y75.1585
G01 X13.0705 Y75.1480
G01 X13.0683 Y75.1333
G01 X13.0674 Y75.1216
G01 X13.0673 Y74.9384
G01 X11.3228 Y74.9384
G01 X11.3180 Y74.9471
G01 X11.2632 Y75.0381
G01 X11.1957 Y75.1291
G01 X11.1896 Y75.1363
G01 X11.1186 Y75.2144
G01 X11.0394 Y75.2865
G01 X11.0274 Y75.2964
G01 X10.9480 Y75.3553
G01 X10.9343 Y75.3644
G01 X10.8424 Y75.4193
G01 X10.7471 Y75.4645
G01 X10.7319 Y75.4708
G01 X10.6318 Y75.5064
G01 X10.5287 Y75.5324
G01 X10.5197 Y75.5344
G01 X10.4072 Y75.5511
G01 X10.2923 Y75.5567
G01 X10.1791 Y75.5511
G01 X10.0648 Y75.5341
G01 X9.9544 Y75.5064
G01 X9.8470 Y75.4680
G01 X9.7505 Y75.4226
G01 X9.7360 Y75.4149
G01 X9.6448 Y75.3599
G01 X9.5527 Y75.2916
G01 X9.4687 Y75.2155
G01 X9.3966 Y75.1363
G01 X9.3862 Y75.1237
G01 X9.3232 Y75.0383
G01 X9.2680 Y74.9468
G01 X9.2605 Y74.9326
G01 X9.2151 Y74.8361
G01 X9.1767 Y74.7287
G01 X9.1507 Y74.6256
G01 X9.1475 Y74.6095
G01 X9.1320 Y74.5041
G01 X9.1265 Y74.3941
G01 X9.1267 Y74.3818
G01 X9.1315 Y74.2838
G01 X9.1331 Y74.2675
G01 X9.1490 Y74.1617
G01 X9.1764 Y74.0523
G01 X9.2123 Y73.9512
G01 X9.2186 Y73.9360
G01 X9.2643 Y73.8398
G01 X9.3209 Y73.7452
G01 X9.3278 Y73.7351
G01 X9.3862 Y73.6564
G01 X9.3966 Y73.6437
G01 X9.4687 Y73.5645
G01 X9.5500 Y73.4906
G01 X9.5595 Y73.4831
G01 X9.6382 Y73.4247
G01 X9.6483 Y73.4178
G01 X9.7403 Y73.3627
G01 X9.7505 Y73.3574
G01 X9.8007 Y73.3337
G01 X9.7621 Y73.3476
G01 X9.7495 Y73.3515
G01 X9.6742 Y73.3705
G01 X9.6613 Y73.3732
G01 X9.5811 Y73.3850
G01 X9.5680 Y73.3862
G01 X9.4938 Y73.3898
G01 X9.4772 Y73.3898
G01 X9.4030 Y73.3860
G01 X9.3865 Y73.3843
G01 X9.3130 Y73.3732
G01 X9.3001 Y73.3706
G01 X9.2216 Y73.3506
G01 X9.2090 Y73.3467
G01 X9.1391 Y73.3213
G01 X9.1239 Y73.3149
G01 X9.0569 Y73.2827
G01 X9.0452 Y73.2765
G01 X8.9789 Y73.2362
G01 X8.9679 Y73.2289
G01 X8.9032 Y73.1801
G01 X8.8931 Y73.1716
G01 X8.8361 Y73.1189
G01 X8.8269 Y73.1094
G01 X8.7753 Y73.0513
G01 X8.7671 Y73.0410
G01 X8.7485 Y73.0152
G01 X8.7947 Y73.0929
G01 X8.8515 Y73.2125
G01 X8.8568 Y73.2255
G01 X8.8993 Y73.3444
G01 X8.9028 Y73.3567
G01 X8.9343 Y73.4830
G01 X8.9538 Y73.6131
G01 X8.9551 Y73.6241
G01 X8.9617 Y73.7609
G01 X8.9554 Y73.8912
G01 X8.9538 Y73.9071
G01 X8.9343 Y74.0372
G01 X8.9028 Y74.1635
G01 X8.8981 Y74.1792
G01 X8.8549 Y74.2995
G01 X8.8505 Y74.3098
G01 X8.7943 Y74.4282
G01 X8.7273 Y74.5403
G01 X8.7182 Y74.5539
G01 X8.6398 Y74.6592
G01 X8.5523 Y74.7560
G01 X8.5407 Y74.7676
G01 X8.4473 Y74.8523
G01 X8.4372 Y74.8604
G01 X8.3321 Y74.9380
G01 X8.2199 Y75.0056
G01 X8.2098 Y75.0111
G01 X8.0945 Y75.0657
G01 X8.0834 Y75.0705
G01 X7.9596 Y75.1148
G01 X7.9489 Y75.1179
G01 X7.9131 Y75.1269
G01 X8.7070 Y75.1269
G01 X8.7565 Y75.1295
G01 X8.8028 Y75.1361
G01 X8.8148 Y75.1384
G01 X8.8543 Y75.1483
G01 X8.8700 Y75.1531
G01 X8.9141 Y75.1691
G01 X8.9542 Y75.1879
G01 X8.9644 Y75.1932
G01 X9.0086 Y75.2199
G01 X9.0451 Y75.2468
G01 X9.0571 Y75.2567
G01 X9.0906 Y75.2873
G01 X9.7188 Y75.9155
G01 X9.7388 Y75.9035
G01 X9.7468 Y75.8992
G01 X9.8434 Y75.8536
G01 X9.8543 Y75.8492
G01 X9.9509 Y75.8147
G01 X9.9623 Y75.8114
G01 X10.0648 Y75.7859
G01 X10.1751 Y75.7694
G01 X10.1869 Y75.7684
G01 X10.2923 Y75.7634
G01 X10.4072 Y75.7689
G01 X10.5197 Y75.7856
G01 X10.6246 Y75.8116
G01 X10.6396 Y75.8162
G01 X10.7392 Y75.8520
G01 X10.8424 Y75.9007
G01 X10.9412 Y75.9599
G01 X11.0292 Y76.0250
G01 X11.0394 Y76.0335
G01 X11.1175 Y76.1045
G01 X11.1919 Y76.1863
G01 X11.2000 Y76.1964
G01 X11.2607 Y76.2783
G01 X11.2662 Y76.2867
G01 X11.2851 Y76.3181
G01 X12.2431 Y76.3181
G01 X12.2749 Y76.2517
G01 X12.3286 Y76.1618
G01 X12.3349 Y76.1520
G01 X12.4014 Y76.0626
G01 X12.4724 Y75.9840
G01 X12.4810 Y75.9752
G01 X12.5626 Y75.9014
G01 X12.6549 Y75.8329
G01 X12.7537 Y75.7737
G01 X12.8490 Y75.7285
G01 X12.8601 Y75.7237
G01 X12.9643 Y75.6866
G01 X13.0674 Y75.6606
G01 X13.0764 Y75.6586
G01 X13.1890 Y75.6419
G01 X13.3038 Y75.6364
G01 X13.4171 Y75.6419
G01 X13.5313 Y75.6589
G01 X13.6417 Y75.6866
G01 X13.7418 Y75.7222
G01 X13.7506 Y75.7256
G01 X13.8523 Y75.7737
G01 X13.9442 Y75.8286
G01 X13.9569 Y75.8370
G01 X14.0434 Y75.9014
G01 X14.1274 Y75.9775
G01 X14.1995 Y76.0567
G01 X14.2094 Y76.0687
G01 X14.2683 Y76.1481
G01 X14.2774 Y76.1618
G01 X14.3318 Y76.2528
G01 X14.3810 Y76.3569
G01 X14.4194 Y76.4643
G01 X14.4454 Y76.5674
G01 X14.4486 Y76.5835
G01 X14.4631 Y76.6813
G01 X14.4646 Y76.6964
G01 X14.4697 Y76.8038
G01 X14.4644 Y76.9136
G01 X14.4630 Y76.9255
G01 X14.4474 Y77.0296
G01 X14.4197 Y77.1407
G01 X14.3810 Y77.2491
G01 X14.3318 Y77.3532
G01 X14.2731 Y77.4511
G01 X14.2046 Y77.5434
G01 X14.1274 Y77.6285
G01 X14.0493 Y77.6995
G01 X14.0367 Y77.7099
G01 X13.9504 Y77.7736
G01 X13.8601 Y77.8279
G01 X13.8456 Y77.8356
G01 X13.7491 Y77.8810
G01 X13.6495 Y77.9168
G01 X13.6345 Y77.9214
G01 X13.5386 Y77.9454
G01 X13.5225 Y77.9486
G01 X13.4187 Y77.9639
G01 X13.4092 Y77.9646
G01 X13.3038 Y77.9697
G01 X13.1890 Y77.9641
G01 X13.0771 Y77.9476
G01 X13.0864 Y77.9505
G01 X13.0990 Y77.9551
G01 X13.1716 Y77.9856
G01 X13.1837 Y77.9914
G01 X13.2529 Y78.0290
G01 X13.2643 Y78.0361
G01 X13.3266 Y78.0785
G01 X13.3373 Y78.0865
G01 X13.3977 Y78.1370
G01 X13.4100 Y78.1484
G01 X13.4649 Y78.2049
G01 X13.4737 Y78.2150
G01 X13.5206 Y78.2739
G01 X13.5304 Y78.2876
G01 X13.5712 Y78.3510
G01 X13.5795 Y78.3655
G01 X13.6152 Y78.4357
G01 X13.6206 Y78.4480
G01 X13.6479 Y78.5182
G01 X13.6532 Y78.5342
G01 X13.6733 Y78.6068
G01 X13.6763 Y78.6199
G01 X13.6896 Y78.6975
G01 X13.6916 Y78.7141
G01 X13.6968 Y78.7893
G01 X13.6971 Y78.8061
G01 X13.6946 Y78.8848
G01 X13.6934 Y78.8982
G01 X13.6835 Y78.9728
G01 X13.6811 Y78.9860
G01 X13.6631 Y79.0627
G01 X13.6584 Y79.0788
G01 X13.6337 Y79.1500
G01 X13.6288 Y79.1625
G01 X13.5958 Y79.2340
G01 X13.5880 Y79.2488
G01 X13.5496 Y79.3137
G01 X13.5423 Y79.3249
G01 X13.4957 Y79.3884
G01 X13.4848 Y79.4017
G01 X13.8211 Y79.0654
G01 X13.8180 Y79.0026
G01 X13.8179 Y78.9918
G01 X13.8228 Y78.8889
G01 X13.8238 Y78.8771
G01 X13.8404 Y78.7667
G01 X13.8659 Y78.6643
G01 X13.8692 Y78.6528
G01 X13.9065 Y78.5489
G01 X13.9557 Y78.4449
G01 X14.0144 Y78.3469
G01 X14.0795 Y78.2589
G01 X14.0880 Y78.2487
G01 X14.1539 Y78.1760
G01 X14.1655 Y78.1644
G01 X14.2454 Y78.0924
G01 X14.3362 Y78.0251
G01 X14.4338 Y77.9665
G01 X14.5305 Y77.9205
G01 X14.5457 Y77.9142
G01 X14.6380 Y77.8812
G01 X14.6473 Y77.8782
G01 X14.7578 Y77.8506
G01 X14.8704 Y77.8340
G01 X14.9853 Y77.8284
G01 X15.0985 Y77.8340
G01 X15.2128 Y77.8509
G01 X15.3232 Y77.8786
G01 X15.4306 Y77.9170
G01 X15.5337 Y77.9658
G01 X15.6326 Y78.0249
G01 X15.7249 Y78.0934
G01 X15.8100 Y78.1707
G01 X15.8861 Y78.2546
G01 X15.9546 Y78.3469
G01 X16.0133 Y78.4449
G01 X16.0625 Y78.5489
G01 X16.0998 Y78.6528
G01 X16.1031 Y78.6643
G01 X16.1269 Y78.7594
G01 X16.1301 Y78.7755
G01 X16.1455 Y78.8810
G01 X16.1511 Y78.9942
G01 X16.1461 Y79.1016
G01 X16.1445 Y79.1175
G01 X16.1286 Y79.2233
G01 X16.1012 Y79.3327
G01 X16.0653 Y79.4338
G01 X16.0590 Y79.4490
G01 X16.0133 Y79.5452
G01 X15.9546 Y79.6431
G01 X15.8914 Y79.7287
G01 X15.8810 Y79.7414
G01 X15.8088 Y79.8206
G01 X15.7249 Y79.8966
G01 X15.6328 Y79.9649
G01 X15.5416 Y80.0199
G01 X15.5271 Y80.0276
G01 X15.4306 Y80.0730
G01 X15.3232 Y80.1114
G01 X15.2201 Y80.1375
G01 X15.2040 Y80.1407
G01 X15.0985 Y80.1561
G01 X14.9853 Y80.1617
G01 X14.8783 Y80.1567
G01 X14.8620 Y80.1551
G01 X14.7562 Y80.1391
G01 X14.6457 Y80.1114
G01 X14.5449 Y80.0755
G01 X14.5312 Y80.0699
G01 X14.4419 Y80.0276
G01 X14.4316 Y80.0223
G01 X14.4213 Y80.0162
G01 X14.2324 Y80.2051
G01 X14.2324 Y80.8960
G01 X14.2397 Y80.9016
G01 X14.2461 Y80.9072
G01 X14.2518 Y80.9126
G01 X14.2618 Y80.9236
G01 X14.2725 Y80.9379
G01 X14.2809 Y80.9519
G01 X14.2886 Y80.9683
G01 X14.2916 Y80.9763
G01 X14.2950 Y80.9875
G01 X14.2975 Y80.9980
G01 X14.2988 Y81.0053
G01 X14.3000 Y81.0156
G01 X14.3007 Y81.0260
G01 X14.3007 Y82.4820
G01 X14.3002 Y82.4948
G01 X14.2988 Y82.5067
G01 X14.2971 Y82.5159
G01 X14.2935 Y82.5299
G01 X14.2886 Y82.5437
G01 X14.2846 Y82.5528
G01 X14.2801 Y82.5616
G01 X14.2734 Y82.5728
G01 X14.2678 Y82.5808
G01 X14.2612 Y82.5891
G01 X14.2518 Y82.5994
G01 X14.2436 Y82.6070
G01 X14.2329 Y82.6156
G01 X14.2265 Y82.6201
G01 X14.2138 Y82.6278
G01 X14.2043 Y82.6326
G01 X14.1944 Y82.6369
G01 X14.1846 Y82.6403
G01 X14.1694 Y82.6444
G01 X14.1596 Y82.6463
G01 X14.1503 Y82.6475
G01 X14.1344 Y82.6483
G01 X13.2336 Y82.6483
G01 X13.2194 Y82.6476
G01 X13.2084 Y82.6463
G01 X13.1986 Y82.6444
G01 X13.1857 Y82.6411
G01 X13.1686 Y82.6348
G01 X13.1607 Y82.6312
G01 X13.1502 Y82.6256
G01 X13.1415 Y82.6201
G01 X13.1351 Y82.6156
G01 X13.1273 Y82.6095
G01 X13.1176 Y82.6008
G01 X13.1052 Y82.5873
G01 X13.0990 Y82.5792
G01 X13.0943 Y82.5724
G01 X13.0894 Y82.5643
G01 X13.0843 Y82.5548
G01 X13.0800 Y82.5453
G01 X13.0764 Y82.5357
G01 X13.0730 Y82.5245
G01 X13.0705 Y82.5140
G01 X13.0683 Y82.4993
G01 X13.0674 Y82.4876
G01 X13.0673 Y82.3018
G01 X11.3215 Y82.3018
G01 X11.2630 Y82.3992
G01 X11.1947 Y82.4913
G01 X11.1175 Y82.5765
G01 X11.0335 Y82.6525
G01 X10.9414 Y82.7208
G01 X10.8438 Y82.7794
G01 X10.7407 Y82.8283
G01 X10.6396 Y82.8648
G01 X10.6246 Y82.8693
G01 X10.5287 Y82.8934
G01 X10.5126 Y82.8966
G01 X10.4072 Y82.9120
G01 X10.3013 Y82.9174
G01 X10.2849 Y82.9174
G01 X10.1869 Y82.9126
G01 X10.1774 Y82.9118
G01 X10.0648 Y82.8950
G01 X9.9544 Y82.8673
G01 X9.8470 Y82.8289
G01 X9.7505 Y82.7835
G01 X9.7360 Y82.7758
G01 X9.6448 Y82.7208
G01 X9.5527 Y82.6525
G01 X9.4687 Y82.5765
G01 X9.3966 Y82.4973
G01 X9.3862 Y82.4846
G01 X9.3232 Y82.3992
G01 X9.2680 Y82.3077
G01 X9.2605 Y82.2936
G01 X9.2151 Y82.1970
G01 X9.1767 Y82.0897
G01 X9.1507 Y81.9865
G01 X9.1475 Y81.9704
G01 X9.1320 Y81.8650
G01 X9.1265 Y81.7550
G01 X9.1267 Y81.7427
G01 X9.1315 Y81.6448
G01 X9.1331 Y81.6284
G01 X9.1490 Y81.5226
G01 X9.1764 Y81.4133
G01 X9.2123 Y81.3121
G01 X9.2186 Y81.2970
G01 X9.2643 Y81.2008
G01 X9.3209 Y81.1061
G01 X9.3278 Y81.0961
G01 X9.3862 Y81.0173
G01 X9.3966 Y81.0046
G01 X9.4687 Y80.9254
G01 X9.5500 Y80.8516
G01 X9.5595 Y80.8440
G01 X9.6382 Y80.7856
G01 X9.6483 Y80.7787
G01 X9.7403 Y80.7236
G01 X9.7505 Y80.7183
G01 X9.8007 Y80.6946
G01 X9.7621 Y80.7085
G01 X9.7495 Y80.7124
G01 X9.6742 Y80.7314
G01 X9.6613 Y80.7341
G01 X9.5811 Y80.7459
G01 X9.5680 Y80.7471
G01 X9.4938 Y80.7507
G01 X9.4772 Y80.7507
G01 X9.4030 Y80.7469
G01 X9.3865 Y80.7452
G01 X9.3130 Y80.7341
G01 X9.3001 Y80.7316
G01 X9.2216 Y80.7116
G01 X9.2090 Y80.7076
G01 X9.1360 Y80.6810
G01 X9.1239 Y80.6758
G01 X9.0569 Y80.6436
G01 X9.0423 Y80.6357
G01 X8.9789 Y80.5971
G01 X8.9679 Y80.5898
G01 X8.9058 Y80.5431
G01 X8.8956 Y80.5347
G01 X8.8361 Y80.4798
G01 X8.8269 Y80.4703
G01 X8.7753 Y80.4122
G01 X8.7671 Y80.4019
G01 X8.7485 Y80.3762
G01 X8.7947 Y80.4538
G01 X8.8515 Y80.5735
G01 X8.8568 Y80.5865
G01 X8.8993 Y80.7053
G01 X8.9028 Y80.7176
G01 X8.9343 Y80.8439
G01 X8.9538 Y80.9740
G01 X8.9551 Y80.9850
G01 X8.9617 Y81.1218
G01 X8.9554 Y81.2521
G01 X8.9538 Y81.2680
G01 X8.9343 Y81.3981
G01 X8.9028 Y81.5244
G01 X8.8981 Y81.5401
G01 X8.8549 Y81.6604
G01 X8.8505 Y81.6707
G01 X8.7943 Y81.7891
G01 X8.7273 Y81.9012
G01 X8.7182 Y81.9149
G01 X8.6398 Y82.0201
G01 X8.5523 Y82.1169
G01 X8.5407 Y82.1285
G01 X8.4473 Y82.2132
G01 X8.4372 Y82.2213
G01 X8.3321 Y82.2990
G01 X8.2199 Y82.3665
G01 X8.2098 Y82.3720
G01 X8.0945 Y82.4267
G01 X8.0834 Y82.4314
G01 X7.9596 Y82.4757
G01 X7.9489 Y82.4788
G01 X7.9131 Y82.4878
G01 X8.7094 Y82.4879
G01 X8.7582 Y82.4906
G01 X8.8091 Y82.4982
G01 X8.8607 Y82.5110
G01 X8.9061 Y82.5269
G01 X8.9197 Y82.5325
G01 X8.9609 Y82.5522
G01 X9.0050 Y82.5785
G01 X9.0142 Y82.5848
G01 X9.0499 Y82.6115
G01 X9.0853 Y82.6432
G01 X9.7188 Y83.2764
G01 X9.7388 Y83.2644
G01 X9.7468 Y83.2601
G01 X9.8434 Y83.2145
G01 X9.8543 Y83.2101
G01 X9.9518 Y83.1753
G01 X9.9623 Y83.1723
G01 X10.0648 Y83.1468
G01 X10.1774 Y83.1300
G01 X10.1869 Y83.1293
G01 X10.2923 Y83.1243
G01 X10.4072 Y83.1299
G01 X10.5197 Y83.1465
G01 X10.6302 Y83.1741
G01 X10.6396 Y83.1771
G01 X10.7392 Y83.2129
G01 X10.8424 Y83.2617
G01 X10.9412 Y83.3208
G01 X11.0335 Y83.3893
G01 X11.1175 Y83.4654
G01 X11.1947 Y83.5505
G01 X11.2632 Y83.6428
G01 X11.3180 Y83.7338
G01 X11.3228 Y83.7426
G01 X12.2836 Y83.7426
G01 X12.3331 Y83.6604
G01 X12.3961 Y83.5751
G01 X12.4059 Y83.5630
G01 X12.4730 Y83.4891
G01 X12.4840 Y83.4781
G01 X12.5626 Y83.4071
G01 X12.6549 Y83.3386
G01 X12.7537 Y83.2794
G01 X12.8490 Y83.2342
G01 X12.8642 Y83.2279
G01 X12.9643 Y83.1923
G01 X13.0674 Y83.1663
G01 X13.0827 Y83.1632
G01 X13.1843 Y83.1482
G01 X13.1968 Y83.1471
G01 X13.3022 Y83.1421
G01 X13.4171 Y83.1476
G01 X13.5313 Y83.1646
G01 X13.6417 Y83.1923
G01 X13.7491 Y83.2307
G01 X13.8523 Y83.2794
G01 X13.9511 Y83.3386
G01 X14.0421 Y83.4061
G01 X14.1220 Y83.4781
G01 X14.1336 Y83.4897
G01 X14.2046 Y83.5683
G01 X14.2683 Y83.6538
G01 X14.2771 Y83.6669
G01 X14.3318 Y83.7585
G01 X14.3777 Y83.8551
G01 X14.3838 Y83.8699
G01 X14.4197 Y83.9710
G01 X14.4454 Y84.0731
G01 X14.4486 Y84.0892
G01 X14.4641 Y84.1947
G01 X14.4697 Y84.3079
G01 X14.4646 Y84.4149
G01 X14.4630 Y84.4312
G01 X14.4471 Y84.5370
G01 X14.4197 Y84.6464
G01 X14.3810 Y84.7548
G01 X14.3318 Y84.8589
G01 X14.2729 Y84.9570
G01 X14.2046 Y85.0491
G01 X14.1274 Y85.1342
G01 X14.0493 Y85.2052
G01 X14.0421 Y85.2113
G01 X13.9569 Y85.2748
G01 X13.9442 Y85.2831
G01 X13.8523 Y85.3380
G01 X13.7491 Y85.3867
G01 X13.6495 Y85.4225
G01 X13.6401 Y85.4256
G01 X13.5386 Y85.4511
G01 X13.5225 Y85.4543
G01 X13.4171 Y85.4698
G01 X13.3112 Y85.4752
G01 X13.2948 Y85.4752
G01 X13.1959 Y85.4703
G01 X13.1805 Y85.4687
G01 X13.0747 Y85.4528
G01 X12.9749 Y85.4280
G01 X12.9918 Y85.4350
G01 X13.0066 Y85.4420
G01 X13.0744 Y85.4783
G01 X13.0855 Y85.4851
G01 X13.1494 Y85.5278
G01 X13.1599 Y85.5357
G01 X13.2167 Y85.5823
G01 X13.2265 Y85.5910
G01 X13.2809 Y85.6453
G01 X13.2919 Y85.6574
G01 X13.3386 Y85.7142
G01 X13.3464 Y85.7247
G01 X13.3892 Y85.7885
G01 X13.3977 Y85.8025
G01 X13.4324 Y85.8674
G01 X13.4394 Y85.8822
G01 X13.4688 Y85.9532
G01 X13.4731 Y85.9655
G01 X13.4945 Y86.0359
G01 X13.4978 Y86.0485
G01 X13.5129 Y86.1239
G01 X13.5150 Y86.1368
G01 X13.5226 Y86.2133
G01 X13.5235 Y86.2296
G01 X13.5235 Y86.3065
G01 X13.5228 Y86.3195
G01 X13.5157 Y86.3927
G01 X13.5133 Y86.4089
G01 X13.4983 Y86.4843
G01 X13.4951 Y86.4970
G01 X13.4728 Y86.5705
G01 X13.4683 Y86.5828
G01 X13.4403 Y86.6508
G01 X13.4348 Y86.6626
G01 X13.3987 Y86.7305
G01 X13.3903 Y86.7446
G01 X13.3477 Y86.8085
G01 X13.3398 Y86.8190
G01 X13.3187 Y86.8448
G01 X13.8184 Y86.3433
G01 X13.8179 Y86.3313
G01 X13.8180 Y86.3204
G01 X13.8229 Y86.2201
G01 X13.8245 Y86.2055
G01 X13.8404 Y86.0997
G01 X13.8659 Y85.9972
G01 X13.8703 Y85.9824
G01 X13.9071 Y85.8804
G01 X13.9557 Y85.7778
G01 X14.0144 Y85.6799
G01 X14.0795 Y85.5919
G01 X14.0880 Y85.5817
G01 X14.1601 Y85.5025
G01 X14.2382 Y85.4315
G01 X14.2508 Y85.4211
G01 X14.3364 Y85.3579
G01 X14.4274 Y85.3032
G01 X14.4419 Y85.2954
G01 X14.5305 Y85.2535
G01 X14.5408 Y85.2490
G01 X14.6457 Y85.2116
G01 X14.7562 Y85.1839
G01 X14.8688 Y85.1671
G01 X14.8783 Y85.1664
G01 X14.9763 Y85.1616
G01 X14.9927 Y85.1616
G01 X15.0985 Y85.1669
G01 X15.2040 Y85.1824
G01 X15.2201 Y85.1856
G01 X15.3160 Y85.2096
G01 X15.3309 Y85.2142
G01 X15.4321 Y85.2506
G01 X15.5352 Y85.2995
G01 X15.6328 Y85.3581
G01 X15.7249 Y85.4264
G01 X15.8088 Y85.5025
G01 X15.8861 Y85.5876
G01 X15.9544 Y85.6797
G01 X16.0117 Y85.7750
G01 X16.0171 Y85.7854
G01 X16.0618 Y85.8804
G01 X16.0983 Y85.9816
G01 X16.1029 Y85.9965
G01 X16.1269 Y86.0924
G01 X16.1301 Y86.1085
G01 X16.1455 Y86.2140
G01 X16.1511 Y86.3288
G01 X16.1455 Y86.4421
G01 X16.1301 Y86.5475
G01 X16.1269 Y86.5636
G01 X16.1029 Y86.6595
G01 X16.0983 Y86.6745
G01 X16.0618 Y86.7756
G01 X16.0133 Y86.8782
G01 X15.9546 Y86.9761
G01 X15.8914 Y87.0617
G01 X15.8810 Y87.0743
G01 X15.8151 Y87.1470
G01 X15.8065 Y87.1558
G01 X15.7249 Y87.2296
G01 X15.6393 Y87.2933
G01 X15.6257 Y87.3024
G01 X15.5337 Y87.3573
G01 X15.4321 Y87.4054
G01 X15.3309 Y87.4418
G01 X15.3152 Y87.4466
G01 X15.2128 Y87.4721
G01 X15.0985 Y87.4891
G01 X14.9853 Y87.4947
G01 X14.8704 Y87.4891
G01 X14.7610 Y87.4730
G01 X14.7489 Y87.4704
G01 X14.6457 Y87.4444
G01 X14.5416 Y87.4073
G01 X14.5305 Y87.4025
G01 X14.4381 Y87.3588
G01 X14.4281 Y87.3533
G01 X14.3856 Y87.3278
G01 X14.2324 Y87.4816
G01 X14.2324 Y88.2620
G01 X14.2397 Y88.2676
G01 X14.2461 Y88.2732
G01 X14.2518 Y88.2786
G01 X14.2618 Y88.2896
G01 X14.2725 Y88.3039
G01 X14.2809 Y88.3179
G01 X14.2886 Y88.3343
G01 X14.2916 Y88.3423
G01 X14.2950 Y88.3535
G01 X14.2975 Y88.3640
G01 X14.2993 Y88.3746
G01 X14.3007 Y88.3926
G01 X14.3007 Y89.8480
G01 X14.3002 Y89.8608
G01 X14.2988 Y89.8727
G01 X14.2971 Y89.8819
G01 X14.2939 Y89.8945
G01 X14.2905 Y89.9048
G01 X14.2871 Y89.9132
G01 X14.2815 Y89.9250
G01 X14.2758 Y89.9349
G01 X14.2678 Y89.9468
G01 X14.2624 Y89.9537
G01 X14.2536 Y89.9634
G01 X14.2461 Y89.9708
G01 X14.2380 Y89.9777
G01 X14.2265 Y89.9861
G01 X14.2178 Y89.9916
G01 X14.2073 Y89.9972
G01 X14.1913 Y90.0040
G01 X14.1823 Y90.0071
G01 X14.1694 Y90.0104
G01 X14.1596 Y90.0123
G01 X14.1503 Y90.0135
G01 X14.1344 Y90.0143
G01 X13.2336 Y90.0143
G01 X13.2194 Y90.0136
G01 X13.2084 Y90.0123
G01 X13.1986 Y90.0104
G01 X13.1857 Y90.0071
G01 X13.1686 Y90.0008
G01 X13.1607 Y89.9972
G01 X13.1502 Y89.9916
G01 X13.1415 Y89.9861
G01 X13.1351 Y89.9816
G01 X13.1273 Y89.9755
G01 X13.1176 Y89.9668
G01 X13.1052 Y89.9533
G01 X13.0990 Y89.9452
G01 X13.0943 Y89.9384
G01 X13.0894 Y89.9303
G01 X13.0843 Y89.9208
G01 X13.0800 Y89.9113
G01 X13.0764 Y89.9017
G01 X13.0730 Y89.8905
G01 X13.0705 Y89.8800
G01 X13.0683 Y89.8653
G01 X13.0674 Y89.8536
G01 X13.0673 Y89.6704
G01 X11.3228 Y89.6704
G01 X11.3180 Y89.6791
G01 X11.2632 Y89.7701
G01 X11.1957 Y89.8611
G01 X11.1896 Y89.8683
G01 X11.1186 Y89.9464
G01 X11.0394 Y90.0185
G01 X11.0274 Y90.0284
G01 X10.9480 Y90.0873
G01 X10.9343 Y90.0964
G01 X10.8424 Y90.1513
G01 X10.7471 Y90.1965
G01 X10.7319 Y90.2028
G01 X10.6318 Y90.2384
G01 X10.5287 Y90.2644
G01 X10.5197 Y90.2664
G01 X10.4072 Y90.2831
G01 X10.2923 Y90.2887
G01 X10.1791 Y90.2831
G01 X10.0648 Y90.2661
G01 X9.9544 Y90.2384
G01 X9.8470 Y90.2000
G01 X9.7505 Y90.1546
G01 X9.7360 Y90.1469
G01 X9.6448 Y90.0919
G01 X9.5527 Y90.0236
G01 X9.4687 Y89.9475
G01 X9.3966 Y89.8683
G01 X9.3862 Y89.8557
G01 X9.3232 Y89.7703
G01 X9.2680 Y89.6788
G01 X9.2605 Y89.6646
G01 X9.2151 Y89.5681
G01 X9.1767 Y89.4607
G01 X9.1507 Y89.3576
G01 X9.1475 Y89.3415
G01 X9.1320 Y89.2361
G01 X9.1265 Y89.1261
G01 X9.1267 Y89.1138
G01 X9.1315 Y89.0158
G01 X9.1331 Y88.9995
G01 X9.1490 Y88.8937
G01 X9.1764 Y88.7843
G01 X9.2123 Y88.6832
G01 X9.2186 Y88.6680
G01 X9.2643 Y88.5718
G01 X9.3209 Y88.4772
G01 X9.3278 Y88.4671
G01 X9.3862 Y88.3884
G01 X9.3966 Y88.3757
G01 X9.4687 Y88.2965
G01 X9.5500 Y88.2226
G01 X9.5595 Y88.2151
G01 X9.6382 Y88.1567
G01 X9.6483 Y88.1498
G01 X9.7403 Y88.0947
G01 X9.7505 Y88.0894
G01 X9.8007 Y88.0657
G01 X9.7621 Y88.0796
G01 X9.7495 Y88.0835
G01 X9.6742 Y88.1025
G01 X9.6613 Y88.1052
G01 X9.5811 Y88.1170
G01 X9.5680 Y88.1182
G01 X9.4938 Y88.1218
G01 X9.4772 Y88.1218
G01 X9.4030 Y88.1180
G01 X9.3865 Y88.1163
G01 X9.3130 Y88.1052
G01 X9.3001 Y88.1026
G01 X9.2216 Y88.0826
G01 X9.2090 Y88.0787
G01 X9.1391 Y88.0533
G01 X9.1239 Y88.0469
G01 X9.0569 Y88.0147
G01 X9.0452 Y88.0085
G01 X8.9789 Y87.9682
G01 X8.9679 Y87.9609
G01 X8.9058 Y87.9142
G01 X8.8956 Y87.9058
G01 X8.8361 Y87.8509
G01 X8.8269 Y87.8414
G01 X8.7753 Y87.7833
G01 X8.7671 Y87.7730
G01 X8.7485 Y87.7472
G01 X8.7947 Y87.8249
G01 X8.8515 Y87.9445
G01 X8.8568 Y87.9575
G01 X8.8993 Y88.0764
G01 X8.9028 Y88.0887
G01 X8.9343 Y88.2150
G01 X8.9538 Y88.3451
G01 X8.9551 Y88.3561
G01 X8.9617 Y88.4929
G01 X8.9554 Y88.6232
G01 X8.9538 Y88.6391
G01 X8.9343 Y88.7692
G01 X8.9028 Y88.8955
G01 X8.8981 Y88.9112
G01 X8.8549 Y89.0315
G01 X8.8505 Y89.0418
G01 X8.7943 Y89.1602
G01 X8.7273 Y89.2723
G01 X8.7182 Y89.2859
G01 X8.6398 Y89.3912
G01 X8.5523 Y89.4880
G01 X8.5407 Y89.4996
G01 X8.4473 Y89.5843
G01 X8.4372 Y89.5924
G01 X8.3321 Y89.6700
G01 X8.2199 Y89.7376
G01 X8.2098 Y89.7431
G01 X8.0945 Y89.7977
G01 X8.0834 Y89.8025
G01 X7.9596 Y89.8468
G01 X7.9489 Y89.8499
G01 X7.9131 Y89.8589
G01 X8.7094 Y89.8590
G01 X8.7582 Y89.8617
G01 X8.8091 Y89.8692
G01 X8.8607 Y89.8821
G01 X8.9061 Y89.8980
G01 X8.9197 Y89.9036
G01 X8.9609 Y89.9233
G01 X9.0050 Y89.9496
G01 X9.0142 Y89.9558
G01 X9.0499 Y89.9826
G01 X9.0853 Y90.0142
G01 X9.7188 Y90.6475
G01 X9.7388 Y90.6355
G01 X9.7468 Y90.6312
G01 X9.8434 Y90.5856
G01 X9.8543 Y90.5812
G01 X9.9518 Y90.5464
G01 X9.9623 Y90.5434
G01 X10.0648 Y90.5179
G01 X10.1774 Y90.5011
G01 X10.1869 Y90.5004
G01 X10.2923 Y90.4954
G01 X10.4072 Y90.5009
G01 X10.5197 Y90.5176
G01 X10.6302 Y90.5451
G01 X10.6396 Y90.5482
G01 X10.7392 Y90.5840
G01 X10.8424 Y90.6327
G01 X10.9412 Y90.6919
G01 X11.0335 Y90.7604
G01 X11.1186 Y90.8376
G01 X11.1947 Y90.9216
G01 X11.2632 Y91.0139
G01 X11.3180 Y91.1049
G01 X11.3228 Y91.1136
G01 X12.2805 Y91.1136
G01 X12.3331 Y91.0264
G01 X12.3961 Y90.9411
G01 X12.4059 Y90.9290
G01 X12.4724 Y90.8557
G01 X12.4840 Y90.8441
G01 X12.5626 Y90.7731
G01 X12.6491 Y90.7087
G01 X12.6618 Y90.7003
G01 X12.7523 Y90.6462
G01 X12.8554 Y90.5973
G01 X12.8642 Y90.5939
G01 X12.9643 Y90.5583
G01 X13.0674 Y90.5323
G01 X13.0764 Y90.5303
G01 X13.1890 Y90.5136
G01 X13.2948 Y90.5083
G01 X13.3112 Y90.5083
G01 X13.4101 Y90.5131
G01 X13.4255 Y90.5147
G01 X13.5313 Y90.5306
G01 X13.6417 Y90.5583
G01 X13.7491 Y90.5967
G01 X13.8501 Y90.6443
G01 X13.8601 Y90.6499
G01 X13.9442 Y90.7003
G01 X13.9579 Y90.7094
G01 X14.0434 Y90.7731
G01 X14.1274 Y90.8492
G01 X14.1995 Y90.9284
G01 X14.2099 Y90.9411
G01 X14.2731 Y91.0266
G01 X14.3318 Y91.1245
G01 X14.3777 Y91.2211
G01 X14.3838 Y91.2359
G01 X14.4197 Y91.3370
G01 X14.4471 Y91.4464
G01 X14.4630 Y91.5522
G01 X14.4646 Y91.5685
G01 X14.4697 Y91.6755
G01 X14.4641 Y91.7888
G01 X14.4486 Y91.8942
G01 X14.4454 Y91.9103
G01 X14.4194 Y92.0134
G01 X14.3810 Y92.1208
G01 X14.3356 Y92.2173
G01 X14.3279 Y92.2318
G01 X14.2729 Y92.3230
G01 X14.2046 Y92.4151
G01 X14.1285 Y92.4991
G01 X14.0493 Y92.5712
G01 X14.0367 Y92.5816
G01 X13.9511 Y92.6448
G01 X13.8537 Y92.7032
G01 X13.7570 Y92.7492
G01 X13.7418 Y92.7555
G01 X13.6495 Y92.7885
G01 X13.6366 Y92.7926
G01 X13.5296 Y92.8191
G01 X13.4171 Y92.8358
G01 X13.3038 Y92.8414
G01 X13.1968 Y92.8363
G01 X13.1813 Y92.8348
G01 X13.0835 Y92.8203
G01 X13.0674 Y92.8171
G01 X12.9643 Y92.7911
G01 X12.8642 Y92.7555
G01 X12.8554 Y92.7521
G01 X12.7523 Y92.7032
G01 X12.6549 Y92.6448
G01 X12.5639 Y92.5773
G01 X12.4834 Y92.5047
G01 X12.4724 Y92.4937
G01 X12.4014 Y92.4151
G01 X12.3377 Y92.3296
G01 X12.3289 Y92.3165
G01 X12.2779 Y92.2315
G01 X12.2726 Y92.2218
G01 X12.2671 Y92.2104
G01 X11.3228 Y92.2104
G01 X11.3180 Y92.2191
G01 X11.2632 Y92.3101
G01 X11.2000 Y92.3957
G01 X11.1896 Y92.4083
G01 X11.1231 Y92.4816
G01 X11.1121 Y92.4926
G01 X11.0322 Y92.5646
G01 X10.9412 Y92.6321
G01 X10.8424 Y92.6913
G01 X10.7392 Y92.7400
G01 X10.6318 Y92.7784
G01 X10.5214 Y92.8061
G01 X10.4088 Y92.8229
G01 X10.3993 Y92.8236
G01 X10.3013 Y92.8285
G01 X10.2849 Y92.8285
G01 X10.1791 Y92.8231
G01 X10.0736 Y92.8076
G01 X10.0575 Y92.8044
G01 X9.9616 Y92.7804
G01 X9.9467 Y92.7758
G01 X9.8470 Y92.7400
G01 X9.7505 Y92.6946
G01 X9.7360 Y92.6869
G01 X9.6448 Y92.6319
G01 X9.5540 Y92.5646
G01 X9.4741 Y92.4926
G01 X9.4625 Y92.4810
G01 X9.3905 Y92.4011
G01 X9.3230 Y92.3101
G01 X9.2643 Y92.2122
G01 X9.2151 Y92.1081
G01 X9.1778 Y92.0042
G01 X9.1745 Y91.9928
G01 X9.1490 Y91.8903
G01 X9.1326 Y91.7807
G01 X9.1315 Y91.7686
G01 X9.1265 Y91.6661
G01 X9.1266 Y91.6544
G01 X9.1289 Y91.6085
G01 X8.4759 Y90.9556
G01 X8.0112 Y90.9556
G01 X8.0794 Y90.9800
G01 X8.0903 Y90.9843
G01 X8.2054 Y91.0387
G01 X8.2163 Y91.0444
G01 X8.3321 Y91.1140
G01 X8.4372 Y91.1916
G01 X8.4466 Y91.1992
G01 X8.5473 Y91.2907
G01 X8.6398 Y91.3928
G01 X8.7228 Y91.5046
G01 X8.7924 Y91.6204
G01 X8.7981 Y91.6314
G01 X8.8540 Y91.7501
G01 X8.9006 Y91.8806
G01 X8.9343 Y92.0148
G01 X8.9538 Y92.1449
G01 X8.9554 Y92.1612
G01 X8.9615 Y92.2843
G01 X8.9615 Y92.3001
G01 X8.9554 Y92.4226
G01 X8.9547 Y92.4321
G01 X8.9358 Y92.5603
G01 X8.9328 Y92.5755
G01 X8.9010 Y92.7022
G01 X8.8568 Y92.8265
G01 X8.8507 Y92.8413
G01 X8.7943 Y92.9600
G01 X8.7229 Y93.0790
G01 X8.6451 Y93.1843
G01 X8.6347 Y93.1970
G01 X8.5461 Y93.2944
G01 X8.4499 Y93.3818
G01 X8.4372 Y93.3922
G01 X8.3319 Y93.4700
G01 X8.2135 Y93.5410
G01 X8.0945 Y93.5976
G01 X8.0794 Y93.6039
G01 X7.9562 Y93.6477
G01 X7.8243 Y93.6809
G01 X7.8132 Y93.6829
G01 X7.6834 Y93.7020
G01 X7.5457 Y93.7088
G01 X7.4062 Y93.7020
G01 X7.2694 Y93.6817
G01 X7.2604 Y93.6797
G01 X7.1335 Y93.6477
G01 X7.0030 Y93.6011
G01 X6.8776 Y93.5418
G01 X6.7646 Y93.4744
G01 X6.7510 Y93.4653
G01 X6.6525 Y93.3922
G01 X6.6398 Y93.3818
G01 X6.5424 Y93.2932
G01 X6.4549 Y93.1970
G01 X6.4445 Y93.1843
G01 X6.3667 Y93.0790
G01 X6.2951 Y92.9595
G01 X6.2357 Y92.8338
G01 X6.1916 Y92.7110
G01 X6.1877 Y92.6989
G01 X6.1550 Y92.5674
G01 X6.1349 Y92.4315
G01 X6.1280 Y92.2912
G01 X6.1349 Y92.1524
G01 X6.1553 Y92.0148
G01 X6.1887 Y91.8816
G01 X6.1916 Y91.8728
G01 X6.2357 Y91.7501
G01 X6.2936 Y91.6272
G01 X6.2993 Y91.6169
G01 X6.3667 Y91.5048
G01 X6.4488 Y91.3941
G01 X6.4549 Y91.3869
G01 X6.5424 Y91.2907
G01 X6.6430 Y91.1992
G01 X6.6525 Y91.1916
G01 X6.7575 Y91.1140
G01 X6.8733 Y91.0444
G01 X6.8843 Y91.0387
G01 X6.9993 Y90.9843
G01 X7.0103 Y90.9800
G01 X7.0784 Y90.9556
G01 X6.6112 Y90.9556
G01 X5.9582 Y91.6085
G01 X5.9605 Y91.6544
G01 X5.9606 Y91.6656
G01 X5.9556 Y91.7682
G01 X5.9545 Y91.7807
G01 X5.9381 Y91.8903
G01 X5.9126 Y91.9928
G01 X5.9093 Y92.0042
G01 X5.8714 Y92.1094
G01 X5.8230 Y92.2117
G01 X5.7641 Y92.3101
G01 X5.6966 Y92.4011
G01 X5.6246 Y92.4810
G01 X5.6130 Y92.4926
G01 X5.5332 Y92.5646
G01 X5.4423 Y92.6319
G01 X5.3511 Y92.6869
G01 X5.3366 Y92.6946
G01 X5.2401 Y92.7400
G01 X5.1327 Y92.7784
G01 X5.0223 Y92.8061
G01 X4.9081 Y92.8231
G01 X4.7932 Y92.8287
G01 X4.6800 Y92.8231
G01 X4.5657 Y92.8061
G01 X4.4553 Y92.7784
G01 X4.3479 Y92.7400
G01 X4.2433 Y92.6905
G01 X4.1457 Y92.6319
G01 X4.0536 Y92.5636
G01 X3.9685 Y92.4864
G01 X3.8975 Y92.4083
G01 X3.8914 Y92.4011
G01 X3.8239 Y92.3101
G01 X3.7650 Y92.2117
G01 X3.7160 Y92.1081
G01 X3.6802 Y92.0085
G01 X3.6759 Y91.9947
G01 X3.6499 Y91.8903
G01 X3.6339 Y91.7837
G01 X3.6324 Y91.7686
G01 X3.6276 Y91.6702
G01 X3.6276 Y91.6538
G01 X3.6324 Y91.5558
G01 X3.6331 Y91.5463
G01 X3.6499 Y91.4337
G01 X3.6772 Y91.3246
G01 X3.6802 Y91.3156
G01 X3.7132 Y91.2232
G01 X3.7192 Y91.2087
G01 X3.7614 Y91.1194
G01 X3.7692 Y91.1049
G01 X3.8239 Y91.0139
G01 X3.8924 Y90.9216
G01 X3.9685 Y90.8376
G01 X4.0477 Y90.7655
G01 X4.0604 Y90.7551
G01 X4.1398 Y90.6962
G01 X4.1520 Y90.6880
G01 X4.2433 Y90.6335
G01 X4.3400 Y90.5875
G01 X4.3552 Y90.5812
G01 X4.4553 Y90.5456
G01 X4.5584 Y90.5196
G01 X4.5745 Y90.5164
G01 X4.6800 Y90.5009
G01 X4.7891 Y90.4954
G01 X4.8022 Y90.4956
G01 X4.9002 Y90.5004
G01 X4.9165 Y90.5020
G01 X5.0223 Y90.5179
G01 X5.1276 Y90.5441
G01 X5.1405 Y90.5482
G01 X5.2416 Y90.5846
G01 X5.3403 Y90.6312
G01 X5.3483 Y90.6355
G01 X5.3683 Y90.6475
G01 X6.0005 Y90.0154
G01 X6.0371 Y89.9826
G01 X6.0795 Y89.9513
G01 X6.1248 Y89.9241
G01 X6.1709 Y89.9020
G01 X6.1819 Y89.8977
G01 X6.2248 Y89.8825
G01 X6.2764 Y89.8696
G01 X6.3289 Y89.8617
G01 X6.3763 Y89.8591
G01 X7.1765 Y89.8589
G01 X7.1407 Y89.8499
G01 X7.1300 Y89.8468
G01 X7.0062 Y89.8025
G01 X6.9951 Y89.7977
G01 X6.8843 Y89.7453
G01 X6.8733 Y89.7396
G01 X6.7577 Y89.6702
G01 X6.6525 Y89.5924
G01 X6.6398 Y89.5820
G01 X6.5453 Y89.4962
G01 X6.5373 Y89.4880
G01 X6.4549 Y89.3971
G01 X6.4445 Y89.3844
G01 X6.3667 Y89.2792
G01 X6.2993 Y89.1671
G01 X6.2916 Y89.1526
G01 X6.2362 Y89.0353
G01 X6.1916 Y88.9112
G01 X6.1875 Y88.8983
G01 X6.1553 Y88.7692
G01 X6.1358 Y88.6391
G01 X6.1342 Y88.6228
G01 X6.1280 Y88.4928
G01 X6.1342 Y88.3614
G01 X6.1358 Y88.3451
G01 X6.1553 Y88.2150
G01 X6.1868 Y88.0887
G01 X6.1916 Y88.0730
G01 X6.2357 Y87.9503
G01 X6.2916 Y87.8315
G01 X6.2993 Y87.8170
G01 X6.3667 Y87.7050
G01 X6.4445 Y87.5997
G01 X6.4549 Y87.5870
G01 X6.5373 Y87.4962
G01 X6.5453 Y87.4879
G01 X6.6457 Y87.3971
G01 X6.7575 Y87.3141
G01 X6.8762 Y87.2430
G01 X6.9951 Y87.1864
G01 X7.0103 Y87.1801
G01 X7.1257 Y87.1388
G01 X7.1414 Y87.1341
G01 X7.2694 Y87.1023
G01 X7.3978 Y87.0831
G01 X7.4132 Y87.0815
G01 X7.5457 Y87.0752
G01 X7.6834 Y87.0820
G01 X7.8219 Y87.1026
G01 X7.9546 Y87.1358
G01 X7.9639 Y87.1388
G01 X8.0867 Y87.1829
G01 X8.2120 Y87.2422
G01 X8.3312 Y87.3135
G01 X8.4153 Y87.3756
G01 X8.3853 Y87.3472
G01 X8.3764 Y87.3380
G01 X8.3272 Y87.2816
G01 X8.3172 Y87.2691
G01 X8.2755 Y87.2108
G01 X8.2668 Y87.1974
G01 X8.2293 Y87.1326
G01 X8.2235 Y87.1212
G01 X8.1936 Y87.0561
G01 X8.1876 Y87.0413
G01 X8.1631 Y86.9705
G01 X8.1596 Y86.9582
G01 X8.1419 Y86.8854
G01 X8.1396 Y86.8729
G01 X8.1293 Y86.8020
G01 X8.1280 Y86.7893
G01 X8.1244 Y86.7145
G01 X8.1243 Y86.7017
G01 X8.1278 Y86.6269
G01 X8.1289 Y86.6142
G01 X8.1396 Y86.5400
G01 X8.1419 Y86.5275
G01 X8.1596 Y86.4547
G01 X8.1631 Y86.4425
G01 X8.1876 Y86.3717
G01 X8.1936 Y86.3569
G01 X8.2235 Y86.2917
G01 X8.2293 Y86.2804
G01 X8.2668 Y86.2155
G01 X8.2755 Y86.2021
G01 X8.3172 Y86.1438
G01 X8.3272 Y86.1313
G01 X8.3764 Y86.0749
G01 X8.3853 Y86.0657
G01 X8.4153 Y86.0374
G01 X8.3319 Y86.0989
G01 X8.2191 Y86.1668
G01 X8.2054 Y86.1741
G01 X8.0938 Y86.2268
G01 X8.0794 Y86.2328
G01 X7.9562 Y86.2767
G01 X7.8292 Y86.3087
G01 X7.8203 Y86.3106
G01 X7.6918 Y86.3299
G01 X7.6755 Y86.3315
G01 X7.5440 Y86.3377
G01 X7.4141 Y86.3315
G01 X7.3978 Y86.3299
G01 X7.2694 Y86.3106
G01 X7.1414 Y86.2789
G01 X7.1309 Y86.2758
G01 X7.0103 Y86.2328
G01 X6.9951 Y86.2265
G01 X6.8776 Y86.1708
G01 X6.7646 Y86.1033
G01 X6.7510 Y86.0942
G01 X6.6469 Y86.0168
G01 X6.6398 Y86.0107
G01 X6.5436 Y85.9233
G01 X6.4549 Y85.8259
G01 X6.4488 Y85.8187
G01 X6.3715 Y85.7147
G01 X6.3624 Y85.7011
G01 X6.2993 Y85.5959
G01 X6.2916 Y85.5814
G01 X6.2357 Y85.4627
G01 X6.1916 Y85.3399
G01 X6.1868 Y85.3242
G01 X6.1553 Y85.1979
G01 X6.1349 Y85.0604
G01 X6.1280 Y84.9215
G01 X6.1348 Y84.7823
G01 X6.1553 Y84.6438
G01 X6.1887 Y84.5105
G01 X6.1916 Y84.5018
G01 X6.2357 Y84.3790
G01 X6.2934 Y84.2566
G01 X6.2993 Y84.2458
G01 X6.3667 Y84.1338
G01 X6.4488 Y84.0230
G01 X6.4549 Y84.0158
G01 X6.5424 Y83.9196
G01 X6.6430 Y83.8281
G01 X6.6525 Y83.8206
G01 X6.7575 Y83.7429
G01 X6.8733 Y83.6733
G01 X6.8843 Y83.6676
G01 X6.9993 Y83.6133
G01 X7.0103 Y83.6089
G01 X7.0784 Y83.5845
G01 X6.6112 Y83.5845
G01 X5.9582 Y84.2375
G01 X5.9605 Y84.2833
G01 X5.9606 Y84.2945
G01 X5.9556 Y84.3971
G01 X5.9545 Y84.4096
G01 X5.9381 Y84.5192
G01 X5.9126 Y84.6217
G01 X5.9093 Y84.6331
G01 X5.8714 Y84.7383
G01 X5.8225 Y84.8416
G01 X5.7639 Y84.9392
G01 X5.7009 Y85.0246
G01 X5.6934 Y85.0340
G01 X5.6195 Y85.1153
G01 X5.5403 Y85.1874
G01 X5.5290 Y85.1968
G01 X5.4489 Y85.2562
G01 X5.4352 Y85.2653
G01 X5.3433 Y85.3202
G01 X5.2401 Y85.3689
G01 X5.1327 Y85.4073
G01 X5.0288 Y85.4336
G01 X5.0135 Y85.4366
G01 X4.9097 Y85.4518
G01 X4.9002 Y85.4526
G01 X4.7948 Y85.4576
G01 X4.6800 Y85.4520
G01 X4.5657 Y85.4350
G01 X4.4553 Y85.4073
G01 X4.3552 Y85.3717
G01 X4.3464 Y85.3683
G01 X4.2433 Y85.3194
G01 X4.1528 Y85.2653
G01 X4.1391 Y85.2562
G01 X4.0536 Y85.1925
G01 X3.9750 Y85.1215
G01 X3.9634 Y85.1099
G01 X3.8924 Y85.0313
G01 X3.8287 Y84.9458
G01 X3.8199 Y84.9327
G01 X3.7692 Y84.8480
G01 X3.7614 Y84.8336
G01 X3.7164 Y84.7381
G01 X3.6776 Y84.6297
G01 X3.6499 Y84.5192
G01 X3.6329 Y84.4050
G01 X3.6274 Y84.2913
G01 X3.6324 Y84.1848
G01 X3.6340 Y84.1684
G01 X3.6499 Y84.0626
G01 X3.6772 Y83.9536
G01 X3.6802 Y83.9445
G01 X3.7132 Y83.8521
G01 X3.7195 Y83.8370
G01 X3.7651 Y83.7410
G01 X3.8199 Y83.6492
G01 X3.8287 Y83.6361
G01 X3.8924 Y83.5505
G01 X3.9685 Y83.4666
G01 X4.0477 Y83.3944
G01 X4.0604 Y83.3840
G01 X4.1459 Y83.3208
G01 X4.2433 Y83.2624
G01 X4.3400 Y83.2164
G01 X4.3552 Y83.2101
G01 X4.4553 Y83.1745
G01 X4.5584 Y83.1485
G01 X4.5745 Y83.1453
G01 X4.6783 Y83.1300
G01 X4.6878 Y83.1293
G01 X4.7858 Y83.1245
G01 X4.7973 Y83.1243
G01 X4.9002 Y83.1293
G01 X4.9165 Y83.1309
G01 X5.0223 Y83.1468
G01 X5.1276 Y83.1731
G01 X5.1405 Y83.1771
G01 X5.2416 Y83.2136
G01 X5.3403 Y83.2601
G01 X5.3483 Y83.2644
G01 X5.3683 Y83.2764
G01 X6.0005 Y82.6443
G01 X6.0371 Y82.6115
G01 X6.0795 Y82.5802
G01 X6.1248 Y82.5530
G01 X6.1709 Y82.5310
G01 X6.1819 Y82.5266
G01 X6.2248 Y82.5114
G01 X6.2764 Y82.4985
G01 X6.3289 Y82.4906
G01 X6.3763 Y82.4880
G01 X7.1765 Y82.4878
G01 X7.1407 Y82.4788
G01 X7.1300 Y82.4757
G01 X7.0062 Y82.4314
G01 X6.9951 Y82.4267
G01 X6.8843 Y82.3742
G01 X6.8733 Y82.3686
G01 X6.7577 Y82.2991
G01 X6.6525 Y82.2213
G01 X6.6398 Y82.2109
G01 X6.5453 Y82.1252
G01 X6.5373 Y82.1169
G01 X6.4549 Y82.0261
G01 X6.4445 Y82.0134
G01 X6.3667 Y81.9081
G01 X6.2993 Y81.7960
G01 X6.2916 Y81.7816
G01 X6.2362 Y81.6642
G01 X6.1916 Y81.5401
G01 X6.1875 Y81.5272
G01 X6.1553 Y81.3981
G01 X6.1358 Y81.2680
G01 X6.1342 Y81.2517
G01 X6.1280 Y81.1217
G01 X6.1342 Y80.9903
G01 X6.1358 Y80.9740
G01 X6.1553 Y80.8439
G01 X6.1868 Y80.7176
G01 X6.1916 Y80.7019
G01 X6.2357 Y80.5792
G01 X6.2916 Y80.4604
G01 X6.2993 Y80.4460
G01 X6.3667 Y80.3339
G01 X6.4445 Y80.2286
G01 X6.4549 Y80.2160
G01 X6.5373 Y80.1251
G01 X6.5483 Y80.1140
G01 X6.6469 Y80.0250
G01 X6.7577 Y79.9429
G01 X6.8762 Y79.8719
G01 X6.9951 Y79.8153
G01 X7.0103 Y79.8091
G01 X7.1257 Y79.7677
G01 X7.1414 Y79.7630
G01 X7.2694 Y79.7312
G01 X7.3978 Y79.7120
G01 X7.4132 Y79.7104
G01 X7.5457 Y79.7042
G01 X7.6834 Y79.7110
G01 X7.8219 Y79.7315
G01 X7.9546 Y79.7647
G01 X7.9639 Y79.7677
G01 X8.0867 Y79.8119
G01 X8.2120 Y79.8711
G01 X8.3312 Y79.9424
G01 X8.4178 Y80.0063
G01 X8.3912 Y79.9812
G01 X8.3824 Y79.9720
G01 X8.3331 Y79.9156
G01 X8.3231 Y79.9031
G01 X8.2814 Y79.8448
G01 X8.2727 Y79.8314
G01 X8.2352 Y79.7666
G01 X8.2294 Y79.7552
G01 X8.1995 Y79.6901
G01 X8.1936 Y79.6753
G01 X8.1690 Y79.6045
G01 X8.1655 Y79.5922
G01 X8.1478 Y79.5194
G01 X8.1455 Y79.5069
G01 X8.1349 Y79.4327
G01 X8.1337 Y79.4200
G01 X8.1302 Y79.3452
G01 X8.1303 Y79.3325
G01 X8.1337 Y79.2609
G01 X8.1349 Y79.2482
G01 X8.1455 Y79.1740
G01 X8.1478 Y79.1615
G01 X8.1655 Y79.0887
G01 X8.1690 Y79.0765
G01 X8.1936 Y79.0057
G01 X8.1982 Y78.9938
G01 X8.2294 Y78.9257
G01 X8.2352 Y78.9144
G01 X8.2727 Y78.8495
G01 X8.2814 Y78.8361
G01 X8.3231 Y78.7778
G01 X8.3331 Y78.7653
G01 X8.3824 Y78.7089
G01 X8.3912 Y78.6997
G01 X8.4178 Y78.6746
G01 X8.3319 Y78.7380
G01 X8.2191 Y78.8058
G01 X8.2054 Y78.8132
G01 X8.0938 Y78.8659
G01 X8.0794 Y78.8719
G01 X7.9562 Y78.9157
G01 X7.8292 Y78.9477
G01 X7.8203 Y78.9497
G01 X7.6918 Y78.9689
G01 X7.6755 Y78.9705
G01 X7.5440 Y78.9768
G01 X7.4141 Y78.9705
G01 X7.3978 Y78.9689
G01 X7.2694 Y78.9497
G01 X7.2604 Y78.9477
G01 X7.1335 Y78.9157
G01 X7.0103 Y78.8719
G01 X7.0015 Y78.8684
G01 X6.8843 Y78.8132
G01 X6.8698 Y78.8054
G01 X6.7577 Y78.7380
G01 X6.6525 Y78.6602
G01 X6.6398 Y78.6498
G01 X6.5436 Y78.5624
G01 X6.4549 Y78.4650
G01 X6.4488 Y78.4578
G01 X6.3715 Y78.3538
G01 X6.3624 Y78.3401
G01 X6.2993 Y78.2350
G01 X6.2916 Y78.2205
G01 X6.2357 Y78.1018
G01 X6.1916 Y77.9790
G01 X6.1868 Y77.9633
G01 X6.1553 Y77.8370
G01 X6.1349 Y77.6995
G01 X6.1280 Y77.5606
G01 X6.1348 Y77.4213
G01 X6.1553 Y77.2828
G01 X6.1887 Y77.1496
G01 X6.1916 Y77.1408
G01 X6.2357 Y77.0181
G01 X6.2934 Y76.8956
G01 X6.2993 Y76.8849
G01 X6.3667 Y76.7728
G01 X6.4488 Y76.6621
G01 X6.4549 Y76.6549
G01 X6.5424 Y76.5587
G01 X6.6430 Y76.4672
G01 X6.6525 Y76.4596
G01 X6.7575 Y76.3820
G01 X6.8733 Y76.3124
G01 X6.8843 Y76.3067
G01 X6.9993 Y76.2523
G01 X7.0103 Y76.2480
G01 X7.0784 Y76.2236
G01 X6.6112 Y76.2236
G01 X5.9582 Y76.8765
G01 X5.9605 Y76.9224
G01 X5.9606 Y76.9336
G01 X5.9556 Y77.0362
G01 X5.9545 Y77.0487
G01 X5.9381 Y77.1583
G01 X5.9126 Y77.2608
G01 X5.9093 Y77.2722
G01 X5.8714 Y77.3774
G01 X5.8225 Y77.4806
G01 X5.7639 Y77.5783
G01 X5.7009 Y77.6637
G01 X5.6934 Y77.6731
G01 X5.6195 Y77.7544
G01 X5.5403 Y77.8265
G01 X5.5290 Y77.8358
G01 X5.4489 Y77.8953
G01 X5.4352 Y77.9044
G01 X5.3433 Y77.9593
G01 X5.2401 Y78.0080
G01 X5.1327 Y78.0464
G01 X5.0288 Y78.0726
G01 X5.0135 Y78.0756
G01 X4.9097 Y78.0909
G01 X4.9002 Y78.0916
G01 X4.7948 Y78.0967
G01 X4.6800 Y78.0911
G01 X4.5657 Y78.0741
G01 X4.4553 Y78.0464
G01 X4.3552 Y78.0108
G01 X4.3464 Y78.0074
G01 X4.2433 Y77.9585
G01 X4.1528 Y77.9044
G01 X4.1398 Y77.8958
G01 X4.0536 Y77.8316
G01 X3.9685 Y77.7544
G01 X3.8975 Y77.6763
G01 X3.8914 Y77.6691
G01 X3.8287 Y77.5849
G01 X3.8196 Y77.5712
G01 X3.7688 Y77.4865
G01 X3.7614 Y77.4726
G01 X3.7164 Y77.3772
G01 X3.6802 Y77.2765
G01 X3.6757 Y77.2620
G01 X3.6499 Y77.1583
G01 X3.6340 Y77.0525
G01 X3.6325 Y77.0379
G01 X3.6276 Y76.9382
G01 X3.6276 Y76.9218
G01 X3.6329 Y76.8160
G01 X3.6496 Y76.7034
G01 X3.6755 Y76.5989
G01 X3.6802 Y76.5836
G01 X3.7164 Y76.4828
G01 X3.7650 Y76.3803
G01 X3.8199 Y76.2882
G01 X3.8287 Y76.2751
G01 X3.8924 Y76.1896
G01 X3.9685 Y76.1056
G01 X4.0477 Y76.0335
G01 X4.0604 Y76.0231
G01 X4.1459 Y75.9599
G01 X4.2433 Y75.9015
G01 X4.3400 Y75.8555
G01 X4.3552 Y75.8492
G01 X4.4553 Y75.8136
G01 X4.5584 Y75.7876
G01 X4.5745 Y75.7844
G01 X4.6783 Y75.7691
G01 X4.6878 Y75.7684
G01 X4.7858 Y75.7636
G01 X4.7973 Y75.7634
G01 X4.9002 Y75.7684
G01 X4.9165 Y75.7700
G01 X5.0223 Y75.7859
G01 X5.1276 Y75.8121
G01 X5.1405 Y75.8162
G01 X5.2416 Y75.8526
G01 X5.3403 Y75.8992
G01 X5.3483 Y75.9035
G01 X5.3683 Y75.9155
G01 X6.0005 Y75.2834
G01 X6.0371 Y75.2506
G01 X6.0795 Y75.2193
G01 X6.1248 Y75.1921
G01 X6.1709 Y75.1700
G01 X6.1819 Y75.1657
G01 X6.2248 Y75.1505
G01 X6.2764 Y75.1376
G01 X6.3289 Y75.1297
G01 X6.3763 Y75.1271
G01 X7.1765 Y75.1269
G01 X7.1407 Y75.1179
G01 X7.1300 Y75.1148
G01 X7.0062 Y75.0705
G01 X6.9951 Y75.0657
G01 X6.8843 Y75.0133
G01 X6.8733 Y75.0076
G01 X6.7577 Y74.9382
G01 X6.6525 Y74.8604
G01 X6.6398 Y74.8500
G01 X6.5453 Y74.7642
G01 X6.5373 Y74.7560
G01 X6.4549 Y74.6651
G01 X6.4445 Y74.6524
G01 X6.3667 Y74.5472
G01 X6.2993 Y74.4351
G01 X6.2916 Y74.4206
G01 X6.2362 Y74.3033
G01 X6.1916 Y74.1792
G01 X6.1875 Y74.1663
G01 X6.1553 Y74.0372
G01 X6.1358 Y73.9071
G01 X6.1342 Y73.8908
G01 X6.1280 Y73.7608
G01 X6.1342 Y73.6294
G01 X6.1358 Y73.6131
G01 X6.1553 Y73.4830
G01 X6.1868 Y73.3567
G01 X6.1916 Y73.3410
G01 X6.2357 Y73.2183
G01 X6.2916 Y73.0995
G01 X6.2993 Y73.0850
G01 X6.3667 Y72.9730
G01 X6.4445 Y72.8677
G01 X6.4549 Y72.8550
G01 X6.5373 Y72.7642
G01 X6.5483 Y72.7531
G01 X6.6469 Y72.6641
G01 X6.7577 Y72.5820
G01 X6.8762 Y72.5110
G01 X6.9951 Y72.4544
G01 X7.0103 Y72.4481
G01 X7.1257 Y72.4068
G01 X7.1414 Y72.4021
G01 X7.2694 Y72.3703
G01 X7.3978 Y72.3511
G01 X7.4132 Y72.3495
G01 X7.5457 Y72.3432
G01 X7.6834 Y72.3500
G01 X7.8219 Y72.3706
G01 X7.9546 Y72.4038
G01 X7.9639 Y72.4068
G01 X8.0867 Y72.4509
G01 X8.2120 Y72.5102
G01 X8.3312 Y72.5815
G01 X8.4166 Y72.6445
G01 X8.3883 Y72.6177
G01 X8.3794 Y72.6086
G01 X8.3301 Y72.5522
G01 X8.3202 Y72.5396
G01 X8.2785 Y72.4814
G01 X8.2698 Y72.4679
G01 X8.2323 Y72.4031
G01 X8.2265 Y72.3918
G01 X8.1966 Y72.3266
G01 X8.1906 Y72.3118
G01 X8.1661 Y72.2410
G01 X8.1625 Y72.2288
G01 X8.1449 Y72.1560
G01 X8.1425 Y72.1434
G01 X8.1319 Y72.0693
G01 X8.1308 Y72.0566
G01 X8.1273 Y71.9850
G01 X8.1273 Y71.9722
G01 X8.1308 Y71.8974
G01 X8.1319 Y71.8847
G01 X8.1425 Y71.8106
G01 X8.1449 Y71.7980
G01 X8.1625 Y71.7252
G01 X8.1661 Y71.7130
G01 X8.1906 Y71.6422
G01 X8.1966 Y71.6274
G01 X8.2265 Y71.5622
G01 X8.2323 Y71.5509
G01 X8.2698 Y71.4861
G01 X8.2785 Y71.4726
G01 X8.3202 Y71.4144
G01 X8.3301 Y71.4018
G01 X8.3794 Y71.3454
G01 X8.3883 Y71.3363
G01 X8.4166 Y71.3095
G01 X8.3319 Y71.3720
G01 X8.2191 Y71.4398
G01 X8.2054 Y71.4472
G01 X8.0938 Y71.4999
G01 X8.0794 Y71.5059
G01 X7.9562 Y71.5497
G01 X7.8292 Y71.5817
G01 X7.8203 Y71.5837
G01 X7.6918 Y71.6029
G01 X7.6755 Y71.6045
G01 X7.5440 Y71.6108
G01 X7.4141 Y71.6045
G01 X7.3978 Y71.6029
G01 X7.2694 Y71.5837
G01 X7.1414 Y71.5519
G01 X7.1309 Y71.5489
G01 X7.0103 Y71.5059
G01 X6.9951 Y71.4996
G01 X6.8776 Y71.4438
G01 X6.7646 Y71.3764
G01 X6.7510 Y71.3673
G01 X6.6469 Y71.2899
G01 X6.6398 Y71.2838
G01 X6.5436 Y71.1964
G01 X6.4549 Y71.0990
G01 X6.4488 Y71.0918
G01 X6.3715 Y70.9878
G01 X6.3624 Y70.9741
G01 X6.2993 Y70.8690
G01 X6.2916 Y70.8545
G01 X6.2357 Y70.7358
G01 X6.1916 Y70.6130
G01 X6.1868 Y70.5973
G01 X6.1553 Y70.4710
G01 X6.1349 Y70.3335
G01 X6.1280 Y70.1946
G01 X6.1348 Y70.0553
G01 X6.1553 Y69.9168
G01 X6.1887 Y69.7836
G01 X6.1916 Y69.7748
G01 X6.2357 Y69.6521
G01 X6.2934 Y69.5296
G01 X6.2993 Y69.5189
G01 X6.3667 Y69.4068
G01 X6.4488 Y69.2961
G01 X6.4549 Y69.2889
G01 X6.5424 Y69.1927
G01 X6.6430 Y69.1012
G01 X6.6525 Y69.0936
G01 X6.7575 Y69.0160
G01 X6.8733 Y68.9464
G01 X6.8843 Y68.9407
G01 X6.9993 Y68.8863
G01 X7.0103 Y68.8820
G01 X7.0784 Y68.8576
G01 X6.6112 Y68.8576
G01 X5.9582 Y69.5105
G01 X5.9605 Y69.5564
G01 X5.9606 Y69.5676
G01 X5.9556 Y69.6702
G01 X5.9545 Y69.6827
G01 X5.9381 Y69.7923
G01 X5.9126 Y69.8948
G01 X5.9093 Y69.9062
G01 X5.8714 Y70.0114
G01 X5.8230 Y70.1137
G01 X5.7641 Y70.2121
G01 X5.6966 Y70.3031
G01 X5.6246 Y70.3830
G01 X5.6130 Y70.3946
G01 X5.5332 Y70.4666
G01 X5.4423 Y70.5339
G01 X5.3511 Y70.5889
G01 X5.3366 Y70.5966
G01 X5.2401 Y70.6420
G01 X5.1327 Y70.6804
G01 X5.0223 Y70.7081
G01 X4.9081 Y70.7251
G01 X4.7932 Y70.7307
G01 X4.6800 Y70.7251
G01 X4.5657 Y70.7081
G01 X4.4553 Y70.6804
G01 X4.3479 Y70.6420
G01 X4.2433 Y70.5925
G01 X4.1457 Y70.5339
G01 X4.0536 Y70.4656
G01 X3.9685 Y70.3884
G01 X3.8975 Y70.3103
G01 X3.8914 Y70.3031
G01 X3.8239 Y70.2121
G01 X3.7650 Y70.1137
G01 X3.7160 Y70.0101
G01 X3.6802 Y69.9105
G01 X3.6764 Y69.8985
G01 X3.6499 Y69.7923
G01 X3.6339 Y69.6857
G01 X3.6324 Y69.6706
G01 X3.6276 Y69.5722
G01 X3.6276 Y69.5558
G01 X3.6324 Y69.4578
G01 X3.6331 Y69.4483
G01 X3.6499 Y69.3357
G01 X3.6772 Y69.2266
G01 X3.6802 Y69.2176
G01 X3.7132 Y69.1252
G01 X3.7192 Y69.1107
G01 X3.7614 Y69.0214
G01 X3.7692 Y69.0069
G01 X3.8239 Y68.9159
G01 X3.8924 Y68.8236
G01 X3.9685 Y68.7396
G01 X4.0477 Y68.6675
G01 X4.0604 Y68.6571
G01 X4.1398 Y68.5982
G01 X4.1520 Y68.5900
G01 X4.2433 Y68.5355
G01 X4.3400 Y68.4895
G01 X4.3552 Y68.4832
G01 X4.4553 Y68.4476
G01 X4.5584 Y68.4216
G01 X4.5745 Y68.4184
G01 X4.6800 Y68.4029
G01 X4.7891 Y68.3974
G01 X4.8022 Y68.3976
G01 X4.9002 Y68.4024
G01 X4.9165 Y68.4040
G01 X5.0223 Y68.4199
G01 X5.1276 Y68.4461
G01 X5.1405 Y68.4502
G01 X5.2416 Y68.4866
G01 X5.3403 Y68.5332
G01 X5.3483 Y68.5375
G01 X5.3683 Y68.5495
G01 X6.0005 Y67.9174
G01 X6.0371 Y67.8846
G01 X6.0795 Y67.8533
G01 X6.1248 Y67.8261
G01 X6.1709 Y67.8040
G01 X6.1819 Y67.7997
G01 X6.2248 Y67.7845
G01 X6.2764 Y67.7716
G01 X6.3289 Y67.7637
G01 X6.3763 Y67.7611
G01 X7.1765 Y67.7609
G01 X7.1407 Y67.7519
G01 X7.1300 Y67.7488
G01 X7.0062 Y67.7045
G01 X6.9951 Y67.6997
G01 X6.8805 Y67.6455
G01 X6.8698 Y67.6396
G01 X6.7577 Y67.5722
G01 X6.6486 Y67.4914
G01 X6.6398 Y67.4840
G01 X6.5436 Y67.3965
G01 X6.4498 Y67.2932
G01 X6.3669 Y67.1814
G01 X6.2967 Y67.0645
G01 X6.2916 Y67.0546
G01 X6.2362 Y66.9373
G01 X6.2329 Y66.9286
G01 X6.1890 Y66.8054
G01 X6.1553 Y66.6712
G01 X6.1349 Y66.5336
G01 X6.1280 Y66.3934
G01 X6.1349 Y66.2546
G01 X6.1553 Y66.1170
G01 X6.1868 Y65.9907
G01 X6.1901 Y65.9793
G01 X6.2329 Y65.8595
G01 X6.2392 Y65.8444
G01 X6.2951 Y65.7265
G01 X6.3624 Y65.6139
G01 X6.3715 Y65.6002
G01 X6.4488 Y65.4962
G01 X6.4549 Y65.4890
G01 X6.5436 Y65.3916
G01 X6.6398 Y65.3042
G01 X6.6469 Y65.2981
G01 X6.7510 Y65.2207
G01 X6.7646 Y65.2116
G01 X6.8776 Y65.1442
G01 X6.9951 Y65.0884
G01 X7.0103 Y65.0821
G01 X7.1309 Y65.0391
G01 X7.1414 Y65.0361
G01 X7.2694 Y65.0043
G01 X7.3978 Y64.9851
G01 X7.4141 Y64.9835
G01 X7.5457 Y64.9772
G01 X7.6755 Y64.9835
G01 X7.6918 Y64.9851
G01 X7.8203 Y65.0043
G01 X7.8292 Y65.0063
G01 X7.9562 Y65.0383
G01 X8.0794 Y65.0821
G01 X8.0938 Y65.0881
G01 X8.2054 Y65.1408
G01 X8.2191 Y65.1482
G01 X8.3319 Y65.2160
G01 X8.4166 Y65.2785
G01 X8.3883 Y65.2517
G01 X8.3794 Y65.2426
G01 X8.3301 Y65.1862
G01 X8.3202 Y65.1736
G01 X8.2785 Y65.1154
G01 X8.2698 Y65.1019
G01 X8.2323 Y65.0371
G01 X8.2265 Y65.0258
G01 X8.1966 Y64.9606
G01 X8.1906 Y64.9458
G01 X8.1661 Y64.8750
G01 X8.1625 Y64.8628
G01 X8.1449 Y64.7900
G01 X8.1425 Y64.7774
G01 X8.1319 Y64.7033
G01 X8.1308 Y64.6906
G01 X8.1273 Y64.6190
G01 X8.1273 Y64.6062
G01 X8.1308 Y64.5314
G01 X8.1319 Y64.5187
G01 X8.1425 Y64.4446
G01 X8.1449 Y64.4320
G01 X8.1625 Y64.3592
G01 X8.1661 Y64.3470
G01 X8.1906 Y64.2762
G01 X8.1966 Y64.2614
G01 X8.2265 Y64.1962
G01 X8.2323 Y64.1849
G01 X8.2698 Y64.1201
G01 X8.2785 Y64.1066
G01 X8.3202 Y64.0484
G01 X8.3301 Y64.0358
G01 X8.3794 Y63.9794
G01 X8.3883 Y63.9703
G01 X8.4166 Y63.9435
G01 X8.3319 Y64.0060
G01 X8.2191 Y64.0738
G01 X8.2061 Y64.0808
G01 X8.0938 Y64.1339
G01 X8.0794 Y64.1399
G01 X7.9562 Y64.1837
G01 X7.8284 Y64.2159
G01 X7.8132 Y64.2189
G01 X7.6850 Y64.2378
G01 X7.6755 Y64.2385
G01 X7.5457 Y64.2448
G01 X7.4062 Y64.2380
G01 X7.2677 Y64.2174
G01 X7.1335 Y64.1837
G01 X7.0103 Y64.1399
G01 X7.0015 Y64.1364
G01 X6.8762 Y64.0770
G01 X6.7646 Y64.0104
G01 X6.7510 Y64.0013
G01 X6.6521 Y63.9279
G01 X6.6398 Y63.9178
G01 X6.5427 Y63.8295
G01 X6.4549 Y63.7330
G01 X6.4445 Y63.7203
G01 X6.3669 Y63.6152
G01 X6.2956 Y63.4965
G01 X6.2357 Y63.3698
G01 X6.1915 Y63.2469
G01 X6.1887 Y63.2382
G01 X6.1551 Y63.1036
G01 X6.1358 Y62.9746
G01 X6.1342 Y62.9588
G01 X6.1282 Y62.8357
G01 X6.1282 Y62.8197
G01 X6.1348 Y62.6887
G01 X6.1538 Y62.5596
G01 X6.1570 Y62.5435
G01 X6.1887 Y62.4176
G01 X6.2344 Y62.2893
G01 X6.2392 Y62.2782
G01 X6.2951 Y62.1603
G01 X6.3667 Y62.0408
G01 X6.4498 Y61.9288
G01 X6.5373 Y61.8320
G01 X6.5459 Y61.8232
G01 X6.6398 Y61.7380
G01 X6.6469 Y61.7319
G01 X6.7510 Y61.6546
G01 X6.7617 Y61.6472
G01 X6.8698 Y61.5824
G01 X6.8828 Y61.5754
G01 X7.0015 Y61.5194
G01 X7.0784 Y61.4916
G01 X6.6112 Y61.4916
G01 X5.9582 Y62.1445
G01 X5.9605 Y62.1916
G01 X5.9606 Y62.2019
G01 X5.9556 Y62.3048
G01 X5.9545 Y62.3167
G01 X5.9382 Y62.4260
G01 X5.9126 Y62.5288
G01 X5.9093 Y62.5402
G01 X5.8714 Y62.6454
G01 X5.8230 Y62.7477
G01 X5.7641 Y62.8461
G01 X5.6964 Y62.9375
G01 X5.6246 Y63.0170
G01 X5.6130 Y63.0286
G01 X5.5332 Y63.1006
G01 X5.4421 Y63.1681
G01 X5.3447 Y63.2265
G01 X5.2480 Y63.2725
G01 X5.2328 Y63.2788
G01 X5.1405 Y63.3118
G01 X5.1283 Y63.3157
G01 X5.0206 Y63.3424
G01 X4.9081 Y63.3591
G01 X4.7932 Y63.3647
G01 X4.6878 Y63.3596
G01 X4.6783 Y63.3589
G01 X4.5657 Y63.3421
G01 X4.4553 Y63.3144
G01 X4.3552 Y63.2788
G01 X4.3464 Y63.2754
G01 X4.2507 Y63.2303
G01 X4.2369 Y63.2229
G01 X4.1520 Y63.1720
G01 X4.1391 Y63.1633
G01 X4.0536 Y63.0996
G01 X3.9750 Y63.0286
G01 X3.9634 Y63.0170
G01 X3.8924 Y62.9384
G01 X3.8287 Y62.8529
G01 X3.8199 Y62.8398
G01 X3.7651 Y62.7479
G01 X3.7164 Y62.6452
G01 X3.6776 Y62.5367
G01 X3.6515 Y62.4331
G01 X3.6895 Y62.8855
G01 X3.6895 Y63.5897
G01 X3.9431 Y63.5897
G01 X3.9640 Y63.5905
G01 X3.9773 Y63.5917
G01 X3.9902 Y63.5934
G01 X4.0036 Y63.5958
G01 X4.0182 Y63.5992
G01 X4.0324 Y63.6032
G01 X4.0450 Y63.6074
G01 X4.0599 Y63.6132
G01 X4.0728 Y63.6189
G01 X4.0899 Y63.6277
G01 X4.1057 Y63.6372
G01 X4.1217 Y63.6481
G01 X4.1347 Y63.6582
G01 X4.1478 Y63.6695
G01 X4.1622 Y63.6837
G01 X4.1747 Y63.6976
G01 X4.1871 Y63.7134
G01 X4.1975 Y63.7286
G01 X4.2084 Y63.7469
G01 X4.2165 Y63.7629
G01 X4.2239 Y63.7798
G01 X4.2314 Y63.8009
G01 X4.2363 Y63.8176
G01 X4.2403 Y63.8360
G01 X4.2432 Y63.8548
G01 X4.2629 Y63.8486
G01 X4.2771 Y63.8450
G01 X4.2889 Y63.8425
G01 X4.3018 Y63.8404
G01 X4.3142 Y63.8389
G01 X4.3391 Y63.8374
G01 X5.2438 Y63.8374
G01 X5.2589 Y63.8377
G01 X5.2749 Y63.8390
G01 X5.2919 Y63.8413
G01 X5.3101 Y63.8448
G01 X5.3312 Y63.8503
G01 X5.3477 Y63.8559
G01 X5.3614 Y63.8612
G01 X5.3788 Y63.8693
G01 X5.3951 Y63.8781
G01 X5.4103 Y63.8874
G01 X5.4232 Y63.8965
G01 X5.4365 Y63.9068
G01 X5.4485 Y63.9174
G01 X5.4620 Y63.9307
G01 X5.4753 Y63.9454
G01 X5.4857 Y63.9585
G01 X5.4953 Y63.9721
G01 X5.5059 Y63.9892
G01 X5.5147 Y64.0058
G01 X5.5229 Y64.0238
G01 X5.5298 Y64.0421
G01 X5.5353 Y64.0597
G01 X5.5401 Y64.0799
G01 X5.5430 Y64.0971
G01 X5.5451 Y64.1154
G01 X5.5460 Y64.1321
G01 X5.5460 Y65.5950
G01 X5.5456 Y65.6074
G01 X5.5446 Y65.6204
G01 X5.5430 Y65.6329
G01 X5.5408 Y65.6462
G01 X5.5355 Y65.6695
G01 X5.5320 Y65.6813
G01 X5.5276 Y65.6942
G01 X5.5229 Y65.7062
G01 X5.5172 Y65.7190
G01 X5.5113 Y65.7310
G01 X5.5051 Y65.7421
G01 X5.4927 Y65.7618
G01 X5.4777 Y65.7817
G01 X5.4777 Y65.9173
G01 X5.5097 Y65.9365
G01 X5.5242 Y65.9462
G01 X5.6093 Y66.0092
G01 X5.6258 Y66.0225
G01 X5.7040 Y66.0933
G01 X5.7152 Y66.1040
G01 X5.7247 Y66.1140
G01 X5.7965 Y66.1934
G01 X5.8086 Y66.2085
G01 X5.8685 Y66.2892
G01 X5.8767 Y66.3009
G01 X5.8845 Y66.3132
G01 X5.9352 Y66.3979
G01 X5.9433 Y66.4123
G01 X5.9911 Y66.5127
G01 X5.9990 Y66.5311
G01 X5.9930 Y66.4085
G01 X5.9927 Y66.3934
G01 X5.9930 Y66.3797
G01 X5.9990 Y66.2568
G01 X6.0001 Y66.2426
G01 X6.0017 Y66.2293
G01 X6.0199 Y66.1059
G01 X6.0223 Y66.0923
G01 X6.0253 Y66.0784
G01 X6.0587 Y65.9462
G01 X6.0639 Y65.9301
G01 X6.1055 Y65.8139
G01 X6.1106 Y65.8007
G01 X6.1162 Y65.7879
G01 X6.1749 Y65.6643
G01 X6.1833 Y65.6495
G01 X6.2529 Y65.5337
G01 X6.2628 Y65.5196
G01 X6.3360 Y65.4209
G01 X6.3440 Y65.4106
G01 X6.3545 Y65.3983
G01 X6.4375 Y65.3068
G01 X6.4479 Y65.2960
G01 X6.4580 Y65.2863
G01 X6.5504 Y65.2026
G01 X6.5600 Y65.1943
G01 X6.5708 Y65.1859
G01 X6.6705 Y65.1119
G01 X6.6831 Y65.1031
G01 X6.6950 Y65.0956
G01 X6.8112 Y65.0262
G01 X6.8258 Y65.0188
G01 X6.9380 Y64.9658
G01 X6.9509 Y64.9600
G01 X6.9641 Y64.9550
G01 X7.0804 Y64.9133
G01 X7.0943 Y64.9088
G01 X7.1084 Y64.9048
G01 X7.2300 Y64.8744
G01 X7.2431 Y64.8715
G01 X7.2548 Y64.8695
G01 X7.3779 Y64.8512
G01 X7.3910 Y64.8496
G01 X7.4057 Y64.8484
G01 X7.5302 Y64.8423
G01 X7.5457 Y64.8419
G01 X7.5595 Y64.8423
G01 X7.6848 Y64.8485
G01 X7.6987 Y64.8496
G01 X7.7111 Y64.8511
G01 X7.8338 Y64.8693
G01 X7.8525 Y64.8728
G01 X7.9875 Y64.9065
G01 X8.0041 Y64.9116
G01 X8.0399 Y64.9243
G01 X8.0363 Y64.9133
G01 X8.0311 Y64.8948
G01 X8.0135 Y64.8228
G01 X8.0087 Y64.7976
G01 X7.9982 Y64.7250
G01 X7.9962 Y64.7059
G01 X7.9922 Y64.6255
G01 X7.9919 Y64.6062
G01 X7.9963 Y64.5153
G01 X7.9982 Y64.4970
G01 X8.0087 Y64.4244
G01 X8.0135 Y64.3992
G01 X8.0311 Y64.3272
G01 X8.0363 Y64.3087
G01 X8.0399 Y64.2977
G01 X8.0041 Y64.3104
G01 X7.9875 Y64.3155
G01 X7.8529 Y64.3492
G01 X7.8338 Y64.3527
G01 X7.7115 Y64.3708
G01 X7.6883 Y64.3733
G01 X7.5595 Y64.3797
G01 X7.5457 Y64.3801
G01 X7.5302 Y64.3797
G01 X7.4075 Y64.3737
G01 X7.3930 Y64.3726
G01 X7.3797 Y64.3710
G01 X7.2478 Y64.3514
G01 X7.2277 Y64.3471
G01 X7.1080 Y64.3171
G01 X7.0935 Y64.3130
G01 X7.0804 Y64.3087
G01 X6.9639 Y64.2670
G01 X6.9509 Y64.2620
G01 X6.9378 Y64.2562
G01 X6.8259 Y64.2033
G01 X6.8138 Y64.1972
G01 X6.8004 Y64.1896
G01 X6.6948 Y64.1263
G01 X6.6827 Y64.1186
G01 X6.6718 Y64.1110
G01 X6.5654 Y64.0320
G01 X6.5491 Y64.0182
G01 X6.4579 Y63.9356
G01 X6.4466 Y63.9248
G01 X6.4372 Y63.9149
G01 X6.3535 Y63.8225
G01 X6.3444 Y63.8119
G01 X6.3362 Y63.8014
G01 X6.2627 Y63.7022
G01 X6.2542 Y63.6902
G01 X6.2465 Y63.6781
G01 X6.1829 Y63.5720
G01 X6.1760 Y63.5597
G01 X6.1700 Y63.5479
G01 X6.1117 Y63.4240
G01 X6.1055 Y63.4081
G01 X6.0640 Y63.2923
G01 X6.0590 Y63.2767
G01 X6.0556 Y63.2644
G01 X6.0255 Y63.1441
G01 X6.0225 Y63.1309
G01 X6.0201 Y63.1172
G01 X6.0016 Y62.9926
G01 X6.0001 Y62.9793
G01 X5.9990 Y62.9653
G01 X5.9930 Y62.8424
G01 X5.9927 Y62.8285
G01 X5.9930 Y62.8135
G01 X5.9990 Y62.6909
G01 X5.9915 Y62.7084
G01 X5.9486 Y62.7991
G01 X5.9426 Y62.8111
G01 X5.9358 Y62.8232
G01 X5.8843 Y62.9092
G01 X5.8766 Y62.9213
G01 X5.8684 Y62.9330
G01 X5.8092 Y63.0127
G01 X5.8010 Y63.0232
G01 X5.7919 Y63.0339
G01 X5.7245 Y63.1083
G01 X5.7149 Y63.1184
G01 X5.7043 Y63.1285
G01 X5.6299 Y63.1959
G01 X5.6188 Y63.2054
G01 X5.6083 Y63.2136
G01 X5.5290 Y63.2724
G01 X5.5173 Y63.2806
G01 X5.5050 Y63.2884
G01 X5.4200 Y63.3393
G01 X5.4085 Y63.3458
G01 X5.3961 Y63.3521
G01 X5.3053 Y63.3951
G01 X5.2906 Y63.4015
G01 X5.2786 Y63.4061
G01 X5.1860 Y63.4393
G01 X5.1727 Y63.4437
G01 X5.1582 Y63.4477
G01 X5.0623 Y63.4718
G01 X5.0486 Y63.4748
G01 X5.0342 Y63.4774
G01 X4.9356 Y63.4920
G01 X4.9167 Y63.4941
G01 X4.8088 Y63.4996
G01 X4.7948 Y63.5000
G01 X4.7798 Y63.4996
G01 X4.7792 Y63.4996
G01 X4.6812 Y63.4948
G01 X4.6667 Y63.4937
G01 X4.6534 Y63.4921
G01 X4.5544 Y63.4775
G01 X4.5411 Y63.4752
G01 X4.5261 Y63.4719
G01 X4.4289 Y63.4475
G01 X4.4161 Y63.4439
G01 X4.4026 Y63.4395
G01 X4.3094 Y63.4061
G01 X4.2959 Y63.4009
G01 X4.2824 Y63.3949
G01 X4.2822 Y63.3949
G01 X4.1935 Y63.3529
G01 X4.1881 Y63.3503
G01 X4.1688 Y63.3398
G01 X4.0830 Y63.2884
G01 X4.0709 Y63.2807
G01 X4.0598 Y63.2730
G01 X3.9794 Y63.2133
G01 X3.9679 Y63.2043
G01 X3.9570 Y63.1949
G01 X3.8803 Y63.1254
G01 X3.8633 Y63.1080
G01 X3.7967 Y63.0346
G01 X3.7847 Y63.0204
G01 X3.7158 Y62.9277
G01 X3.7064 Y62.9135
G01 X3.6895 Y62.8855
G01 X3.7572 Y63.0917
G01 X3.7572 Y63.5220
G01 X3.9450 Y63.5220
G01 X3.9620 Y63.5225
G01 X3.9802 Y63.5239
G01 X3.9961 Y63.5259
G01 X4.0106 Y63.5283
G01 X4.0300 Y63.5324
G01 X4.0440 Y63.5361
G01 X4.0563 Y63.5398
G01 X4.0708 Y63.5448
G01 X4.0858 Y63.5507
G01 X4.1008 Y63.5573
G01 X4.1168 Y63.5654
G01 X4.1334 Y63.5747
G01 X4.1490 Y63.5846
G01 X4.1637 Y63.5950
G01 X4.1776 Y63.6058
G01 X4.1919 Y63.6181
G01 X4.2055 Y63.6311
G01 X4.2184 Y63.6447
G01 X4.2297 Y63.6579
G01 X4.2409 Y63.6724
G01 X4.2522 Y63.6886
G01 X4.2617 Y63.7038
G01 X4.2713 Y63.7211
G01 X4.2787 Y63.7361
G01 X4.2867 Y63.7545
G01 X4.2936 Y63.7732
G01 X4.3073 Y63.7716
G01 X4.3199 Y63.7705
G01 X4.3444 Y63.7697
G01 X5.2444 Y63.7697
G01 X5.2678 Y63.7705
G01 X5.2916 Y63.7728
G01 X5.3120 Y63.7761
G01 X5.3303 Y63.7800
G01 X5.3512 Y63.7857
G01 X5.3689 Y63.7916
G01 X5.3862 Y63.7983
G01 X5.4051 Y63.8068
G01 X5.4203 Y63.8146
G01 X5.4380 Y63.8249
G01 X5.4564 Y63.8370
G01 X5.4726 Y63.8491
G01 X5.4875 Y63.8614
G01 X5.5014 Y63.8743
G01 X5.5126 Y63.8857
G01 X5.5279 Y63.9028
G01 X5.5399 Y63.9180
G01 X5.5514 Y63.9343
G01 X5.5654 Y63.9570
G01 X5.5767 Y63.9785
G01 X5.5871 Y64.0019
G01 X5.5960 Y64.0267
G01 X5.6026 Y64.0498
G01 X5.6077 Y64.0737
G01 X5.6100 Y64.0876
G01 X5.6117 Y64.1008
G01 X5.6135 Y64.1256
G01 X5.6137 Y64.1398
G01 X5.6137 Y65.5909
G01 X5.6134 Y65.6047
G01 X5.6126 Y65.6188
G01 X5.6114 Y65.6318
G01 X5.6093 Y65.6473
G01 X5.6065 Y65.6627
G01 X5.6036 Y65.6762
G01 X5.5964 Y65.7020
G01 X5.5915 Y65.7166
G01 X5.5862 Y65.7303
G01 X5.5749 Y65.7552
G01 X5.5689 Y65.7666
G01 X5.5614 Y65.7798
G01 X5.5534 Y65.7927
G01 X5.5457 Y65.8039
G01 X5.5455 Y65.8791
G01 X5.5570 Y65.8866
G01 X5.5688 Y65.8949
G01 X5.6490 Y65.9544
G01 X5.6612 Y65.9639
G01 X5.6766 Y65.9771
G01 X5.7499 Y66.0436
G01 X5.7613 Y66.0544
G01 X5.7749 Y66.0686
G01 X5.8415 Y66.1420
G01 X5.8524 Y66.1547
G01 X5.8639 Y66.1694
G01 X5.9226 Y66.2485
G01 X5.9311 Y66.2606
G01 X5.9323 Y66.2414
G01 X5.9343 Y66.2226
G01 X5.9531 Y66.0957
G01 X5.9555 Y66.0814
G01 X5.9600 Y66.0607
G01 X5.9900 Y65.9410
G01 X5.9943 Y65.9253
G01 X6.0001 Y65.9075
G01 X6.0418 Y65.7912
G01 X6.0490 Y65.7725
G01 X6.0555 Y65.7579
G01 X6.1090 Y65.6448
G01 X6.1159 Y65.6312
G01 X6.1236 Y65.6174
G01 X6.1906 Y65.5057
G01 X6.1988 Y65.4929
G01 X6.2085 Y65.4793
G01 X6.2820 Y65.3802
G01 X6.2928 Y65.3664
G01 X6.3043 Y65.3530
G01 X6.3870 Y65.2618
G01 X6.3987 Y65.2494
G01 X6.4108 Y65.2378
G01 X6.5037 Y65.1536
G01 X6.5153 Y65.1435
G01 X6.5306 Y65.1315
G01 X6.6362 Y65.0532
G01 X6.6471 Y65.0458
G01 X6.6594 Y65.0380
G01 X6.7658 Y64.9743
G01 X6.7799 Y64.9663
G01 X6.7975 Y64.9574
G01 X6.9090 Y64.9046
G01 X6.9251 Y64.8975
G01 X6.9415 Y64.8912
G01 X7.0574 Y64.8497
G01 X7.0753 Y64.8438
G01 X7.0914 Y64.8393
G01 X7.2119 Y64.8092
G01 X7.2379 Y64.8037
G01 X7.3684 Y64.7842
G01 X7.3877 Y64.7819
G01 X7.4037 Y64.7807
G01 X7.5278 Y64.7747
G01 X7.5421 Y64.7743
G01 X7.5561 Y64.7744
G01 X7.6877 Y64.7808
G01 X7.7020 Y64.7819
G01 X7.7155 Y64.7834
G01 X7.8432 Y64.8023
G01 X7.8573 Y64.8047
G01 X7.8764 Y64.8088
G01 X7.9451 Y64.8260
G01 X7.9418 Y64.8076
G01 X7.9314 Y64.7355
G01 X7.9289 Y64.7132
G01 X7.9280 Y64.7007
G01 X7.9246 Y64.6283
G01 X7.9243 Y64.6062
G01 X7.9246 Y64.5937
G01 X7.9280 Y64.5213
G01 X7.9299 Y64.4989
G01 X7.9417 Y64.4152
G01 X7.9451 Y64.3960
G01 X7.8762 Y64.4132
G01 X7.8549 Y64.4177
G01 X7.7136 Y64.4388
G01 X7.6986 Y64.4404
G01 X7.6856 Y64.4413
G01 X7.5617 Y64.4474
G01 X7.5379 Y64.4477
G01 X7.4015 Y64.4411
G01 X7.3842 Y64.4398
G01 X7.3681 Y64.4377
G01 X7.2459 Y64.4196
G01 X7.2281 Y64.4165
G01 X7.2115 Y64.4127
G01 X7.0853 Y64.3811
G01 X7.0729 Y64.3775
G01 X7.0582 Y64.3726
G01 X6.9415 Y64.3308
G01 X6.9249 Y64.3244
G01 X6.9090 Y64.3174
G01 X6.7955 Y64.2637
G01 X6.7819 Y64.2568
G01 X6.7675 Y64.2487
G01 X6.6599 Y64.1843
G01 X6.6450 Y64.1748
G01 X6.6307 Y64.1648
G01 X6.5315 Y64.0912
G01 X6.5186 Y64.0812
G01 X6.5058 Y64.0703
G01 X6.4104 Y63.9838
G01 X6.3991 Y63.9730
G01 X6.3883 Y63.9617
G01 X6.3043 Y63.8690
G01 X6.2939 Y63.8569
G01 X6.2817 Y63.8414
G01 X6.2082 Y63.7424
G01 X6.1996 Y63.7303
G01 X6.1884 Y63.7127
G01 X6.1250 Y63.6070
G01 X6.1171 Y63.5930
G01 X6.1085 Y63.5760
G01 X6.0553 Y63.4637
G01 X6.0488 Y63.4490
G01 X6.0426 Y63.4332
G01 X5.9962 Y63.3028
G01 X5.9902 Y63.2817
G01 X5.9600 Y63.1611
G01 X5.9564 Y63.1452
G01 X5.9536 Y63.1299
G01 X5.9349 Y63.0038
G01 X5.9325 Y62.9835
G01 X5.9311 Y62.9614
G01 X5.9226 Y62.9735
G01 X5.8637 Y63.0528
G01 X5.8513 Y63.0686
G01 X5.8412 Y63.0803
G01 X5.7731 Y63.1554
G01 X5.7624 Y63.1666
G01 X5.7500 Y63.1784
G01 X5.6760 Y63.2455
G01 X5.6631 Y63.2566
G01 X5.6495 Y63.2672
G01 X5.5698 Y63.3263
G01 X5.5571 Y63.3353
G01 X5.5447 Y63.3434
G01 X5.4537 Y63.3980
G01 X5.4404 Y63.4055
G01 X5.4258 Y63.4130
G01 X5.3344 Y63.4562
G01 X5.3203 Y63.4625
G01 X5.3013 Y63.4699
G01 X5.2080 Y63.5033
G01 X5.1915 Y63.5087
G01 X5.1749 Y63.5133
G01 X5.0789 Y63.5373
G01 X5.0593 Y63.5417
G01 X5.0437 Y63.5444
G01 X5.0433 Y63.5444
G01 X4.9463 Y63.5588
G01 X4.9441 Y63.5591
G01 X4.9285 Y63.5610
G01 X4.9134 Y63.5622
G01 X4.8064 Y63.5674
G01 X4.7915 Y63.5676
G01 X4.7758 Y63.5672
G01 X4.6770 Y63.5623
G01 X4.6597 Y63.5610
G01 X4.6426 Y63.5589
G01 X4.5438 Y63.5443
G01 X4.5279 Y63.5415
G01 X4.5115 Y63.5379
G01 X4.4136 Y63.5134
G01 X4.3993 Y63.5095
G01 X4.3795 Y63.5031
G01 X4.2864 Y63.4698
G01 X4.2716 Y63.4641
G01 X4.2533 Y63.4560
G01 X4.1631 Y63.4134
G01 X4.1468 Y63.4051
G01 X4.1333 Y63.3974
G01 X4.0465 Y63.3454
G01 X4.0332 Y63.3369
G01 X4.0208 Y63.3282
G01 X4.0182 Y63.3263
G01 X3.9394 Y63.2679
G01 X3.9361 Y63.2654
G01 X3.9245 Y63.2562
G01 X3.9123 Y63.2457
G01 X3.8381 Y63.1784
G01 X3.8265 Y63.1675
G01 X3.8137 Y63.1541
G01 X3.7572 Y63.0917
G01 X3.8248 Y63.2578
G01 X3.8248 Y63.4544
G01 X3.9514 Y63.4545
G01 X3.9651 Y63.4549
G01 X3.9805 Y63.4560
G01 X4.0050 Y63.4588
G01 X4.0226 Y63.4617
G01 X4.0404 Y63.4654
G01 X4.0546 Y63.4688
G01 X4.0716 Y63.4737
G01 X4.0877 Y63.4790
G01 X4.1002 Y63.4836
G01 X4.1171 Y63.4904
G01 X4.1326 Y63.4975
G01 X4.1488 Y63.5057
G01 X4.1665 Y63.5157
G01 X4.1819 Y63.5253
G01 X4.1973 Y63.5358
G01 X4.2116 Y63.5464
G01 X4.2242 Y63.5566
G01 X4.2379 Y63.5685
G01 X4.2527 Y63.5827
G01 X4.2660 Y63.5965
G01 X4.2773 Y63.6093
G01 X4.2896 Y63.6246
G01 X4.2992 Y63.6376
G01 X4.3093 Y63.6523
G01 X4.3192 Y63.6681
G01 X4.3288 Y63.6851
G01 X4.3375 Y63.7021
G01 X5.2448 Y63.7020
G01 X5.2737 Y63.7031
G01 X5.2884 Y63.7043
G01 X5.3058 Y63.7065
G01 X5.3285 Y63.7103
G01 X5.3480 Y63.7147
G01 X5.3712 Y63.7210
G01 X5.3933 Y63.7285
G01 X5.4127 Y63.7360
G01 X5.4344 Y63.7458
G01 X5.4522 Y63.7549
G01 X5.4711 Y63.7658
G01 X5.4885 Y63.7770
G01 X5.5066 Y63.7899
G01 X5.5231 Y63.8029
G01 X5.5406 Y63.8182
G01 X5.5558 Y63.8330
G01 X5.5729 Y63.8514
G01 X5.5860 Y63.8671
G01 X5.6000 Y63.8856
G01 X5.6092 Y63.8991
G01 X5.6194 Y63.9153
G01 X5.6279 Y63.9302
G01 X5.6354 Y63.9446
G01 X5.6418 Y63.9581
G01 X5.6488 Y63.9740
G01 X5.6550 Y63.9903
G01 X5.6606 Y64.0066
G01 X5.6655 Y64.0232
G01 X5.6692 Y64.0374
G01 X5.6729 Y64.0539
G01 X5.6760 Y64.0717
G01 X5.6785 Y64.0894
G01 X5.6800 Y64.1047
G01 X5.6810 Y64.1211
G01 X5.6814 Y64.1374
G01 X5.6814 Y65.5902
G01 X5.6810 Y65.6073
G01 X5.6792 Y65.6339
G01 X5.6757 Y65.6601
G01 X5.6711 Y65.6845
G01 X5.6641 Y65.7119
G01 X5.6601 Y65.7248
G01 X5.6548 Y65.7405
G01 X5.6488 Y65.7558
G01 X5.6436 Y65.7679
G01 X5.6364 Y65.7834
G01 X5.6295 Y65.7968
G01 X5.6215 Y65.8112
G01 X5.6133 Y65.8246
G01 X5.6132 Y65.8437
G01 X5.6943 Y65.9038
G01 X5.7079 Y65.9147
G01 X5.7219 Y65.9268
G01 X5.7956 Y65.9937
G01 X5.8095 Y66.0069
G01 X5.8241 Y66.0221
G01 X5.8855 Y66.0899
G01 X5.8891 Y66.0684
G01 X5.8935 Y66.0479
G01 X5.9244 Y65.9244
G01 X5.9288 Y65.9082
G01 X5.9366 Y65.8843
G01 X5.9783 Y65.7678
G01 X5.9846 Y65.7511
G01 X5.9944 Y65.7288
G01 X6.0474 Y65.6169
G01 X6.0561 Y65.5995
G01 X6.0671 Y65.5801
G01 X6.1306 Y65.4740
G01 X6.1400 Y65.4592
G01 X6.1540 Y65.4392
G01 X6.2278 Y65.3396
G01 X6.2403 Y65.3236
G01 X6.2544 Y65.3073
G01 X6.3375 Y65.2156
G01 X6.3508 Y65.2017
G01 X6.3671 Y65.1861
G01 X6.4588 Y65.1029
G01 X6.4738 Y65.0901
G01 X6.4910 Y65.0766
G01 X6.5902 Y65.0030
G01 X6.6039 Y64.9933
G01 X6.6253 Y64.9796
G01 X6.7315 Y64.9159
G01 X6.7484 Y64.9063
G01 X6.7685 Y64.8962
G01 X6.8804 Y64.8433
G01 X6.8989 Y64.8351
G01 X6.9190 Y64.8273
G01 X7.0356 Y64.7856
G01 X7.0550 Y64.7793
G01 X7.0756 Y64.7735
G01 X7.1957 Y64.7435
G01 X7.2140 Y64.7394
G01 X7.2367 Y64.7354
G01 X7.3592 Y64.7172
G01 X7.3793 Y64.7147
G01 X7.4008 Y64.7131
G01 X7.5244 Y64.7071
G01 X7.5432 Y64.7066
G01 X7.5663 Y64.7071
G01 X7.6899 Y64.7132
G01 X7.7094 Y64.7146
G01 X7.7310 Y64.7173
G01 X7.8634 Y64.7370
G01 X7.8605 Y64.7041
G01 X7.8569 Y64.6301
G01 X7.8566 Y64.6062
G01 X7.8570 Y64.5907
G01 X7.8605 Y64.5167
G01 X7.8634 Y64.4850
G01 X7.7302 Y64.5048
G01 X7.7047 Y64.5078
G01 X7.6893 Y64.5088
G01 X7.5628 Y64.5150
G01 X7.5432 Y64.5154
G01 X7.5240 Y64.5149
G01 X7.3965 Y64.5086
G01 X7.3771 Y64.5070
G01 X7.3581 Y64.5047
G01 X7.2356 Y64.4865
G01 X7.2150 Y64.4829
G01 X7.1957 Y64.4785
G01 X7.0752 Y64.4483
G01 X7.0559 Y64.4430
G01 X7.0376 Y64.4371
G01 X6.9185 Y64.3945
G01 X6.9017 Y64.3880
G01 X6.8798 Y64.3784
G01 X6.7678 Y64.3255
G01 X6.7521 Y64.3176
G01 X6.7308 Y64.3057
G01 X6.6245 Y64.2420
G01 X6.6077 Y64.2313
G01 X6.5898 Y64.2187
G01 X6.4906 Y64.1451
G01 X6.4763 Y64.1340
G01 X6.4581 Y64.1184
G01 X6.3664 Y64.0353
G01 X6.3517 Y64.0213
G01 X6.3368 Y64.0056
G01 X6.2540 Y63.9143
G01 X6.2418 Y63.9002
G01 X6.2273 Y63.8817
G01 X6.1535 Y63.7822
G01 X6.1426 Y63.7668
G01 X6.1308 Y63.7483
G01 X6.0658 Y63.6398
G01 X6.0566 Y63.6233
G01 X6.0483 Y63.6070
G01 X5.9943 Y63.4930
G01 X5.9881 Y63.4791
G01 X5.9786 Y63.4551
G01 X5.9365 Y63.3376
G01 X5.9305 Y63.3195
G01 X5.9258 Y63.3030
G01 X5.8944 Y63.1778
G01 X5.8894 Y63.1553
G01 X5.8855 Y63.1321
G01 X5.8235 Y63.2005
G01 X5.8078 Y63.2168
G01 X5.7956 Y63.2284
G01 X5.7216 Y63.2954
