(G-CODE GENERATED BY FLATCAM v8.991 - www.flatcam.org - Version Date: 2019/12/30)

(Name: Cncjob_drill_1.0mm)
(Type: G-code from Excellon)
(Units: MM)

(Created on Friday, 10 March 2023 at 15:48)

(Feedrate: 480 mm/min)
(Feedrate rapids 1500 mm/min)

(Z_Cut: -2 mm)
(Z_Move: 1 mm)
(Z Toolchange: 15 mm)
(X,Y Toolchange: None mm)
(Z Start: None mm)
(Z End: 0.5 mm)
(Steps per circle: 64)
(Preprocessor Excellon: default)

(X range:    4.4526 ...  115.0544  mm)
(Y range:   23.0149 ...  152.3543  mm)

(Spindle Speed: 0 RPM)
G21
G90
G94




G01 F480.00
G00 Z1.0000

M03
G4 P1.0
G00 X74.0090 Y56.6303
G01 Z-2.0000
G01 Z0
G00 Z1.0000
G00 X74.0090 Y59.1297
G01 Z-2.0000
G01 Z0
G00 Z1.0000
G00 X74.0090 Y61.7306
G01 Z-2.0000
G01 Z0
G00 Z1.0000
G00 X74.0090 Y64.2300
G01 Z-2.0000
G01 Z0
G00 Z1.0000
M03
G4 P1.0
G00 X73.3080 Y9.7267
G01 Z-2.0000
G01 Z0
G00 Z1.0000
G00 X72.5739 Y14.1437
G01 Z-2.0000
G01 Z0
G00 Z1.0000
G00 X72.5739 Y16.6837
G01 Z-2.0000
G01 Z0
G00 Z1.0000
G00 X69.8612 Y25.1623
G01 Z-2.0000
G01 Z0
G00 Z1.0000
G00 X65.8759 Y32.8254
G01 Z-2.0000
G01 Z0
G00 Z1.0000
G00 X73.2470 Y32.8610
G01 Z-2.0000
G01 Z0
G00 Z1.0000
G00 X73.2470 Y35.4010
G01 Z-2.0000
G01 Z0
G00 Z1.0000
G00 X73.2470 Y37.9410
G01 Z-2.0000
G01 Z0
G00 Z1.0000
G00 X76.6709 Y35.3654
G01 Z-2.0000
G01 Z0
G00 Z1.0000
G00 X80.2320 Y45.0530
G01 Z-2.0000
G01 Z0
G00 Z1.0000
G00 X77.3110 Y61.6900
G01 Z-2.0000
G01 Z0
G00 Z1.0000
G00 X70.5800 Y68.0400
G01 Z-2.0000
G01 Z0
G00 Z1.0000
G00 X65.8810 Y64.7380
G01 Z-2.0000
G01 Z0
G00 Z1.0000
G00 X62.9600 Y64.2300
G01 Z-2.0000
G01 Z0
G00 Z1.0000
G00 X62.9600 Y66.7700
G01 Z-2.0000
G01 Z0
G00 Z1.0000
G00 X62.9600 Y69.3100
G01 Z-2.0000
G01 Z0
G00 Z1.0000
G00 X62.9600 Y71.8500
G01 Z-2.0000
G01 Z0
G00 Z1.0000
G00 X62.9600 Y74.3900
G01 Z-2.0000
G01 Z0
G00 Z1.0000
G00 X62.9600 Y76.9300
G01 Z-2.0000
G01 Z0
G00 Z1.0000
G00 X57.8724 Y67.9054
G01 Z-2.0000
G01 Z0
G00 Z1.0000
G00 X60.1660 Y61.6900
G01 Z-2.0000
G01 Z0
G00 Z1.0000
G00 X62.9600 Y61.6900
G01 Z-2.0000
G01 Z0
G00 Z1.0000
G00 X62.9600 Y59.1500
G01 Z-2.0000
G01 Z0
G00 Z1.0000
G00 X62.9600 Y56.6100
G01 Z-2.0000
G01 Z0
G00 Z1.0000
G00 X47.7200 Y56.6100
G01 Z-2.0000
G01 Z0
G00 Z1.0000
G00 X47.7200 Y59.1500
G01 Z-2.0000
G01 Z0
G00 Z1.0000
G00 X45.0428 Y59.1932
G01 Z-2.0000
G01 Z0
G00 Z1.0000
G00 X15.8430 Y55.8480
G01 Z-2.0000
G01 Z0
G00 Z1.0000
G00 X13.3030 Y62.1980
G01 Z-2.0000
G01 Z0
G00 Z1.0000
G00 X14.9845 Y64.4078
G01 Z-2.0000
G01 Z0
G00 Z1.0000
G00 X14.9845 Y71.4690
G01 Z-2.0000
G01 Z0
G00 Z1.0000
G00 X13.3030 Y69.5767
G01 Z-2.0000
G01 Z0
G00 Z1.0000
G00 X10.2931 Y69.5640
G01 Z-2.0000
G01 Z0
G00 Z1.0000
G00 X10.2931 Y67.0240
G01 Z-2.0000
G01 Z0
G00 Z1.0000
G00 X10.2931 Y62.1980
G01 Z-2.0000
G01 Z0
G00 Z1.0000
G00 X10.2931 Y59.6580
G01 Z-2.0000
G01 Z0
G00 Z1.0000
G00 X4.7940 Y59.6580
G01 Z-2.0000
G01 Z0
G00 Z1.0000
G00 X4.7940 Y62.1980
G01 Z-2.0000
G01 Z0
G00 Z1.0000
G00 X4.7940 Y67.0240
G01 Z-2.0000
G01 Z0
G00 Z1.0000
G00 X4.7940 Y69.5640
G01 Z-2.0000
G01 Z0
G00 Z1.0000
G00 X4.7940 Y74.3900
G01 Z-2.0000
G01 Z0
G00 Z1.0000
G00 X4.7940 Y76.9300
G01 Z-2.0000
G01 Z0
G00 Z1.0000
G00 X4.7940 Y81.7509
G01 Z-2.0000
G01 Z0
G00 Z1.0000
G00 X4.7940 Y84.2909
G01 Z-2.0000
G01 Z0
G00 Z1.0000
G00 X4.7940 Y89.1220
G01 Z-2.0000
G01 Z0
G00 Z1.0000
G00 X4.7940 Y91.6620
G01 Z-2.0000
G01 Z0
G00 Z1.0000
G00 X10.2931 Y91.6620
G01 Z-2.0000
G01 Z0
G00 Z1.0000
G00 X10.2931 Y89.1220
G01 Z-2.0000
G01 Z0
G00 Z1.0000
G00 X13.3030 Y91.6747
G01 Z-2.0000
G01 Z0
G00 Z1.0000
G00 X14.9845 Y86.3280
G01 Z-2.0000
G01 Z0
G00 Z1.0000
G00 X13.3030 Y84.3087
G01 Z-2.0000
G01 Z0
G00 Z1.0000
G00 X10.2931 Y84.2909
G01 Z-2.0000
G01 Z0
G00 Z1.0000
G00 X10.2931 Y81.7509
G01 Z-2.0000
G01 Z0
G00 Z1.0000
G00 X10.2931 Y76.9300
G01 Z-2.0000
G01 Z0
G00 Z1.0000
G00 X10.2931 Y74.3900
G01 Z-2.0000
G01 Z0
G00 Z1.0000
G00 X13.3030 Y76.8030
G01 Z-2.0000
G01 Z0
G00 Z1.0000
G00 X14.9845 Y78.9950
G01 Z-2.0000
G01 Z0
G00 Z1.0000
G00 X18.7640 Y76.6760
G01 Z-2.0000
G01 Z0
G00 Z1.0000
G00 X44.9260 Y64.2300
G01 Z-2.0000
G01 Z0
G00 Z1.0000
G00 X47.7200 Y61.6900
G01 Z-2.0000
G01 Z0
G00 Z1.0000
G00 X47.7200 Y64.2300
G01 Z-2.0000
G01 Z0
G00 Z1.0000
G00 X47.7200 Y66.7700
G01 Z-2.0000
G01 Z0
G00 Z1.0000
G00 X47.7200 Y69.3100
G01 Z-2.0000
G01 Z0
G00 Z1.0000
G00 X47.7200 Y71.8500
G01 Z-2.0000
G01 Z0
G00 Z1.0000
G00 X47.7200 Y74.3900
G01 Z-2.0000
G01 Z0
G00 Z1.0000
G00 X47.7200 Y76.9300
G01 Z-2.0000
G01 Z0
G00 Z1.0000
G00 X47.7200 Y79.4700
G01 Z-2.0000
G01 Z0
G00 Z1.0000
G00 X47.7200 Y82.0100
G01 Z-2.0000
G01 Z0
G00 Z1.0000
G00 X47.7200 Y84.5500
G01 Z-2.0000
G01 Z0
G00 Z1.0000
G00 X47.7200 Y87.0900
G01 Z-2.0000
G01 Z0
G00 Z1.0000
G00 X47.7200 Y89.6300
G01 Z-2.0000
G01 Z0
G00 Z1.0000
G00 X47.7200 Y92.1700
G01 Z-2.0000
G01 Z0
G00 Z1.0000
G00 X58.6420 Y102.5840
G01 Z-2.0000
G01 Z0
G00 Z1.0000
G00 X58.6420 Y109.9602
G01 Z-2.0000
G01 Z0
G00 Z1.0000
G00 X61.4817 Y110.0135
G01 Z-2.0000
G01 Z0
G00 Z1.0000
G00 X69.6580 Y115.4643
G01 Z-2.0000
G01 Z0
G00 Z1.0000
G00 X67.4050 Y123.7930
G01 Z-2.0000
G01 Z0
G00 Z1.0000
G00 X72.5739 Y134.1460
G01 Z-2.0000
G01 Z0
G00 Z1.0000
G00 X72.5739 Y136.6860
G01 Z-2.0000
G01 Z0
G00 Z1.0000
G00 X78.0730 Y136.6860
G01 Z-2.0000
G01 Z0
G00 Z1.0000
G00 X78.0730 Y134.1460
G01 Z-2.0000
G01 Z0
G00 Z1.0000
G00 X78.0730 Y130.2700
G01 Z-2.0000
G01 Z0
G00 Z1.0000
G00 X73.2470 Y128.2380
G01 Z-2.0000
G01 Z0
G00 Z1.0000
G00 X73.2470 Y125.6980
G01 Z-2.0000
G01 Z0
G00 Z1.0000
G00 X73.2470 Y123.1580
G01 Z-2.0000
G01 Z0
G00 Z1.0000
G00 X73.2470 Y118.0755
G01 Z-2.0000
G01 Z0
G00 Z1.0000
G00 X76.7700 Y115.4643
G01 Z-2.0000
G01 Z0
G00 Z1.0000
G00 X73.2470 Y115.5355
G01 Z-2.0000
G01 Z0
G00 Z1.0000
G00 X73.2470 Y112.9955
G01 Z-2.0000
G01 Z0
G00 Z1.0000
G00 X74.4916 Y97.4532
G01 Z-2.0000
G01 Z0
G00 Z1.0000
G00 X67.7860 Y92.2538
G01 Z-2.0000
G01 Z0
G00 Z1.0000
G00 X67.7860 Y89.7138
G01 Z-2.0000
G01 Z0
G00 Z1.0000
G00 X67.7860 Y87.1738
G01 Z-2.0000
G01 Z0
G00 Z1.0000
G00 X62.9600 Y92.1700
G01 Z-2.0000
G01 Z0
G00 Z1.0000
G00 X62.9600 Y89.6300
G01 Z-2.0000
G01 Z0
G00 Z1.0000
G00 X62.9600 Y87.0900
G01 Z-2.0000
G01 Z0
G00 Z1.0000
G00 X62.9600 Y84.5500
G01 Z-2.0000
G01 Z0
G00 Z1.0000
G00 X62.9600 Y82.0100
G01 Z-2.0000
G01 Z0
G00 Z1.0000
G00 X62.9600 Y79.4700
G01 Z-2.0000
G01 Z0
G00 Z1.0000
G00 X67.7860 Y84.6338
G01 Z-2.0000
G01 Z0
G00 Z1.0000
G00 X67.7860 Y82.0938
G01 Z-2.0000
G01 Z0
G00 Z1.0000
G00 X67.7860 Y79.5538
G01 Z-2.0000
G01 Z0
G00 Z1.0000
G00 X67.7860 Y77.0138
G01 Z-2.0000
G01 Z0
G00 Z1.0000
G00 X67.7860 Y74.4738
G01 Z-2.0000
G01 Z0
G00 Z1.0000
G00 X74.4738 Y76.6912
G01 Z-2.0000
G01 Z0
G00 Z1.0000
G00 X83.0260 Y74.4738
G01 Z-2.0000
G01 Z0
G00 Z1.0000
G00 X83.0260 Y77.0138
G01 Z-2.0000
G01 Z0
G00 Z1.0000
G00 X83.0260 Y79.5538
G01 Z-2.0000
G01 Z0
G00 Z1.0000
G00 X80.1050 Y80.3590
G01 Z-2.0000
G01 Z0
G00 Z1.0000
G00 X83.0260 Y82.0938
G01 Z-2.0000
G01 Z0
G00 Z1.0000
G00 X86.0740 Y84.5500
G01 Z-2.0000
G01 Z0
G00 Z1.0000
G00 X83.0260 Y84.6338
G01 Z-2.0000
G01 Z0
G00 Z1.0000
G00 X83.0260 Y87.1738
G01 Z-2.0000
G01 Z0
G00 Z1.0000
G00 X83.0260 Y89.7138
G01 Z-2.0000
G01 Z0
G00 Z1.0000
G00 X83.0260 Y92.2538
G01 Z-2.0000
G01 Z0
G00 Z1.0000
G00 X83.2800 Y97.5040
G01 Z-2.0000
G01 Z0
G00 Z1.0000
G00 X91.4080 Y91.7890
G01 Z-2.0000
G01 Z0
G00 Z1.0000
G00 X98.6470 Y91.6620
G01 Z-2.0000
G01 Z0
G00 Z1.0000
G00 X113.8870 Y101.5274
G01 Z-2.0000
G01 Z0
G00 Z1.0000
G00 X113.8870 Y99.0280
G01 Z-2.0000
G01 Z0
G00 Z1.0000
G00 X113.5060 Y83.1530
G01 Z-2.0000
G01 Z0
G00 Z1.0000
G00 X113.5060 Y69.0560
G01 Z-2.0000
G01 Z0
G00 Z1.0000
G00 X114.3950 Y53.0540
G01 Z-2.0000
G01 Z0
G00 Z1.0000
G00 X114.3950 Y50.5140
G01 Z-2.0000
G01 Z0
G00 Z1.0000
G00 X114.3950 Y47.9740
G01 Z-2.0000
G01 Z0
G00 Z1.0000
G00 X98.6470 Y60.1660
G01 Z-2.0000
G01 Z0
G00 Z1.0000
G00 X102.4621 Y76.6658
G01 Z-2.0000
G01 Z0
G00 Z1.0000
G00 X93.6940 Y83.2800
G01 Z-2.0000
G01 Z0
G00 Z1.0000
G00 X91.0473 Y83.1911
G01 Z-2.0000
G01 Z0
G00 Z1.0000
G00 X91.0473 Y79.9120
G01 Z-2.0000
G01 Z0
G00 Z1.0000
G00 X91.0473 Y72.6095
G01 Z-2.0000
G01 Z0
G00 Z1.0000
G00 X91.0473 Y69.0560
G01 Z-2.0000
G01 Z0
G00 Z1.0000
G00 X91.1540 Y65.7540
G01 Z-2.0000
G01 Z0
G00 Z1.0000
G00 X91.4080 Y60.1660
G01 Z-2.0000
G01 Z0
G00 Z1.0000
G00 X87.7250 Y36.6710
G01 Z-2.0000
G01 Z0
G00 Z1.0000
G00 X79.2389 Y28.8529
G01 Z-2.0000
G01 Z0
G00 Z1.0000
G00 X73.2470 Y27.7810
G01 Z-2.0000
G01 Z0
G00 Z1.0000
G00 X73.2470 Y25.2410
G01 Z-2.0000
G01 Z0
G00 Z1.0000
G00 X73.2470 Y22.7010
G01 Z-2.0000
G01 Z0
G00 Z1.0000
G00 X78.0730 Y16.6837
G01 Z-2.0000
G01 Z0
G00 Z1.0000
G00 X78.0730 Y14.1437
G01 Z-2.0000
G01 Z0
G00 Z1.0000
M03
G4 P1.0
G00 X79.9729 Y12.9652
G01 Z-2.0000
G01 Z0
G00 Z1.0000
G00 X12.1930 Y58.4769
G01 Z-2.0000
G01 Z0
G00 Z1.0000
G00 X12.1930 Y65.8429
G01 Z-2.0000
G01 Z0
G00 Z1.0000
G00 X12.1930 Y73.2089
G01 Z-2.0000
G01 Z0
G00 Z1.0000
G00 X12.1930 Y80.5698
G01 Z-2.0000
G01 Z0
G00 Z1.0000
G00 X12.1930 Y87.9409
G01 Z-2.0000
G01 Z0
G00 Z1.0000
G00 X79.9729 Y132.9649
G01 Z-2.0000
G01 Z0
G00 Z1.0000
M05
G00 Z0.50

