(G-CODE GENERATED BY FLATCAM v8.991 - www.flatcam.org - Version Date: 2019/12/30)

(Name: Cncjob_Milled_Drills)
(Type: G-code from Geometry)
(Units: MM)

(Created on Friday, 10 March 2023 at 15:48)

(TOOL DIAMETER: 1.5 mm)
(Feedrate: 1250.0 mm/min)
(Feedrate_Z: 250.0 mm/min)
(Feedrate rapids 1500.0 mm/min)

(Z_Cut: -1.7 mm)
(Z_Move: 0.5 mm)
(Z Toolchange: 15.0 mm)
(X,Y Toolchange: 0.0000, 0.0000 mm)
(Z Start: 0.5 mm)
(Z End: 15.0 mm)
(Steps per circle: 64)
(Preprocessor Geometry: default)

(X range:    7.0451 ...  107.9237  mm)
(Y range:   13.0141 ...  137.8156  mm)

(Spindle Speed: None RPM)
G21
G90
G94




G01 F1250.00
G00 Z0.5000
G00 Z0.5000
M03
G4 P1.0
G00 X8.0445 Y59.0281
G01 F250.00
G01 Z-0.1000
G01 F1250.00
G01 X8.0421 Y58.9791
G01 X8.0349 Y58.9306
G01 X8.0230 Y58.8830
G01 X8.0065 Y58.8369
G01 X7.9855 Y58.7925
G01 X7.9603 Y58.7505
G01 X7.9311 Y58.7111
G01 X7.8981 Y58.6748
G01 X7.8618 Y58.6418
G01 X7.8224 Y58.6126
G01 X7.7804 Y58.5874
G01 X7.7360 Y58.5664
G01 X7.6899 Y58.5499
G01 X7.6423 Y58.5380
G01 X7.5938 Y58.5308
G01 X7.5448 Y58.5284
G01 X7.4958 Y58.5308
G01 X7.4473 Y58.5380
G01 X7.3998 Y58.5499
G01 X7.3536 Y58.5664
G01 X7.3093 Y58.5874
G01 X7.2672 Y58.6126
G01 X7.2278 Y58.6418
G01 X7.1915 Y58.6748
G01 X7.1586 Y58.7111
G01 X7.1294 Y58.7505
G01 X7.1041 Y58.7925
G01 X7.0832 Y58.8369
G01 X7.0667 Y58.8830
G01 X7.0547 Y58.9306
G01 X7.0475 Y58.9791
G01 X7.0451 Y59.0281
G01 X7.0475 Y59.0771
G01 X7.0547 Y59.1256
G01 X7.0667 Y59.1731
G01 X7.0832 Y59.2193
G01 X7.1041 Y59.2636
G01 X7.1294 Y59.3057
G01 X7.1586 Y59.3451
G01 X7.1915 Y59.3814
G01 X7.2278 Y59.4143
G01 X7.2672 Y59.4436
G01 X7.3093 Y59.4688
G01 X7.3536 Y59.4897
G01 X7.3998 Y59.5062
G01 X7.4473 Y59.5182
G01 X7.4958 Y59.5254
G01 X7.5448 Y59.5278
G01 X7.5938 Y59.5254
G01 X7.6423 Y59.5182
G01 X7.6899 Y59.5062
G01 X7.7360 Y59.4897
G01 X7.7804 Y59.4688
G01 X7.8224 Y59.4436
G01 X7.8618 Y59.4143
G01 X7.8981 Y59.3814
G01 X7.9311 Y59.3451
G01 X7.9603 Y59.3057
G01 X7.9855 Y59.2636
G01 X8.0065 Y59.2193
G01 X8.0230 Y59.1731
G01 X8.0349 Y59.1256
G01 X8.0421 Y59.0771
G01 X8.0445 Y59.0281
G00 X8.0445 Y59.0281
G01 F250.00
G01 Z-0.2000
G01 F1250.00
G01 X8.0421 Y58.9791
G01 X8.0349 Y58.9306
G01 X8.0230 Y58.8830
G01 X8.0065 Y58.8369
G01 X7.9855 Y58.7925
G01 X7.9603 Y58.7505
G01 X7.9311 Y58.7111
G01 X7.8981 Y58.6748
G01 X7.8618 Y58.6418
G01 X7.8224 Y58.6126
G01 X7.7804 Y58.5874
G01 X7.7360 Y58.5664
G01 X7.6899 Y58.5499
G01 X7.6423 Y58.5380
G01 X7.5938 Y58.5308
G01 X7.5448 Y58.5284
G01 X7.4958 Y58.5308
G01 X7.4473 Y58.5380
G01 X7.3998 Y58.5499
G01 X7.3536 Y58.5664
G01 X7.3093 Y58.5874
G01 X7.2672 Y58.6126
G01 X7.2278 Y58.6418
G01 X7.1915 Y58.6748
G01 X7.1586 Y58.7111
G01 X7.1294 Y58.7505
G01 X7.1041 Y58.7925
G01 X7.0832 Y58.8369
G01 X7.0667 Y58.8830
G01 X7.0547 Y58.9306
G01 X7.0475 Y58.9791
G01 X7.0451 Y59.0281
G01 X7.0475 Y59.0771
G01 X7.0547 Y59.1256
G01 X7.0667 Y59.1731
G01 X7.0832 Y59.2193
G01 X7.1041 Y59.2636
G01 X7.1294 Y59.3057
G01 X7.1586 Y59.3451
G01 X7.1915 Y59.3814
G01 X7.2278 Y59.4143
G01 X7.2672 Y59.4436
G01 X7.3093 Y59.4688
G01 X7.3536 Y59.4897
G01 X7.3998 Y59.5062
G01 X7.4473 Y59.5182
G01 X7.4958 Y59.5254
G01 X7.5448 Y59.5278
G01 X7.5938 Y59.5254
G01 X7.6423 Y59.5182
G01 X7.6899 Y59.5062
G01 X7.7360 Y59.4897
G01 X7.7804 Y59.4688
G01 X7.8224 Y59.4436
G01 X7.8618 Y59.4143
G01 X7.8981 Y59.3814
G01 X7.9311 Y59.3451
G01 X7.9603 Y59.3057
G01 X7.9855 Y59.2636
G01 X8.0065 Y59.2193
G01 X8.0230 Y59.1731
G01 X8.0349 Y59.1256
G01 X8.0421 Y59.0771
G01 X8.0445 Y59.0281
G00 X8.0445 Y59.0281
G01 F250.00
G01 Z-0.3000
G01 F1250.00
G01 X8.0421 Y58.9791
G01 X8.0349 Y58.9306
G01 X8.0230 Y58.8830
G01 X8.0065 Y58.8369
G01 X7.9855 Y58.7925
G01 X7.9603 Y58.7505
G01 X7.9311 Y58.7111
G01 X7.8981 Y58.6748
G01 X7.8618 Y58.6418
G01 X7.8224 Y58.6126
G01 X7.7804 Y58.5874
G01 X7.7360 Y58.5664
G01 X7.6899 Y58.5499
G01 X7.6423 Y58.5380
G01 X7.5938 Y58.5308
G01 X7.5448 Y58.5284
G01 X7.4958 Y58.5308
G01 X7.4473 Y58.5380
G01 X7.3998 Y58.5499
G01 X7.3536 Y58.5664
G01 X7.3093 Y58.5874
G01 X7.2672 Y58.6126
G01 X7.2278 Y58.6418
G01 X7.1915 Y58.6748
G01 X7.1586 Y58.7111
G01 X7.1294 Y58.7505
G01 X7.1041 Y58.7925
G01 X7.0832 Y58.8369
G01 X7.0667 Y58.8830
G01 X7.0547 Y58.9306
G01 X7.0475 Y58.9791
G01 X7.0451 Y59.0281
G01 X7.0475 Y59.0771
G01 X7.0547 Y59.1256
G01 X7.0667 Y59.1731
G01 X7.0832 Y59.2193
G01 X7.1041 Y59.2636
G01 X7.1294 Y59.3057
G01 X7.1586 Y59.3451
G01 X7.1915 Y59.3814
G01 X7.2278 Y59.4143
G01 X7.2672 Y59.4436
G01 X7.3093 Y59.4688
G01 X7.3536 Y59.4897
G01 X7.3998 Y59.5062
G01 X7.4473 Y59.5182
G01 X7.4958 Y59.5254
G01 X7.5448 Y59.5278
G01 X7.5938 Y59.5254
G01 X7.6423 Y59.5182
G01 X7.6899 Y59.5062
G01 X7.7360 Y59.4897
G01 X7.7804 Y59.4688
G01 X7.8224 Y59.4436
G01 X7.8618 Y59.4143
G01 X7.8981 Y59.3814
G01 X7.9311 Y59.3451
G01 X7.9603 Y59.3057
G01 X7.9855 Y59.2636
G01 X8.0065 Y59.2193
G01 X8.0230 Y59.1731
G01 X8.0349 Y59.1256
G01 X8.0421 Y59.0771
G01 X8.0445 Y59.0281
G00 X8.0445 Y59.0281
G01 F250.00
G01 Z-0.4000
G01 F1250.00
G01 X8.0421 Y58.9791
G01 X8.0349 Y58.9306
G01 X8.0230 Y58.8830
G01 X8.0065 Y58.8369
G01 X7.9855 Y58.7925
G01 X7.9603 Y58.7505
G01 X7.9311 Y58.7111
G01 X7.8981 Y58.6748
G01 X7.8618 Y58.6418
G01 X7.8224 Y58.6126
G01 X7.7804 Y58.5874
G01 X7.7360 Y58.5664
G01 X7.6899 Y58.5499
G01 X7.6423 Y58.5380
G01 X7.5938 Y58.5308
G01 X7.5448 Y58.5284
G01 X7.4958 Y58.5308
G01 X7.4473 Y58.5380
G01 X7.3998 Y58.5499
G01 X7.3536 Y58.5664
G01 X7.3093 Y58.5874
G01 X7.2672 Y58.6126
G01 X7.2278 Y58.6418
G01 X7.1915 Y58.6748
G01 X7.1586 Y58.7111
G01 X7.1294 Y58.7505
G01 X7.1041 Y58.7925
G01 X7.0832 Y58.8369
G01 X7.0667 Y58.8830
G01 X7.0547 Y58.9306
G01 X7.0475 Y58.9791
G01 X7.0451 Y59.0281
G01 X7.0475 Y59.0771
G01 X7.0547 Y59.1256
G01 X7.0667 Y59.1731
G01 X7.0832 Y59.2193
G01 X7.1041 Y59.2636
G01 X7.1294 Y59.3057
G01 X7.1586 Y59.3451
G01 X7.1915 Y59.3814
G01 X7.2278 Y59.4143
G01 X7.2672 Y59.4436
G01 X7.3093 Y59.4688
G01 X7.3536 Y59.4897
G01 X7.3998 Y59.5062
G01 X7.4473 Y59.5182
G01 X7.4958 Y59.5254
G01 X7.5448 Y59.5278
G01 X7.5938 Y59.5254
G01 X7.6423 Y59.5182
G01 X7.6899 Y59.5062
G01 X7.7360 Y59.4897
G01 X7.7804 Y59.4688
G01 X7.8224 Y59.4436
G01 X7.8618 Y59.4143
G01 X7.8981 Y59.3814
G01 X7.9311 Y59.3451
G01 X7.9603 Y59.3057
G01 X7.9855 Y59.2636
G01 X8.0065 Y59.2193
G01 X8.0230 Y59.1731
G01 X8.0349 Y59.1256
G01 X8.0421 Y59.0771
G01 X8.0445 Y59.0281
G00 X8.0445 Y59.0281
G01 F250.00
G01 Z-0.5000
G01 F1250.00
G01 X8.0421 Y58.9791
G01 X8.0349 Y58.9306
G01 X8.0230 Y58.8830
G01 X8.0065 Y58.8369
G01 X7.9855 Y58.7925
G01 X7.9603 Y58.7505
G01 X7.9311 Y58.7111
G01 X7.8981 Y58.6748
G01 X7.8618 Y58.6418
G01 X7.8224 Y58.6126
G01 X7.7804 Y58.5874
G01 X7.7360 Y58.5664
G01 X7.6899 Y58.5499
G01 X7.6423 Y58.5380
G01 X7.5938 Y58.5308
G01 X7.5448 Y58.5284
G01 X7.4958 Y58.5308
G01 X7.4473 Y58.5380
G01 X7.3998 Y58.5499
G01 X7.3536 Y58.5664
G01 X7.3093 Y58.5874
G01 X7.2672 Y58.6126
G01 X7.2278 Y58.6418
G01 X7.1915 Y58.6748
G01 X7.1586 Y58.7111
G01 X7.1294 Y58.7505
G01 X7.1041 Y58.7925
G01 X7.0832 Y58.8369
G01 X7.0667 Y58.8830
G01 X7.0547 Y58.9306
G01 X7.0475 Y58.9791
G01 X7.0451 Y59.0281
G01 X7.0475 Y59.0771
G01 X7.0547 Y59.1256
G01 X7.0667 Y59.1731
G01 X7.0832 Y59.2193
G01 X7.1041 Y59.2636
G01 X7.1294 Y59.3057
G01 X7.1586 Y59.3451
G01 X7.1915 Y59.3814
G01 X7.2278 Y59.4143
G01 X7.2672 Y59.4436
G01 X7.3093 Y59.4688
G01 X7.3536 Y59.4897
G01 X7.3998 Y59.5062
G01 X7.4473 Y59.5182
G01 X7.4958 Y59.5254
G01 X7.5448 Y59.5278
G01 X7.5938 Y59.5254
G01 X7.6423 Y59.5182
G01 X7.6899 Y59.5062
G01 X7.7360 Y59.4897
G01 X7.7804 Y59.4688
G01 X7.8224 Y59.4436
G01 X7.8618 Y59.4143
G01 X7.8981 Y59.3814
G01 X7.9311 Y59.3451
G01 X7.9603 Y59.3057
G01 X7.9855 Y59.2636
G01 X8.0065 Y59.2193
G01 X8.0230 Y59.1731
G01 X8.0349 Y59.1256
G01 X8.0421 Y59.0771
G01 X8.0445 Y59.0281
G00 X8.0445 Y59.0281
G01 F250.00
G01 Z-0.6000
G01 F1250.00
G01 X8.0421 Y58.9791
G01 X8.0349 Y58.9306
G01 X8.0230 Y58.8830
G01 X8.0065 Y58.8369
G01 X7.9855 Y58.7925
G01 X7.9603 Y58.7505
G01 X7.9311 Y58.7111
G01 X7.8981 Y58.6748
G01 X7.8618 Y58.6418
G01 X7.8224 Y58.6126
G01 X7.7804 Y58.5874
G01 X7.7360 Y58.5664
G01 X7.6899 Y58.5499
G01 X7.6423 Y58.5380
G01 X7.5938 Y58.5308
G01 X7.5448 Y58.5284
G01 X7.4958 Y58.5308
G01 X7.4473 Y58.5380
G01 X7.3998 Y58.5499
G01 X7.3536 Y58.5664
G01 X7.3093 Y58.5874
G01 X7.2672 Y58.6126
G01 X7.2278 Y58.6418
G01 X7.1915 Y58.6748
G01 X7.1586 Y58.7111
G01 X7.1294 Y58.7505
G01 X7.1041 Y58.7925
G01 X7.0832 Y58.8369
G01 X7.0667 Y58.8830
G01 X7.0547 Y58.9306
G01 X7.0475 Y58.9791
G01 X7.0451 Y59.0281
G01 X7.0475 Y59.0771
G01 X7.0547 Y59.1256
G01 X7.0667 Y59.1731
G01 X7.0832 Y59.2193
G01 X7.1041 Y59.2636
G01 X7.1294 Y59.3057
G01 X7.1586 Y59.3451
G01 X7.1915 Y59.3814
G01 X7.2278 Y59.4143
G01 X7.2672 Y59.4436
G01 X7.3093 Y59.4688
G01 X7.3536 Y59.4897
G01 X7.3998 Y59.5062
G01 X7.4473 Y59.5182
G01 X7.4958 Y59.5254
G01 X7.5448 Y59.5278
G01 X7.5938 Y59.5254
G01 X7.6423 Y59.5182
G01 X7.6899 Y59.5062
G01 X7.7360 Y59.4897
G01 X7.7804 Y59.4688
G01 X7.8224 Y59.4436
G01 X7.8618 Y59.4143
G01 X7.8981 Y59.3814
G01 X7.9311 Y59.3451
G01 X7.9603 Y59.3057
G01 X7.9855 Y59.2636
G01 X8.0065 Y59.2193
G01 X8.0230 Y59.1731
G01 X8.0349 Y59.1256
G01 X8.0421 Y59.0771
G01 X8.0445 Y59.0281
G00 X8.0445 Y59.0281
G01 F250.00
G01 Z-0.7000
G01 F1250.00
G01 X8.0421 Y58.9791
G01 X8.0349 Y58.9306
G01 X8.0230 Y58.8830
G01 X8.0065 Y58.8369
G01 X7.9855 Y58.7925
G01 X7.9603 Y58.7505
G01 X7.9311 Y58.7111
G01 X7.8981 Y58.6748
G01 X7.8618 Y58.6418
G01 X7.8224 Y58.6126
G01 X7.7804 Y58.5874
G01 X7.7360 Y58.5664
G01 X7.6899 Y58.5499
G01 X7.6423 Y58.5380
G01 X7.5938 Y58.5308
G01 X7.5448 Y58.5284
G01 X7.4958 Y58.5308
G01 X7.4473 Y58.5380
G01 X7.3998 Y58.5499
G01 X7.3536 Y58.5664
G01 X7.3093 Y58.5874
G01 X7.2672 Y58.6126
G01 X7.2278 Y58.6418
G01 X7.1915 Y58.6748
G01 X7.1586 Y58.7111
G01 X7.1294 Y58.7505
G01 X7.1041 Y58.7925
G01 X7.0832 Y58.8369
G01 X7.0667 Y58.8830
G01 X7.0547 Y58.9306
G01 X7.0475 Y58.9791
G01 X7.0451 Y59.0281
G01 X7.0475 Y59.0771
G01 X7.0547 Y59.1256
G01 X7.0667 Y59.1731
G01 X7.0832 Y59.2193
G01 X7.1041 Y59.2636
G01 X7.1294 Y59.3057
G01 X7.1586 Y59.3451
G01 X7.1915 Y59.3814
G01 X7.2278 Y59.4143
G01 X7.2672 Y59.4436
G01 X7.3093 Y59.4688
G01 X7.3536 Y59.4897
G01 X7.3998 Y59.5062
G01 X7.4473 Y59.5182
G01 X7.4958 Y59.5254
G01 X7.5448 Y59.5278
G01 X7.5938 Y59.5254
G01 X7.6423 Y59.5182
G01 X7.6899 Y59.5062
G01 X7.7360 Y59.4897
G01 X7.7804 Y59.4688
G01 X7.8224 Y59.4436
G01 X7.8618 Y59.4143
G01 X7.8981 Y59.3814
G01 X7.9311 Y59.3451
G01 X7.9603 Y59.3057
G01 X7.9855 Y59.2636
G01 X8.0065 Y59.2193
G01 X8.0230 Y59.1731
G01 X8.0349 Y59.1256
G01 X8.0421 Y59.0771
G01 X8.0445 Y59.0281
G00 X8.0445 Y59.0281
G01 F250.00
G01 Z-0.8000
G01 F1250.00
G01 X8.0421 Y58.9791
G01 X8.0349 Y58.9306
G01 X8.0230 Y58.8830
G01 X8.0065 Y58.8369
G01 X7.9855 Y58.7925
G01 X7.9603 Y58.7505
G01 X7.9311 Y58.7111
G01 X7.8981 Y58.6748
G01 X7.8618 Y58.6418
G01 X7.8224 Y58.6126
G01 X7.7804 Y58.5874
G01 X7.7360 Y58.5664
G01 X7.6899 Y58.5499
G01 X7.6423 Y58.5380
G01 X7.5938 Y58.5308
G01 X7.5448 Y58.5284
G01 X7.4958 Y58.5308
G01 X7.4473 Y58.5380
G01 X7.3998 Y58.5499
G01 X7.3536 Y58.5664
G01 X7.3093 Y58.5874
G01 X7.2672 Y58.6126
G01 X7.2278 Y58.6418
G01 X7.1915 Y58.6748
G01 X7.1586 Y58.7111
G01 X7.1294 Y58.7505
G01 X7.1041 Y58.7925
G01 X7.0832 Y58.8369
G01 X7.0667 Y58.8830
G01 X7.0547 Y58.9306
G01 X7.0475 Y58.9791
G01 X7.0451 Y59.0281
G01 X7.0475 Y59.0771
G01 X7.0547 Y59.1256
G01 X7.0667 Y59.1731
G01 X7.0832 Y59.2193
G01 X7.1041 Y59.2636
G01 X7.1294 Y59.3057
G01 X7.1586 Y59.3451
G01 X7.1915 Y59.3814
G01 X7.2278 Y59.4143
G01 X7.2672 Y59.4436
G01 X7.3093 Y59.4688
G01 X7.3536 Y59.4897
G01 X7.3998 Y59.5062
G01 X7.4473 Y59.5182
G01 X7.4958 Y59.5254
G01 X7.5448 Y59.5278
G01 X7.5938 Y59.5254
G01 X7.6423 Y59.5182
G01 X7.6899 Y59.5062
G01 X7.7360 Y59.4897
G01 X7.7804 Y59.4688
G01 X7.8224 Y59.4436
G01 X7.8618 Y59.4143
G01 X7.8981 Y59.3814
G01 X7.9311 Y59.3451
G01 X7.9603 Y59.3057
G01 X7.9855 Y59.2636
G01 X8.0065 Y59.2193
G01 X8.0230 Y59.1731
G01 X8.0349 Y59.1256
G01 X8.0421 Y59.0771
G01 X8.0445 Y59.0281
G00 X8.0445 Y59.0281
G01 F250.00
G01 Z-0.9000
G01 F1250.00
G01 X8.0421 Y58.9791
G01 X8.0349 Y58.9306
G01 X8.0230 Y58.8830
G01 X8.0065 Y58.8369
G01 X7.9855 Y58.7925
G01 X7.9603 Y58.7505
G01 X7.9311 Y58.7111
G01 X7.8981 Y58.6748
G01 X7.8618 Y58.6418
G01 X7.8224 Y58.6126
G01 X7.7804 Y58.5874
G01 X7.7360 Y58.5664
G01 X7.6899 Y58.5499
G01 X7.6423 Y58.5380
G01 X7.5938 Y58.5308
G01 X7.5448 Y58.5284
G01 X7.4958 Y58.5308
G01 X7.4473 Y58.5380
G01 X7.3998 Y58.5499
G01 X7.3536 Y58.5664
G01 X7.3093 Y58.5874
G01 X7.2672 Y58.6126
G01 X7.2278 Y58.6418
G01 X7.1915 Y58.6748
G01 X7.1586 Y58.7111
G01 X7.1294 Y58.7505
G01 X7.1041 Y58.7925
G01 X7.0832 Y58.8369
G01 X7.0667 Y58.8830
G01 X7.0547 Y58.9306
G01 X7.0475 Y58.9791
G01 X7.0451 Y59.0281
G01 X7.0475 Y59.0771
G01 X7.0547 Y59.1256
G01 X7.0667 Y59.1731
G01 X7.0832 Y59.2193
G01 X7.1041 Y59.2636
G01 X7.1294 Y59.3057
G01 X7.1586 Y59.3451
G01 X7.1915 Y59.3814
G01 X7.2278 Y59.4143
G01 X7.2672 Y59.4436
G01 X7.3093 Y59.4688
G01 X7.3536 Y59.4897
G01 X7.3998 Y59.5062
G01 X7.4473 Y59.5182
G01 X7.4958 Y59.5254
G01 X7.5448 Y59.5278
G01 X7.5938 Y59.5254
G01 X7.6423 Y59.5182
G01 X7.6899 Y59.5062
G01 X7.7360 Y59.4897
G01 X7.7804 Y59.4688
G01 X7.8224 Y59.4436
G01 X7.8618 Y59.4143
G01 X7.8981 Y59.3814
G01 X7.9311 Y59.3451
G01 X7.9603 Y59.3057
G01 X7.9855 Y59.2636
G01 X8.0065 Y59.2193
G01 X8.0230 Y59.1731
G01 X8.0349 Y59.1256
G01 X8.0421 Y59.0771
G01 X8.0445 Y59.0281
G00 X8.0445 Y59.0281
G01 F250.00
G01 Z-1.0000
G01 F1250.00
G01 X8.0421 Y58.9791
G01 X8.0349 Y58.9306
G01 X8.0230 Y58.8830
G01 X8.0065 Y58.8369
G01 X7.9855 Y58.7925
G01 X7.9603 Y58.7505
G01 X7.9311 Y58.7111
G01 X7.8981 Y58.6748
G01 X7.8618 Y58.6418
G01 X7.8224 Y58.6126
G01 X7.7804 Y58.5874
G01 X7.7360 Y58.5664
G01 X7.6899 Y58.5499
G01 X7.6423 Y58.5380
G01 X7.5938 Y58.5308
G01 X7.5448 Y58.5284
G01 X7.4958 Y58.5308
G01 X7.4473 Y58.5380
G01 X7.3998 Y58.5499
G01 X7.3536 Y58.5664
G01 X7.3093 Y58.5874
G01 X7.2672 Y58.6126
G01 X7.2278 Y58.6418
G01 X7.1915 Y58.6748
G01 X7.1586 Y58.7111
G01 X7.1294 Y58.7505
G01 X7.1041 Y58.7925
G01 X7.0832 Y58.8369
G01 X7.0667 Y58.8830
G01 X7.0547 Y58.9306
G01 X7.0475 Y58.9791
G01 X7.0451 Y59.0281
G01 X7.0475 Y59.0771
G01 X7.0547 Y59.1256
G01 X7.0667 Y59.1731
G01 X7.0832 Y59.2193
G01 X7.1041 Y59.2636
G01 X7.1294 Y59.3057
G01 X7.1586 Y59.3451
G01 X7.1915 Y59.3814
G01 X7.2278 Y59.4143
G01 X7.2672 Y59.4436
G01 X7.3093 Y59.4688
G01 X7.3536 Y59.4897
G01 X7.3998 Y59.5062
G01 X7.4473 Y59.5182
G01 X7.4958 Y59.5254
G01 X7.5448 Y59.5278
G01 X7.5938 Y59.5254
G01 X7.6423 Y59.5182
G01 X7.6899 Y59.5062
G01 X7.7360 Y59.4897
G01 X7.7804 Y59.4688
G01 X7.8224 Y59.4436
G01 X7.8618 Y59.4143
G01 X7.8981 Y59.3814
G01 X7.9311 Y59.3451
G01 X7.9603 Y59.3057
G01 X7.9855 Y59.2636
G01 X8.0065 Y59.2193
G01 X8.0230 Y59.1731
G01 X8.0349 Y59.1256
G01 X8.0421 Y59.0771
G01 X8.0445 Y59.0281
G00 X8.0445 Y59.0281
G01 F250.00
G01 Z-1.1000
G01 F1250.00
G01 X8.0421 Y58.9791
G01 X8.0349 Y58.9306
G01 X8.0230 Y58.8830
G01 X8.0065 Y58.8369
G01 X7.9855 Y58.7925
G01 X7.9603 Y58.7505
G01 X7.9311 Y58.7111
G01 X7.8981 Y58.6748
G01 X7.8618 Y58.6418
G01 X7.8224 Y58.6126
G01 X7.7804 Y58.5874
G01 X7.7360 Y58.5664
G01 X7.6899 Y58.5499
G01 X7.6423 Y58.5380
G01 X7.5938 Y58.5308
G01 X7.5448 Y58.5284
G01 X7.4958 Y58.5308
G01 X7.4473 Y58.5380
G01 X7.3998 Y58.5499
G01 X7.3536 Y58.5664
G01 X7.3093 Y58.5874
G01 X7.2672 Y58.6126
G01 X7.2278 Y58.6418
G01 X7.1915 Y58.6748
G01 X7.1586 Y58.7111
G01 X7.1294 Y58.7505
G01 X7.1041 Y58.7925
G01 X7.0832 Y58.8369
G01 X7.0667 Y58.8830
G01 X7.0547 Y58.9306
G01 X7.0475 Y58.9791
G01 X7.0451 Y59.0281
G01 X7.0475 Y59.0771
G01 X7.0547 Y59.1256
G01 X7.0667 Y59.1731
G01 X7.0832 Y59.2193
G01 X7.1041 Y59.2636
G01 X7.1294 Y59.3057
G01 X7.1586 Y59.3451
G01 X7.1915 Y59.3814
G01 X7.2278 Y59.4143
G01 X7.2672 Y59.4436
G01 X7.3093 Y59.4688
G01 X7.3536 Y59.4897
G01 X7.3998 Y59.5062
G01 X7.4473 Y59.5182
G01 X7.4958 Y59.5254
G01 X7.5448 Y59.5278
G01 X7.5938 Y59.5254
G01 X7.6423 Y59.5182
G01 X7.6899 Y59.5062
G01 X7.7360 Y59.4897
G01 X7.7804 Y59.4688
G01 X7.8224 Y59.4436
G01 X7.8618 Y59.4143
G01 X7.8981 Y59.3814
G01 X7.9311 Y59.3451
G01 X7.9603 Y59.3057
G01 X7.9855 Y59.2636
G01 X8.0065 Y59.2193
G01 X8.0230 Y59.1731
G01 X8.0349 Y59.1256
G01 X8.0421 Y59.0771
G01 X8.0445 Y59.0281
G00 X8.0445 Y59.0281
G01 F250.00
G01 Z-1.2000
G01 F1250.00
G01 X8.0421 Y58.9791
G01 X8.0349 Y58.9306
G01 X8.0230 Y58.8830
G01 X8.0065 Y58.8369
G01 X7.9855 Y58.7925
G01 X7.9603 Y58.7505
G01 X7.9311 Y58.7111
G01 X7.8981 Y58.6748
G01 X7.8618 Y58.6418
G01 X7.8224 Y58.6126
G01 X7.7804 Y58.5874
G01 X7.7360 Y58.5664
G01 X7.6899 Y58.5499
G01 X7.6423 Y58.5380
G01 X7.5938 Y58.5308
G01 X7.5448 Y58.5284
G01 X7.4958 Y58.5308
G01 X7.4473 Y58.5380
G01 X7.3998 Y58.5499
G01 X7.3536 Y58.5664
G01 X7.3093 Y58.5874
G01 X7.2672 Y58.6126
G01 X7.2278 Y58.6418
G01 X7.1915 Y58.6748
G01 X7.1586 Y58.7111
G01 X7.1294 Y58.7505
G01 X7.1041 Y58.7925
G01 X7.0832 Y58.8369
G01 X7.0667 Y58.8830
G01 X7.0547 Y58.9306
G01 X7.0475 Y58.9791
G01 X7.0451 Y59.0281
G01 X7.0475 Y59.0771
G01 X7.0547 Y59.1256
G01 X7.0667 Y59.1731
G01 X7.0832 Y59.2193
G01 X7.1041 Y59.2636
G01 X7.1294 Y59.3057
G01 X7.1586 Y59.3451
G01 X7.1915 Y59.3814
G01 X7.2278 Y59.4143
G01 X7.2672 Y59.4436
G01 X7.3093 Y59.4688
G01 X7.3536 Y59.4897
G01 X7.3998 Y59.5062
G01 X7.4473 Y59.5182
G01 X7.4958 Y59.5254
G01 X7.5448 Y59.5278
G01 X7.5938 Y59.5254
G01 X7.6423 Y59.5182
G01 X7.6899 Y59.5062
G01 X7.7360 Y59.4897
G01 X7.7804 Y59.4688
G01 X7.8224 Y59.4436
G01 X7.8618 Y59.4143
G01 X7.8981 Y59.3814
G01 X7.9311 Y59.3451
G01 X7.9603 Y59.3057
G01 X7.9855 Y59.2636
G01 X8.0065 Y59.2193
G01 X8.0230 Y59.1731
G01 X8.0349 Y59.1256
G01 X8.0421 Y59.0771
G01 X8.0445 Y59.0281
G00 X8.0445 Y59.0281
G01 F250.00
G01 Z-1.3000
G01 F1250.00
G01 X8.0421 Y58.9791
G01 X8.0349 Y58.9306
G01 X8.0230 Y58.8830
G01 X8.0065 Y58.8369
G01 X7.9855 Y58.7925
G01 X7.9603 Y58.7505
G01 X7.9311 Y58.7111
G01 X7.8981 Y58.6748
G01 X7.8618 Y58.6418
G01 X7.8224 Y58.6126
G01 X7.7804 Y58.5874
G01 X7.7360 Y58.5664
G01 X7.6899 Y58.5499
G01 X7.6423 Y58.5380
G01 X7.5938 Y58.5308
G01 X7.5448 Y58.5284
G01 X7.4958 Y58.5308
G01 X7.4473 Y58.5380
G01 X7.3998 Y58.5499
G01 X7.3536 Y58.5664
G01 X7.3093 Y58.5874
G01 X7.2672 Y58.6126
G01 X7.2278 Y58.6418
G01 X7.1915 Y58.6748
G01 X7.1586 Y58.7111
G01 X7.1294 Y58.7505
G01 X7.1041 Y58.7925
G01 X7.0832 Y58.8369
G01 X7.0667 Y58.8830
G01 X7.0547 Y58.9306
G01 X7.0475 Y58.9791
G01 X7.0451 Y59.0281
G01 X7.0475 Y59.0771
G01 X7.0547 Y59.1256
G01 X7.0667 Y59.1731
G01 X7.0832 Y59.2193
G01 X7.1041 Y59.2636
G01 X7.1294 Y59.3057
G01 X7.1586 Y59.3451
G01 X7.1915 Y59.3814
G01 X7.2278 Y59.4143
G01 X7.2672 Y59.4436
G01 X7.3093 Y59.4688
G01 X7.3536 Y59.4897
G01 X7.3998 Y59.5062
G01 X7.4473 Y59.5182
G01 X7.4958 Y59.5254
G01 X7.5448 Y59.5278
G01 X7.5938 Y59.5254
G01 X7.6423 Y59.5182
G01 X7.6899 Y59.5062
G01 X7.7360 Y59.4897
G01 X7.7804 Y59.4688
G01 X7.8224 Y59.4436
G01 X7.8618 Y59.4143
G01 X7.8981 Y59.3814
G01 X7.9311 Y59.3451
G01 X7.9603 Y59.3057
G01 X7.9855 Y59.2636
G01 X8.0065 Y59.2193
G01 X8.0230 Y59.1731
G01 X8.0349 Y59.1256
G01 X8.0421 Y59.0771
G01 X8.0445 Y59.0281
G00 X8.0445 Y59.0281
G01 F250.00
G01 Z-1.4000
G01 F1250.00
G01 X8.0421 Y58.9791
G01 X8.0349 Y58.9306
G01 X8.0230 Y58.8830
G01 X8.0065 Y58.8369
G01 X7.9855 Y58.7925
G01 X7.9603 Y58.7505
G01 X7.9311 Y58.7111
G01 X7.8981 Y58.6748
G01 X7.8618 Y58.6418
G01 X7.8224 Y58.6126
G01 X7.7804 Y58.5874
G01 X7.7360 Y58.5664
G01 X7.6899 Y58.5499
G01 X7.6423 Y58.5380
G01 X7.5938 Y58.5308
G01 X7.5448 Y58.5284
G01 X7.4958 Y58.5308
G01 X7.4473 Y58.5380
G01 X7.3998 Y58.5499
G01 X7.3536 Y58.5664
G01 X7.3093 Y58.5874
G01 X7.2672 Y58.6126
G01 X7.2278 Y58.6418
G01 X7.1915 Y58.6748
G01 X7.1586 Y58.7111
G01 X7.1294 Y58.7505
G01 X7.1041 Y58.7925
G01 X7.0832 Y58.8369
G01 X7.0667 Y58.8830
G01 X7.0547 Y58.9306
G01 X7.0475 Y58.9791
G01 X7.0451 Y59.0281
G01 X7.0475 Y59.0771
G01 X7.0547 Y59.1256
G01 X7.0667 Y59.1731
G01 X7.0832 Y59.2193
G01 X7.1041 Y59.2636
G01 X7.1294 Y59.3057
G01 X7.1586 Y59.3451
G01 X7.1915 Y59.3814
G01 X7.2278 Y59.4143
G01 X7.2672 Y59.4436
G01 X7.3093 Y59.4688
G01 X7.3536 Y59.4897
G01 X7.3998 Y59.5062
G01 X7.4473 Y59.5182
G01 X7.4958 Y59.5254
G01 X7.5448 Y59.5278
G01 X7.5938 Y59.5254
G01 X7.6423 Y59.5182
G01 X7.6899 Y59.5062
G01 X7.7360 Y59.4897
G01 X7.7804 Y59.4688
G01 X7.8224 Y59.4436
G01 X7.8618 Y59.4143
G01 X7.8981 Y59.3814
G01 X7.9311 Y59.3451
G01 X7.9603 Y59.3057
G01 X7.9855 Y59.2636
G01 X8.0065 Y59.2193
G01 X8.0230 Y59.1731
G01 X8.0349 Y59.1256
G01 X8.0421 Y59.0771
G01 X8.0445 Y59.0281
G00 X8.0445 Y59.0281
G01 F250.00
G01 Z-1.5000
G01 F1250.00
G01 X8.0421 Y58.9791
G01 X8.0349 Y58.9306
G01 X8.0230 Y58.8830
G01 X8.0065 Y58.8369
G01 X7.9855 Y58.7925
G01 X7.9603 Y58.7505
G01 X7.9311 Y58.7111
G01 X7.8981 Y58.6748
G01 X7.8618 Y58.6418
G01 X7.8224 Y58.6126
G01 X7.7804 Y58.5874
G01 X7.7360 Y58.5664
G01 X7.6899 Y58.5499
G01 X7.6423 Y58.5380
G01 X7.5938 Y58.5308
G01 X7.5448 Y58.5284
G01 X7.4958 Y58.5308
G01 X7.4473 Y58.5380
G01 X7.3998 Y58.5499
G01 X7.3536 Y58.5664
G01 X7.3093 Y58.5874
G01 X7.2672 Y58.6126
G01 X7.2278 Y58.6418
G01 X7.1915 Y58.6748
G01 X7.1586 Y58.7111
G01 X7.1294 Y58.7505
G01 X7.1041 Y58.7925
G01 X7.0832 Y58.8369
G01 X7.0667 Y58.8830
G01 X7.0547 Y58.9306
G01 X7.0475 Y58.9791
G01 X7.0451 Y59.0281
G01 X7.0475 Y59.0771
G01 X7.0547 Y59.1256
G01 X7.0667 Y59.1731
G01 X7.0832 Y59.2193
G01 X7.1041 Y59.2636
G01 X7.1294 Y59.3057
G01 X7.1586 Y59.3451
G01 X7.1915 Y59.3814
G01 X7.2278 Y59.4143
G01 X7.2672 Y59.4436
G01 X7.3093 Y59.4688
G01 X7.3536 Y59.4897
G01 X7.3998 Y59.5062
G01 X7.4473 Y59.5182
G01 X7.4958 Y59.5254
G01 X7.5448 Y59.5278
G01 X7.5938 Y59.5254
G01 X7.6423 Y59.5182
G01 X7.6899 Y59.5062
G01 X7.7360 Y59.4897
G01 X7.7804 Y59.4688
G01 X7.8224 Y59.4436
G01 X7.8618 Y59.4143
G01 X7.8981 Y59.3814
G01 X7.9311 Y59.3451
G01 X7.9603 Y59.3057
G01 X7.9855 Y59.2636
G01 X8.0065 Y59.2193
G01 X8.0230 Y59.1731
G01 X8.0349 Y59.1256
G01 X8.0421 Y59.0771
G01 X8.0445 Y59.0281
G00 X8.0445 Y59.0281
G01 F250.00
G01 Z-1.6000
G01 F1250.00
G01 X8.0421 Y58.9791
G01 X8.0349 Y58.9306
G01 X8.0230 Y58.8830
G01 X8.0065 Y58.8369
G01 X7.9855 Y58.7925
G01 X7.9603 Y58.7505
G01 X7.9311 Y58.7111
G01 X7.8981 Y58.6748
G01 X7.8618 Y58.6418
G01 X7.8224 Y58.6126
G01 X7.7804 Y58.5874
G01 X7.7360 Y58.5664
G01 X7.6899 Y58.5499
G01 X7.6423 Y58.5380
G01 X7.5938 Y58.5308
G01 X7.5448 Y58.5284
G01 X7.4958 Y58.5308
G01 X7.4473 Y58.5380
G01 X7.3998 Y58.5499
G01 X7.3536 Y58.5664
G01 X7.3093 Y58.5874
G01 X7.2672 Y58.6126
G01 X7.2278 Y58.6418
G01 X7.1915 Y58.6748
G01 X7.1586 Y58.7111
G01 X7.1294 Y58.7505
G01 X7.1041 Y58.7925
G01 X7.0832 Y58.8369
G01 X7.0667 Y58.8830
G01 X7.0547 Y58.9306
G01 X7.0475 Y58.9791
G01 X7.0451 Y59.0281
G01 X7.0475 Y59.0771
G01 X7.0547 Y59.1256
G01 X7.0667 Y59.1731
G01 X7.0832 Y59.2193
G01 X7.1041 Y59.2636
G01 X7.1294 Y59.3057
G01 X7.1586 Y59.3451
G01 X7.1915 Y59.3814
G01 X7.2278 Y59.4143
G01 X7.2672 Y59.4436
G01 X7.3093 Y59.4688
G01 X7.3536 Y59.4897
G01 X7.3998 Y59.5062
G01 X7.4473 Y59.5182
G01 X7.4958 Y59.5254
G01 X7.5448 Y59.5278
G01 X7.5938 Y59.5254
G01 X7.6423 Y59.5182
G01 X7.6899 Y59.5062
G01 X7.7360 Y59.4897
G01 X7.7804 Y59.4688
G01 X7.8224 Y59.4436
G01 X7.8618 Y59.4143
G01 X7.8981 Y59.3814
G01 X7.9311 Y59.3451
G01 X7.9603 Y59.3057
G01 X7.9855 Y59.2636
G01 X8.0065 Y59.2193
G01 X8.0230 Y59.1731
G01 X8.0349 Y59.1256
G01 X8.0421 Y59.0771
G01 X8.0445 Y59.0281
G00 X8.0445 Y59.0281
G01 F250.00
G01 Z-1.7000
G01 F1250.00
G01 X8.0421 Y58.9791
G01 X8.0349 Y58.9306
G01 X8.0230 Y58.8830
G01 X8.0065 Y58.8369
G01 X7.9855 Y58.7925
G01 X7.9603 Y58.7505
G01 X7.9311 Y58.7111
G01 X7.8981 Y58.6748
G01 X7.8618 Y58.6418
G01 X7.8224 Y58.6126
G01 X7.7804 Y58.5874
G01 X7.7360 Y58.5664
G01 X7.6899 Y58.5499
G01 X7.6423 Y58.5380
G01 X7.5938 Y58.5308
G01 X7.5448 Y58.5284
G01 X7.4958 Y58.5308
G01 X7.4473 Y58.5380
G01 X7.3998 Y58.5499
G01 X7.3536 Y58.5664
G01 X7.3093 Y58.5874
G01 X7.2672 Y58.6126
G01 X7.2278 Y58.6418
G01 X7.1915 Y58.6748
G01 X7.1586 Y58.7111
G01 X7.1294 Y58.7505
G01 X7.1041 Y58.7925
G01 X7.0832 Y58.8369
G01 X7.0667 Y58.8830
G01 X7.0547 Y58.9306
G01 X7.0475 Y58.9791
G01 X7.0451 Y59.0281
G01 X7.0475 Y59.0771
G01 X7.0547 Y59.1256
G01 X7.0667 Y59.1731
G01 X7.0832 Y59.2193
G01 X7.1041 Y59.2636
G01 X7.1294 Y59.3057
G01 X7.1586 Y59.3451
G01 X7.1915 Y59.3814
G01 X7.2278 Y59.4143
G01 X7.2672 Y59.4436
G01 X7.3093 Y59.4688
G01 X7.3536 Y59.4897
G01 X7.3998 Y59.5062
G01 X7.4473 Y59.5182
G01 X7.4958 Y59.5254
G01 X7.5448 Y59.5278
G01 X7.5938 Y59.5254
G01 X7.6423 Y59.5182
G01 X7.6899 Y59.5062
G01 X7.7360 Y59.4897
G01 X7.7804 Y59.4688
G01 X7.8224 Y59.4436
G01 X7.8618 Y59.4143
G01 X7.8981 Y59.3814
G01 X7.9311 Y59.3451
G01 X7.9603 Y59.3057
G01 X7.9855 Y59.2636
G01 X8.0065 Y59.2193
G01 X8.0230 Y59.1731
G01 X8.0349 Y59.1256
G01 X8.0421 Y59.0771
G01 X8.0445 Y59.0281
G00 Z0.5000
G00 X8.0445 Y62.8279
G01 F250.00
G01 Z-0.1000
G01 F1250.00
G01 X8.0421 Y62.7789
G01 X8.0349 Y62.7304
G01 X8.0230 Y62.6829
G01 X8.0065 Y62.6367
G01 X7.9855 Y62.5924
G01 X7.9603 Y62.5503
G01 X7.9311 Y62.5109
G01 X7.8981 Y62.4746
G01 X7.8618 Y62.4417
G01 X7.8224 Y62.4125
G01 X7.7804 Y62.3872
G01 X7.7360 Y62.3663
G01 X7.6899 Y62.3498
G01 X7.6423 Y62.3378
G01 X7.5938 Y62.3306
G01 X7.5448 Y62.3282
G01 X7.4958 Y62.3306
G01 X7.4473 Y62.3378
G01 X7.3998 Y62.3498
G01 X7.3536 Y62.3663
G01 X7.3093 Y62.3872
G01 X7.2672 Y62.4125
G01 X7.2278 Y62.4417
G01 X7.1915 Y62.4746
G01 X7.1586 Y62.5109
G01 X7.1294 Y62.5503
G01 X7.1041 Y62.5924
G01 X7.0832 Y62.6367
G01 X7.0667 Y62.6829
G01 X7.0547 Y62.7304
G01 X7.0475 Y62.7789
G01 X7.0451 Y62.8279
G01 X7.0475 Y62.8769
G01 X7.0547 Y62.9254
G01 X7.0667 Y62.9730
G01 X7.0832 Y63.0191
G01 X7.1041 Y63.0635
G01 X7.1294 Y63.1055
G01 X7.1586 Y63.1449
G01 X7.1915 Y63.1812
G01 X7.2278 Y63.2142
G01 X7.2672 Y63.2434
G01 X7.3093 Y63.2686
G01 X7.3536 Y63.2896
G01 X7.3998 Y63.3061
G01 X7.4473 Y63.3180
G01 X7.4958 Y63.3252
G01 X7.5448 Y63.3276
G01 X7.5938 Y63.3252
G01 X7.6423 Y63.3180
G01 X7.6899 Y63.3061
G01 X7.7360 Y63.2896
G01 X7.7804 Y63.2686
G01 X7.8224 Y63.2434
G01 X7.8618 Y63.2142
G01 X7.8981 Y63.1812
G01 X7.9311 Y63.1449
G01 X7.9603 Y63.1055
G01 X7.9855 Y63.0635
G01 X8.0065 Y63.0191
G01 X8.0230 Y62.9730
G01 X8.0349 Y62.9254
G01 X8.0421 Y62.8769
G01 X8.0445 Y62.8279
G00 X8.0445 Y62.8279
G01 F250.00
G01 Z-0.2000
G01 F1250.00
G01 X8.0421 Y62.7789
G01 X8.0349 Y62.7304
G01 X8.0230 Y62.6829
G01 X8.0065 Y62.6367
G01 X7.9855 Y62.5924
G01 X7.9603 Y62.5503
G01 X7.9311 Y62.5109
G01 X7.8981 Y62.4746
G01 X7.8618 Y62.4417
G01 X7.8224 Y62.4125
G01 X7.7804 Y62.3872
G01 X7.7360 Y62.3663
G01 X7.6899 Y62.3498
G01 X7.6423 Y62.3378
G01 X7.5938 Y62.3306
G01 X7.5448 Y62.3282
G01 X7.4958 Y62.3306
G01 X7.4473 Y62.3378
G01 X7.3998 Y62.3498
G01 X7.3536 Y62.3663
G01 X7.3093 Y62.3872
G01 X7.2672 Y62.4125
G01 X7.2278 Y62.4417
G01 X7.1915 Y62.4746
G01 X7.1586 Y62.5109
G01 X7.1294 Y62.5503
G01 X7.1041 Y62.5924
G01 X7.0832 Y62.6367
G01 X7.0667 Y62.6829
G01 X7.0547 Y62.7304
G01 X7.0475 Y62.7789
G01 X7.0451 Y62.8279
G01 X7.0475 Y62.8769
G01 X7.0547 Y62.9254
G01 X7.0667 Y62.9730
G01 X7.0832 Y63.0191
G01 X7.1041 Y63.0635
G01 X7.1294 Y63.1055
G01 X7.1586 Y63.1449
G01 X7.1915 Y63.1812
G01 X7.2278 Y63.2142
G01 X7.2672 Y63.2434
G01 X7.3093 Y63.2686
G01 X7.3536 Y63.2896
G01 X7.3998 Y63.3061
G01 X7.4473 Y63.3180
G01 X7.4958 Y63.3252
G01 X7.5448 Y63.3276
G01 X7.5938 Y63.3252
G01 X7.6423 Y63.3180
G01 X7.6899 Y63.3061
G01 X7.7360 Y63.2896
G01 X7.7804 Y63.2686
G01 X7.8224 Y63.2434
G01 X7.8618 Y63.2142
G01 X7.8981 Y63.1812
G01 X7.9311 Y63.1449
G01 X7.9603 Y63.1055
G01 X7.9855 Y63.0635
G01 X8.0065 Y63.0191
G01 X8.0230 Y62.9730
G01 X8.0349 Y62.9254
G01 X8.0421 Y62.8769
G01 X8.0445 Y62.8279
G00 X8.0445 Y62.8279
G01 F250.00
G01 Z-0.3000
G01 F1250.00
G01 X8.0421 Y62.7789
G01 X8.0349 Y62.7304
G01 X8.0230 Y62.6829
G01 X8.0065 Y62.6367
G01 X7.9855 Y62.5924
G01 X7.9603 Y62.5503
G01 X7.9311 Y62.5109
G01 X7.8981 Y62.4746
G01 X7.8618 Y62.4417
G01 X7.8224 Y62.4125
G01 X7.7804 Y62.3872
G01 X7.7360 Y62.3663
G01 X7.6899 Y62.3498
G01 X7.6423 Y62.3378
G01 X7.5938 Y62.3306
G01 X7.5448 Y62.3282
G01 X7.4958 Y62.3306
G01 X7.4473 Y62.3378
G01 X7.3998 Y62.3498
G01 X7.3536 Y62.3663
G01 X7.3093 Y62.3872
G01 X7.2672 Y62.4125
G01 X7.2278 Y62.4417
G01 X7.1915 Y62.4746
G01 X7.1586 Y62.5109
G01 X7.1294 Y62.5503
G01 X7.1041 Y62.5924
G01 X7.0832 Y62.6367
G01 X7.0667 Y62.6829
G01 X7.0547 Y62.7304
G01 X7.0475 Y62.7789
G01 X7.0451 Y62.8279
G01 X7.0475 Y62.8769
G01 X7.0547 Y62.9254
G01 X7.0667 Y62.9730
G01 X7.0832 Y63.0191
G01 X7.1041 Y63.0635
G01 X7.1294 Y63.1055
G01 X7.1586 Y63.1449
G01 X7.1915 Y63.1812
G01 X7.2278 Y63.2142
G01 X7.2672 Y63.2434
G01 X7.3093 Y63.2686
G01 X7.3536 Y63.2896
G01 X7.3998 Y63.3061
G01 X7.4473 Y63.3180
G01 X7.4958 Y63.3252
G01 X7.5448 Y63.3276
G01 X7.5938 Y63.3252
G01 X7.6423 Y63.3180
G01 X7.6899 Y63.3061
G01 X7.7360 Y63.2896
G01 X7.7804 Y63.2686
G01 X7.8224 Y63.2434
G01 X7.8618 Y63.2142
G01 X7.8981 Y63.1812
G01 X7.9311 Y63.1449
G01 X7.9603 Y63.1055
G01 X7.9855 Y63.0635
G01 X8.0065 Y63.0191
G01 X8.0230 Y62.9730
G01 X8.0349 Y62.9254
G01 X8.0421 Y62.8769
G01 X8.0445 Y62.8279
G00 X8.0445 Y62.8279
G01 F250.00
G01 Z-0.4000
G01 F1250.00
G01 X8.0421 Y62.7789
G01 X8.0349 Y62.7304
G01 X8.0230 Y62.6829
G01 X8.0065 Y62.6367
G01 X7.9855 Y62.5924
G01 X7.9603 Y62.5503
G01 X7.9311 Y62.5109
G01 X7.8981 Y62.4746
G01 X7.8618 Y62.4417
G01 X7.8224 Y62.4125
G01 X7.7804 Y62.3872
G01 X7.7360 Y62.3663
G01 X7.6899 Y62.3498
G01 X7.6423 Y62.3378
G01 X7.5938 Y62.3306
G01 X7.5448 Y62.3282
G01 X7.4958 Y62.3306
G01 X7.4473 Y62.3378
G01 X7.3998 Y62.3498
G01 X7.3536 Y62.3663
G01 X7.3093 Y62.3872
G01 X7.2672 Y62.4125
G01 X7.2278 Y62.4417
G01 X7.1915 Y62.4746
G01 X7.1586 Y62.5109
G01 X7.1294 Y62.5503
G01 X7.1041 Y62.5924
G01 X7.0832 Y62.6367
G01 X7.0667 Y62.6829
G01 X7.0547 Y62.7304
G01 X7.0475 Y62.7789
G01 X7.0451 Y62.8279
G01 X7.0475 Y62.8769
G01 X7.0547 Y62.9254
G01 X7.0667 Y62.9730
G01 X7.0832 Y63.0191
G01 X7.1041 Y63.0635
G01 X7.1294 Y63.1055
G01 X7.1586 Y63.1449
G01 X7.1915 Y63.1812
G01 X7.2278 Y63.2142
G01 X7.2672 Y63.2434
G01 X7.3093 Y63.2686
G01 X7.3536 Y63.2896
G01 X7.3998 Y63.3061
G01 X7.4473 Y63.3180
G01 X7.4958 Y63.3252
G01 X7.5448 Y63.3276
G01 X7.5938 Y63.3252
G01 X7.6423 Y63.3180
G01 X7.6899 Y63.3061
G01 X7.7360 Y63.2896
G01 X7.7804 Y63.2686
G01 X7.8224 Y63.2434
G01 X7.8618 Y63.2142
G01 X7.8981 Y63.1812
G01 X7.9311 Y63.1449
G01 X7.9603 Y63.1055
G01 X7.9855 Y63.0635
G01 X8.0065 Y63.0191
G01 X8.0230 Y62.9730
G01 X8.0349 Y62.9254
G01 X8.0421 Y62.8769
G01 X8.0445 Y62.8279
G00 X8.0445 Y62.8279
G01 F250.00
G01 Z-0.5000
G01 F1250.00
G01 X8.0421 Y62.7789
G01 X8.0349 Y62.7304
G01 X8.0230 Y62.6829
G01 X8.0065 Y62.6367
G01 X7.9855 Y62.5924
G01 X7.9603 Y62.5503
G01 X7.9311 Y62.5109
G01 X7.8981 Y62.4746
G01 X7.8618 Y62.4417
G01 X7.8224 Y62.4125
G01 X7.7804 Y62.3872
G01 X7.7360 Y62.3663
G01 X7.6899 Y62.3498
G01 X7.6423 Y62.3378
G01 X7.5938 Y62.3306
G01 X7.5448 Y62.3282
G01 X7.4958 Y62.3306
G01 X7.4473 Y62.3378
G01 X7.3998 Y62.3498
G01 X7.3536 Y62.3663
G01 X7.3093 Y62.3872
G01 X7.2672 Y62.4125
G01 X7.2278 Y62.4417
G01 X7.1915 Y62.4746
G01 X7.1586 Y62.5109
G01 X7.1294 Y62.5503
G01 X7.1041 Y62.5924
G01 X7.0832 Y62.6367
G01 X7.0667 Y62.6829
G01 X7.0547 Y62.7304
G01 X7.0475 Y62.7789
G01 X7.0451 Y62.8279
G01 X7.0475 Y62.8769
G01 X7.0547 Y62.9254
G01 X7.0667 Y62.9730
G01 X7.0832 Y63.0191
G01 X7.1041 Y63.0635
G01 X7.1294 Y63.1055
G01 X7.1586 Y63.1449
G01 X7.1915 Y63.1812
G01 X7.2278 Y63.2142
G01 X7.2672 Y63.2434
G01 X7.3093 Y63.2686
G01 X7.3536 Y63.2896
G01 X7.3998 Y63.3061
G01 X7.4473 Y63.3180
G01 X7.4958 Y63.3252
G01 X7.5448 Y63.3276
G01 X7.5938 Y63.3252
G01 X7.6423 Y63.3180
G01 X7.6899 Y63.3061
G01 X7.7360 Y63.2896
G01 X7.7804 Y63.2686
G01 X7.8224 Y63.2434
G01 X7.8618 Y63.2142
G01 X7.8981 Y63.1812
G01 X7.9311 Y63.1449
G01 X7.9603 Y63.1055
G01 X7.9855 Y63.0635
G01 X8.0065 Y63.0191
G01 X8.0230 Y62.9730
G01 X8.0349 Y62.9254
G01 X8.0421 Y62.8769
G01 X8.0445 Y62.8279
G00 X8.0445 Y62.8279
G01 F250.00
G01 Z-0.6000
G01 F1250.00
G01 X8.0421 Y62.7789
G01 X8.0349 Y62.7304
G01 X8.0230 Y62.6829
G01 X8.0065 Y62.6367
G01 X7.9855 Y62.5924
G01 X7.9603 Y62.5503
G01 X7.9311 Y62.5109
G01 X7.8981 Y62.4746
G01 X7.8618 Y62.4417
G01 X7.8224 Y62.4125
G01 X7.7804 Y62.3872
G01 X7.7360 Y62.3663
G01 X7.6899 Y62.3498
G01 X7.6423 Y62.3378
G01 X7.5938 Y62.3306
G01 X7.5448 Y62.3282
G01 X7.4958 Y62.3306
G01 X7.4473 Y62.3378
G01 X7.3998 Y62.3498
G01 X7.3536 Y62.3663
G01 X7.3093 Y62.3872
G01 X7.2672 Y62.4125
G01 X7.2278 Y62.4417
G01 X7.1915 Y62.4746
G01 X7.1586 Y62.5109
G01 X7.1294 Y62.5503
G01 X7.1041 Y62.5924
G01 X7.0832 Y62.6367
G01 X7.0667 Y62.6829
G01 X7.0547 Y62.7304
G01 X7.0475 Y62.7789
G01 X7.0451 Y62.8279
G01 X7.0475 Y62.8769
G01 X7.0547 Y62.9254
G01 X7.0667 Y62.9730
G01 X7.0832 Y63.0191
G01 X7.1041 Y63.0635
G01 X7.1294 Y63.1055
G01 X7.1586 Y63.1449
G01 X7.1915 Y63.1812
G01 X7.2278 Y63.2142
G01 X7.2672 Y63.2434
G01 X7.3093 Y63.2686
G01 X7.3536 Y63.2896
G01 X7.3998 Y63.3061
G01 X7.4473 Y63.3180
G01 X7.4958 Y63.3252
G01 X7.5448 Y63.3276
G01 X7.5938 Y63.3252
G01 X7.6423 Y63.3180
G01 X7.6899 Y63.3061
G01 X7.7360 Y63.2896
G01 X7.7804 Y63.2686
G01 X7.8224 Y63.2434
G01 X7.8618 Y63.2142
G01 X7.8981 Y63.1812
G01 X7.9311 Y63.1449
G01 X7.9603 Y63.1055
G01 X7.9855 Y63.0635
G01 X8.0065 Y63.0191
G01 X8.0230 Y62.9730
G01 X8.0349 Y62.9254
G01 X8.0421 Y62.8769
G01 X8.0445 Y62.8279
G00 X8.0445 Y62.8279
G01 F250.00
G01 Z-0.7000
G01 F1250.00
G01 X8.0421 Y62.7789
G01 X8.0349 Y62.7304
G01 X8.0230 Y62.6829
G01 X8.0065 Y62.6367
G01 X7.9855 Y62.5924
G01 X7.9603 Y62.5503
G01 X7.9311 Y62.5109
G01 X7.8981 Y62.4746
G01 X7.8618 Y62.4417
G01 X7.8224 Y62.4125
G01 X7.7804 Y62.3872
G01 X7.7360 Y62.3663
G01 X7.6899 Y62.3498
G01 X7.6423 Y62.3378
G01 X7.5938 Y62.3306
G01 X7.5448 Y62.3282
G01 X7.4958 Y62.3306
G01 X7.4473 Y62.3378
G01 X7.3998 Y62.3498
G01 X7.3536 Y62.3663
G01 X7.3093 Y62.3872
G01 X7.2672 Y62.4125
G01 X7.2278 Y62.4417
G01 X7.1915 Y62.4746
G01 X7.1586 Y62.5109
G01 X7.1294 Y62.5503
G01 X7.1041 Y62.5924
G01 X7.0832 Y62.6367
G01 X7.0667 Y62.6829
G01 X7.0547 Y62.7304
G01 X7.0475 Y62.7789
G01 X7.0451 Y62.8279
G01 X7.0475 Y62.8769
G01 X7.0547 Y62.9254
G01 X7.0667 Y62.9730
G01 X7.0832 Y63.0191
G01 X7.1041 Y63.0635
G01 X7.1294 Y63.1055
G01 X7.1586 Y63.1449
G01 X7.1915 Y63.1812
G01 X7.2278 Y63.2142
G01 X7.2672 Y63.2434
G01 X7.3093 Y63.2686
G01 X7.3536 Y63.2896
G01 X7.3998 Y63.3061
G01 X7.4473 Y63.3180
G01 X7.4958 Y63.3252
G01 X7.5448 Y63.3276
G01 X7.5938 Y63.3252
G01 X7.6423 Y63.3180
G01 X7.6899 Y63.3061
G01 X7.7360 Y63.2896
G01 X7.7804 Y63.2686
G01 X7.8224 Y63.2434
G01 X7.8618 Y63.2142
G01 X7.8981 Y63.1812
G01 X7.9311 Y63.1449
G01 X7.9603 Y63.1055
G01 X7.9855 Y63.0635
G01 X8.0065 Y63.0191
G01 X8.0230 Y62.9730
G01 X8.0349 Y62.9254
G01 X8.0421 Y62.8769
G01 X8.0445 Y62.8279
G00 X8.0445 Y62.8279
G01 F250.00
G01 Z-0.8000
G01 F1250.00
G01 X8.0421 Y62.7789
G01 X8.0349 Y62.7304
G01 X8.0230 Y62.6829
G01 X8.0065 Y62.6367
G01 X7.9855 Y62.5924
G01 X7.9603 Y62.5503
G01 X7.9311 Y62.5109
G01 X7.8981 Y62.4746
G01 X7.8618 Y62.4417
G01 X7.8224 Y62.4125
G01 X7.7804 Y62.3872
G01 X7.7360 Y62.3663
G01 X7.6899 Y62.3498
G01 X7.6423 Y62.3378
G01 X7.5938 Y62.3306
G01 X7.5448 Y62.3282
G01 X7.4958 Y62.3306
G01 X7.4473 Y62.3378
G01 X7.3998 Y62.3498
G01 X7.3536 Y62.3663
G01 X7.3093 Y62.3872
G01 X7.2672 Y62.4125
G01 X7.2278 Y62.4417
G01 X7.1915 Y62.4746
G01 X7.1586 Y62.5109
G01 X7.1294 Y62.5503
G01 X7.1041 Y62.5924
G01 X7.0832 Y62.6367
G01 X7.0667 Y62.6829
G01 X7.0547 Y62.7304
G01 X7.0475 Y62.7789
G01 X7.0451 Y62.8279
G01 X7.0475 Y62.8769
G01 X7.0547 Y62.9254
G01 X7.0667 Y62.9730
G01 X7.0832 Y63.0191
G01 X7.1041 Y63.0635
G01 X7.1294 Y63.1055
G01 X7.1586 Y63.1449
G01 X7.1915 Y63.1812
G01 X7.2278 Y63.2142
G01 X7.2672 Y63.2434
G01 X7.3093 Y63.2686
G01 X7.3536 Y63.2896
G01 X7.3998 Y63.3061
G01 X7.4473 Y63.3180
G01 X7.4958 Y63.3252
G01 X7.5448 Y63.3276
G01 X7.5938 Y63.3252
G01 X7.6423 Y63.3180
G01 X7.6899 Y63.3061
G01 X7.7360 Y63.2896
G01 X7.7804 Y63.2686
G01 X7.8224 Y63.2434
G01 X7.8618 Y63.2142
G01 X7.8981 Y63.1812
G01 X7.9311 Y63.1449
G01 X7.9603 Y63.1055
G01 X7.9855 Y63.0635
G01 X8.0065 Y63.0191
G01 X8.0230 Y62.9730
G01 X8.0349 Y62.9254
G01 X8.0421 Y62.8769
G01 X8.0445 Y62.8279
G00 X8.0445 Y62.8279
G01 F250.00
G01 Z-0.9000
G01 F1250.00
G01 X8.0421 Y62.7789
G01 X8.0349 Y62.7304
G01 X8.0230 Y62.6829
G01 X8.0065 Y62.6367
G01 X7.9855 Y62.5924
G01 X7.9603 Y62.5503
G01 X7.9311 Y62.5109
G01 X7.8981 Y62.4746
G01 X7.8618 Y62.4417
G01 X7.8224 Y62.4125
G01 X7.7804 Y62.3872
G01 X7.7360 Y62.3663
G01 X7.6899 Y62.3498
G01 X7.6423 Y62.3378
G01 X7.5938 Y62.3306
G01 X7.5448 Y62.3282
G01 X7.4958 Y62.3306
G01 X7.4473 Y62.3378
G01 X7.3998 Y62.3498
G01 X7.3536 Y62.3663
G01 X7.3093 Y62.3872
G01 X7.2672 Y62.4125
G01 X7.2278 Y62.4417
G01 X7.1915 Y62.4746
G01 X7.1586 Y62.5109
G01 X7.1294 Y62.5503
G01 X7.1041 Y62.5924
G01 X7.0832 Y62.6367
G01 X7.0667 Y62.6829
G01 X7.0547 Y62.7304
G01 X7.0475 Y62.7789
G01 X7.0451 Y62.8279
G01 X7.0475 Y62.8769
G01 X7.0547 Y62.9254
G01 X7.0667 Y62.9730
G01 X7.0832 Y63.0191
G01 X7.1041 Y63.0635
G01 X7.1294 Y63.1055
G01 X7.1586 Y63.1449
G01 X7.1915 Y63.1812
G01 X7.2278 Y63.2142
G01 X7.2672 Y63.2434
G01 X7.3093 Y63.2686
G01 X7.3536 Y63.2896
G01 X7.3998 Y63.3061
G01 X7.4473 Y63.3180
G01 X7.4958 Y63.3252
G01 X7.5448 Y63.3276
G01 X7.5938 Y63.3252
G01 X7.6423 Y63.3180
G01 X7.6899 Y63.3061
G01 X7.7360 Y63.2896
G01 X7.7804 Y63.2686
G01 X7.8224 Y63.2434
G01 X7.8618 Y63.2142
G01 X7.8981 Y63.1812
G01 X7.9311 Y63.1449
G01 X7.9603 Y63.1055
G01 X7.9855 Y63.0635
G01 X8.0065 Y63.0191
G01 X8.0230 Y62.9730
G01 X8.0349 Y62.9254
G01 X8.0421 Y62.8769
G01 X8.0445 Y62.8279
G00 X8.0445 Y62.8279
G01 F250.00
G01 Z-1.0000
G01 F1250.00
G01 X8.0421 Y62.7789
G01 X8.0349 Y62.7304
G01 X8.0230 Y62.6829
G01 X8.0065 Y62.6367
G01 X7.9855 Y62.5924
G01 X7.9603 Y62.5503
G01 X7.9311 Y62.5109
G01 X7.8981 Y62.4746
G01 X7.8618 Y62.4417
G01 X7.8224 Y62.4125
G01 X7.7804 Y62.3872
G01 X7.7360 Y62.3663
G01 X7.6899 Y62.3498
G01 X7.6423 Y62.3378
G01 X7.5938 Y62.3306
G01 X7.5448 Y62.3282
G01 X7.4958 Y62.3306
G01 X7.4473 Y62.3378
G01 X7.3998 Y62.3498
G01 X7.3536 Y62.3663
G01 X7.3093 Y62.3872
G01 X7.2672 Y62.4125
G01 X7.2278 Y62.4417
G01 X7.1915 Y62.4746
G01 X7.1586 Y62.5109
G01 X7.1294 Y62.5503
G01 X7.1041 Y62.5924
G01 X7.0832 Y62.6367
G01 X7.0667 Y62.6829
G01 X7.0547 Y62.7304
G01 X7.0475 Y62.7789
G01 X7.0451 Y62.8279
G01 X7.0475 Y62.8769
G01 X7.0547 Y62.9254
G01 X7.0667 Y62.9730
G01 X7.0832 Y63.0191
G01 X7.1041 Y63.0635
G01 X7.1294 Y63.1055
G01 X7.1586 Y63.1449
G01 X7.1915 Y63.1812
G01 X7.2278 Y63.2142
G01 X7.2672 Y63.2434
G01 X7.3093 Y63.2686
G01 X7.3536 Y63.2896
G01 X7.3998 Y63.3061
G01 X7.4473 Y63.3180
G01 X7.4958 Y63.3252
G01 X7.5448 Y63.3276
G01 X7.5938 Y63.3252
G01 X7.6423 Y63.3180
G01 X7.6899 Y63.3061
G01 X7.7360 Y63.2896
G01 X7.7804 Y63.2686
G01 X7.8224 Y63.2434
G01 X7.8618 Y63.2142
G01 X7.8981 Y63.1812
G01 X7.9311 Y63.1449
G01 X7.9603 Y63.1055
G01 X7.9855 Y63.0635
G01 X8.0065 Y63.0191
G01 X8.0230 Y62.9730
G01 X8.0349 Y62.9254
G01 X8.0421 Y62.8769
G01 X8.0445 Y62.8279
G00 X8.0445 Y62.8279
G01 F250.00
G01 Z-1.1000
G01 F1250.00
G01 X8.0421 Y62.7789
G01 X8.0349 Y62.7304
G01 X8.0230 Y62.6829
G01 X8.0065 Y62.6367
G01 X7.9855 Y62.5924
G01 X7.9603 Y62.5503
G01 X7.9311 Y62.5109
G01 X7.8981 Y62.4746
G01 X7.8618 Y62.4417
G01 X7.8224 Y62.4125
G01 X7.7804 Y62.3872
G01 X7.7360 Y62.3663
G01 X7.6899 Y62.3498
G01 X7.6423 Y62.3378
G01 X7.5938 Y62.3306
G01 X7.5448 Y62.3282
G01 X7.4958 Y62.3306
G01 X7.4473 Y62.3378
G01 X7.3998 Y62.3498
G01 X7.3536 Y62.3663
G01 X7.3093 Y62.3872
G01 X7.2672 Y62.4125
G01 X7.2278 Y62.4417
G01 X7.1915 Y62.4746
G01 X7.1586 Y62.5109
G01 X7.1294 Y62.5503
G01 X7.1041 Y62.5924
G01 X7.0832 Y62.6367
G01 X7.0667 Y62.6829
G01 X7.0547 Y62.7304
G01 X7.0475 Y62.7789
G01 X7.0451 Y62.8279
G01 X7.0475 Y62.8769
G01 X7.0547 Y62.9254
G01 X7.0667 Y62.9730
G01 X7.0832 Y63.0191
G01 X7.1041 Y63.0635
G01 X7.1294 Y63.1055
G01 X7.1586 Y63.1449
G01 X7.1915 Y63.1812
G01 X7.2278 Y63.2142
G01 X7.2672 Y63.2434
G01 X7.3093 Y63.2686
G01 X7.3536 Y63.2896
G01 X7.3998 Y63.3061
G01 X7.4473 Y63.3180
G01 X7.4958 Y63.3252
G01 X7.5448 Y63.3276
G01 X7.5938 Y63.3252
G01 X7.6423 Y63.3180
G01 X7.6899 Y63.3061
G01 X7.7360 Y63.2896
G01 X7.7804 Y63.2686
G01 X7.8224 Y63.2434
G01 X7.8618 Y63.2142
G01 X7.8981 Y63.1812
G01 X7.9311 Y63.1449
G01 X7.9603 Y63.1055
G01 X7.9855 Y63.0635
G01 X8.0065 Y63.0191
G01 X8.0230 Y62.9730
G01 X8.0349 Y62.9254
G01 X8.0421 Y62.8769
G01 X8.0445 Y62.8279
G00 X8.0445 Y62.8279
G01 F250.00
G01 Z-1.2000
G01 F1250.00
G01 X8.0421 Y62.7789
G01 X8.0349 Y62.7304
G01 X8.0230 Y62.6829
G01 X8.0065 Y62.6367
G01 X7.9855 Y62.5924
G01 X7.9603 Y62.5503
G01 X7.9311 Y62.5109
G01 X7.8981 Y62.4746
G01 X7.8618 Y62.4417
G01 X7.8224 Y62.4125
G01 X7.7804 Y62.3872
G01 X7.7360 Y62.3663
G01 X7.6899 Y62.3498
G01 X7.6423 Y62.3378
G01 X7.5938 Y62.3306
G01 X7.5448 Y62.3282
G01 X7.4958 Y62.3306
G01 X7.4473 Y62.3378
G01 X7.3998 Y62.3498
G01 X7.3536 Y62.3663
G01 X7.3093 Y62.3872
G01 X7.2672 Y62.4125
G01 X7.2278 Y62.4417
G01 X7.1915 Y62.4746
G01 X7.1586 Y62.5109
G01 X7.1294 Y62.5503
G01 X7.1041 Y62.5924
G01 X7.0832 Y62.6367
G01 X7.0667 Y62.6829
G01 X7.0547 Y62.7304
G01 X7.0475 Y62.7789
G01 X7.0451 Y62.8279
G01 X7.0475 Y62.8769
G01 X7.0547 Y62.9254
G01 X7.0667 Y62.9730
G01 X7.0832 Y63.0191
G01 X7.1041 Y63.0635
G01 X7.1294 Y63.1055
G01 X7.1586 Y63.1449
G01 X7.1915 Y63.1812
G01 X7.2278 Y63.2142
G01 X7.2672 Y63.2434
G01 X7.3093 Y63.2686
G01 X7.3536 Y63.2896
G01 X7.3998 Y63.3061
G01 X7.4473 Y63.3180
G01 X7.4958 Y63.3252
G01 X7.5448 Y63.3276
G01 X7.5938 Y63.3252
G01 X7.6423 Y63.3180
G01 X7.6899 Y63.3061
G01 X7.7360 Y63.2896
G01 X7.7804 Y63.2686
G01 X7.8224 Y63.2434
G01 X7.8618 Y63.2142
G01 X7.8981 Y63.1812
G01 X7.9311 Y63.1449
G01 X7.9603 Y63.1055
G01 X7.9855 Y63.0635
G01 X8.0065 Y63.0191
G01 X8.0230 Y62.9730
G01 X8.0349 Y62.9254
G01 X8.0421 Y62.8769
G01 X8.0445 Y62.8279
G00 X8.0445 Y62.8279
G01 F250.00
G01 Z-1.3000
G01 F1250.00
G01 X8.0421 Y62.7789
G01 X8.0349 Y62.7304
G01 X8.0230 Y62.6829
G01 X8.0065 Y62.6367
G01 X7.9855 Y62.5924
G01 X7.9603 Y62.5503
G01 X7.9311 Y62.5109
G01 X7.8981 Y62.4746
G01 X7.8618 Y62.4417
G01 X7.8224 Y62.4125
G01 X7.7804 Y62.3872
G01 X7.7360 Y62.3663
G01 X7.6899 Y62.3498
G01 X7.6423 Y62.3378
G01 X7.5938 Y62.3306
G01 X7.5448 Y62.3282
G01 X7.4958 Y62.3306
G01 X7.4473 Y62.3378
G01 X7.3998 Y62.3498
G01 X7.3536 Y62.3663
G01 X7.3093 Y62.3872
G01 X7.2672 Y62.4125
G01 X7.2278 Y62.4417
G01 X7.1915 Y62.4746
G01 X7.1586 Y62.5109
G01 X7.1294 Y62.5503
G01 X7.1041 Y62.5924
G01 X7.0832 Y62.6367
G01 X7.0667 Y62.6829
G01 X7.0547 Y62.7304
G01 X7.0475 Y62.7789
G01 X7.0451 Y62.8279
G01 X7.0475 Y62.8769
G01 X7.0547 Y62.9254
G01 X7.0667 Y62.9730
G01 X7.0832 Y63.0191
G01 X7.1041 Y63.0635
G01 X7.1294 Y63.1055
G01 X7.1586 Y63.1449
G01 X7.1915 Y63.1812
G01 X7.2278 Y63.2142
G01 X7.2672 Y63.2434
G01 X7.3093 Y63.2686
G01 X7.3536 Y63.2896
G01 X7.3998 Y63.3061
G01 X7.4473 Y63.3180
G01 X7.4958 Y63.3252
G01 X7.5448 Y63.3276
G01 X7.5938 Y63.3252
G01 X7.6423 Y63.3180
G01 X7.6899 Y63.3061
G01 X7.7360 Y63.2896
G01 X7.7804 Y63.2686
G01 X7.8224 Y63.2434
G01 X7.8618 Y63.2142
G01 X7.8981 Y63.1812
G01 X7.9311 Y63.1449
G01 X7.9603 Y63.1055
G01 X7.9855 Y63.0635
G01 X8.0065 Y63.0191
G01 X8.0230 Y62.9730
G01 X8.0349 Y62.9254
G01 X8.0421 Y62.8769
G01 X8.0445 Y62.8279
G00 X8.0445 Y62.8279
G01 F250.00
G01 Z-1.4000
G01 F1250.00
G01 X8.0421 Y62.7789
G01 X8.0349 Y62.7304
G01 X8.0230 Y62.6829
G01 X8.0065 Y62.6367
G01 X7.9855 Y62.5924
G01 X7.9603 Y62.5503
G01 X7.9311 Y62.5109
G01 X7.8981 Y62.4746
G01 X7.8618 Y62.4417
G01 X7.8224 Y62.4125
G01 X7.7804 Y62.3872
G01 X7.7360 Y62.3663
G01 X7.6899 Y62.3498
G01 X7.6423 Y62.3378
G01 X7.5938 Y62.3306
G01 X7.5448 Y62.3282
G01 X7.4958 Y62.3306
G01 X7.4473 Y62.3378
G01 X7.3998 Y62.3498
G01 X7.3536 Y62.3663
G01 X7.3093 Y62.3872
G01 X7.2672 Y62.4125
G01 X7.2278 Y62.4417
G01 X7.1915 Y62.4746
G01 X7.1586 Y62.5109
G01 X7.1294 Y62.5503
G01 X7.1041 Y62.5924
G01 X7.0832 Y62.6367
G01 X7.0667 Y62.6829
G01 X7.0547 Y62.7304
G01 X7.0475 Y62.7789
G01 X7.0451 Y62.8279
G01 X7.0475 Y62.8769
G01 X7.0547 Y62.9254
G01 X7.0667 Y62.9730
G01 X7.0832 Y63.0191
G01 X7.1041 Y63.0635
G01 X7.1294 Y63.1055
G01 X7.1586 Y63.1449
G01 X7.1915 Y63.1812
G01 X7.2278 Y63.2142
G01 X7.2672 Y63.2434
G01 X7.3093 Y63.2686
G01 X7.3536 Y63.2896
G01 X7.3998 Y63.3061
G01 X7.4473 Y63.3180
G01 X7.4958 Y63.3252
G01 X7.5448 Y63.3276
G01 X7.5938 Y63.3252
G01 X7.6423 Y63.3180
G01 X7.6899 Y63.3061
G01 X7.7360 Y63.2896
G01 X7.7804 Y63.2686
G01 X7.8224 Y63.2434
G01 X7.8618 Y63.2142
G01 X7.8981 Y63.1812
G01 X7.9311 Y63.1449
G01 X7.9603 Y63.1055
G01 X7.9855 Y63.0635
G01 X8.0065 Y63.0191
G01 X8.0230 Y62.9730
G01 X8.0349 Y62.9254
G01 X8.0421 Y62.8769
G01 X8.0445 Y62.8279
G00 X8.0445 Y62.8279
G01 F250.00
G01 Z-1.5000
G01 F1250.00
G01 X8.0421 Y62.7789
G01 X8.0349 Y62.7304
G01 X8.0230 Y62.6829
G01 X8.0065 Y62.6367
G01 X7.9855 Y62.5924
G01 X7.9603 Y62.5503
G01 X7.9311 Y62.5109
G01 X7.8981 Y62.4746
G01 X7.8618 Y62.4417
G01 X7.8224 Y62.4125
G01 X7.7804 Y62.3872
G01 X7.7360 Y62.3663
G01 X7.6899 Y62.3498
G01 X7.6423 Y62.3378
G01 X7.5938 Y62.3306
G01 X7.5448 Y62.3282
G01 X7.4958 Y62.3306
G01 X7.4473 Y62.3378
G01 X7.3998 Y62.3498
G01 X7.3536 Y62.3663
G01 X7.3093 Y62.3872
G01 X7.2672 Y62.4125
G01 X7.2278 Y62.4417
G01 X7.1915 Y62.4746
G01 X7.1586 Y62.5109
G01 X7.1294 Y62.5503
G01 X7.1041 Y62.5924
G01 X7.0832 Y62.6367
G01 X7.0667 Y62.6829
G01 X7.0547 Y62.7304
G01 X7.0475 Y62.7789
G01 X7.0451 Y62.8279
G01 X7.0475 Y62.8769
G01 X7.0547 Y62.9254
G01 X7.0667 Y62.9730
G01 X7.0832 Y63.0191
G01 X7.1041 Y63.0635
G01 X7.1294 Y63.1055
G01 X7.1586 Y63.1449
G01 X7.1915 Y63.1812
G01 X7.2278 Y63.2142
G01 X7.2672 Y63.2434
G01 X7.3093 Y63.2686
G01 X7.3536 Y63.2896
G01 X7.3998 Y63.3061
G01 X7.4473 Y63.3180
G01 X7.4958 Y63.3252
G01 X7.5448 Y63.3276
G01 X7.5938 Y63.3252
G01 X7.6423 Y63.3180
G01 X7.6899 Y63.3061
G01 X7.7360 Y63.2896
G01 X7.7804 Y63.2686
G01 X7.8224 Y63.2434
G01 X7.8618 Y63.2142
G01 X7.8981 Y63.1812
G01 X7.9311 Y63.1449
G01 X7.9603 Y63.1055
G01 X7.9855 Y63.0635
G01 X8.0065 Y63.0191
G01 X8.0230 Y62.9730
G01 X8.0349 Y62.9254
G01 X8.0421 Y62.8769
G01 X8.0445 Y62.8279
G00 X8.0445 Y62.8279
G01 F250.00
G01 Z-1.6000
G01 F1250.00
G01 X8.0421 Y62.7789
G01 X8.0349 Y62.7304
G01 X8.0230 Y62.6829
G01 X8.0065 Y62.6367
G01 X7.9855 Y62.5924
G01 X7.9603 Y62.5503
G01 X7.9311 Y62.5109
G01 X7.8981 Y62.4746
G01 X7.8618 Y62.4417
G01 X7.8224 Y62.4125
G01 X7.7804 Y62.3872
G01 X7.7360 Y62.3663
G01 X7.6899 Y62.3498
G01 X7.6423 Y62.3378
G01 X7.5938 Y62.3306
G01 X7.5448 Y62.3282
G01 X7.4958 Y62.3306
G01 X7.4473 Y62.3378
G01 X7.3998 Y62.3498
G01 X7.3536 Y62.3663
G01 X7.3093 Y62.3872
G01 X7.2672 Y62.4125
G01 X7.2278 Y62.4417
G01 X7.1915 Y62.4746
G01 X7.1586 Y62.5109
G01 X7.1294 Y62.5503
G01 X7.1041 Y62.5924
G01 X7.0832 Y62.6367
G01 X7.0667 Y62.6829
G01 X7.0547 Y62.7304
G01 X7.0475 Y62.7789
G01 X7.0451 Y62.8279
G01 X7.0475 Y62.8769
G01 X7.0547 Y62.9254
G01 X7.0667 Y62.9730
G01 X7.0832 Y63.0191
G01 X7.1041 Y63.0635
G01 X7.1294 Y63.1055
G01 X7.1586 Y63.1449
G01 X7.1915 Y63.1812
G01 X7.2278 Y63.2142
G01 X7.2672 Y63.2434
G01 X7.3093 Y63.2686
G01 X7.3536 Y63.2896
G01 X7.3998 Y63.3061
G01 X7.4473 Y63.3180
G01 X7.4958 Y63.3252
G01 X7.5448 Y63.3276
G01 X7.5938 Y63.3252
G01 X7.6423 Y63.3180
G01 X7.6899 Y63.3061
G01 X7.7360 Y63.2896
G01 X7.7804 Y63.2686
G01 X7.8224 Y63.2434
G01 X7.8618 Y63.2142
G01 X7.8981 Y63.1812
G01 X7.9311 Y63.1449
G01 X7.9603 Y63.1055
G01 X7.9855 Y63.0635
G01 X8.0065 Y63.0191
G01 X8.0230 Y62.9730
G01 X8.0349 Y62.9254
G01 X8.0421 Y62.8769
G01 X8.0445 Y62.8279
G00 X8.0445 Y62.8279
G01 F250.00
G01 Z-1.7000
G01 F1250.00
G01 X8.0421 Y62.7789
G01 X8.0349 Y62.7304
G01 X8.0230 Y62.6829
G01 X8.0065 Y62.6367
G01 X7.9855 Y62.5924
G01 X7.9603 Y62.5503
G01 X7.9311 Y62.5109
G01 X7.8981 Y62.4746
G01 X7.8618 Y62.4417
G01 X7.8224 Y62.4125
G01 X7.7804 Y62.3872
G01 X7.7360 Y62.3663
G01 X7.6899 Y62.3498
G01 X7.6423 Y62.3378
G01 X7.5938 Y62.3306
G01 X7.5448 Y62.3282
G01 X7.4958 Y62.3306
G01 X7.4473 Y62.3378
G01 X7.3998 Y62.3498
G01 X7.3536 Y62.3663
G01 X7.3093 Y62.3872
G01 X7.2672 Y62.4125
G01 X7.2278 Y62.4417
G01 X7.1915 Y62.4746
G01 X7.1586 Y62.5109
G01 X7.1294 Y62.5503
G01 X7.1041 Y62.5924
G01 X7.0832 Y62.6367
G01 X7.0667 Y62.6829
G01 X7.0547 Y62.7304
G01 X7.0475 Y62.7789
G01 X7.0451 Y62.8279
G01 X7.0475 Y62.8769
G01 X7.0547 Y62.9254
G01 X7.0667 Y62.9730
G01 X7.0832 Y63.0191
G01 X7.1041 Y63.0635
G01 X7.1294 Y63.1055
G01 X7.1586 Y63.1449
G01 X7.1915 Y63.1812
G01 X7.2278 Y63.2142
G01 X7.2672 Y63.2434
G01 X7.3093 Y63.2686
G01 X7.3536 Y63.2896
G01 X7.3998 Y63.3061
G01 X7.4473 Y63.3180
G01 X7.4958 Y63.3252
G01 X7.5448 Y63.3276
G01 X7.5938 Y63.3252
G01 X7.6423 Y63.3180
G01 X7.6899 Y63.3061
G01 X7.7360 Y63.2896
G01 X7.7804 Y63.2686
G01 X7.8224 Y63.2434
G01 X7.8618 Y63.2142
G01 X7.8981 Y63.1812
G01 X7.9311 Y63.1449
G01 X7.9603 Y63.1055
G01 X7.9855 Y63.0635
G01 X8.0065 Y63.0191
G01 X8.0230 Y62.9730
G01 X8.0349 Y62.9254
G01 X8.0421 Y62.8769
G01 X8.0445 Y62.8279
G00 Z0.5000
G00 X8.0445 Y66.3941
G01 F250.00
G01 Z-0.1000
G01 F1250.00
G01 X8.0421 Y66.3451
G01 X8.0349 Y66.2966
G01 X8.0230 Y66.2490
G01 X8.0065 Y66.2029
G01 X7.9855 Y66.1585
G01 X7.9603 Y66.1165
G01 X7.9311 Y66.0771
G01 X7.8981 Y66.0408
G01 X7.8618 Y66.0078
G01 X7.8224 Y65.9786
G01 X7.7804 Y65.9534
G01 X7.7360 Y65.9324
G01 X7.6899 Y65.9159
G01 X7.6423 Y65.9040
G01 X7.5938 Y65.8968
G01 X7.5448 Y65.8944
G01 X7.4958 Y65.8968
G01 X7.4473 Y65.9040
G01 X7.3998 Y65.9159
G01 X7.3536 Y65.9324
G01 X7.3093 Y65.9534
G01 X7.2672 Y65.9786
G01 X7.2278 Y66.0078
G01 X7.1915 Y66.0408
G01 X7.1586 Y66.0771
G01 X7.1294 Y66.1165
G01 X7.1041 Y66.1585
G01 X7.0832 Y66.2029
G01 X7.0667 Y66.2490
G01 X7.0547 Y66.2966
G01 X7.0475 Y66.3451
G01 X7.0451 Y66.3941
G01 X7.0475 Y66.4431
G01 X7.0547 Y66.4916
G01 X7.0667 Y66.5391
G01 X7.0832 Y66.5853
G01 X7.1041 Y66.6296
G01 X7.1294 Y66.6717
G01 X7.1586 Y66.7111
G01 X7.1915 Y66.7474
G01 X7.2278 Y66.7803
G01 X7.2672 Y66.8096
G01 X7.3093 Y66.8348
G01 X7.3536 Y66.8557
G01 X7.3998 Y66.8722
G01 X7.4473 Y66.8842
G01 X7.4958 Y66.8914
G01 X7.5448 Y66.8938
G01 X7.5938 Y66.8914
G01 X7.6423 Y66.8842
G01 X7.6899 Y66.8722
G01 X7.7360 Y66.8557
G01 X7.7804 Y66.8348
G01 X7.8224 Y66.8096
G01 X7.8618 Y66.7803
G01 X7.8981 Y66.7474
G01 X7.9311 Y66.7111
G01 X7.9603 Y66.6717
G01 X7.9855 Y66.6296
G01 X8.0065 Y66.5853
G01 X8.0230 Y66.5391
G01 X8.0349 Y66.4916
G01 X8.0421 Y66.4431
G01 X8.0445 Y66.3941
G00 X8.0445 Y66.3941
G01 F250.00
G01 Z-0.2000
G01 F1250.00
G01 X8.0421 Y66.3451
G01 X8.0349 Y66.2966
G01 X8.0230 Y66.2490
G01 X8.0065 Y66.2029
G01 X7.9855 Y66.1585
G01 X7.9603 Y66.1165
G01 X7.9311 Y66.0771
G01 X7.8981 Y66.0408
G01 X7.8618 Y66.0078
G01 X7.8224 Y65.9786
G01 X7.7804 Y65.9534
G01 X7.7360 Y65.9324
G01 X7.6899 Y65.9159
G01 X7.6423 Y65.9040
G01 X7.5938 Y65.8968
G01 X7.5448 Y65.8944
G01 X7.4958 Y65.8968
G01 X7.4473 Y65.9040
G01 X7.3998 Y65.9159
G01 X7.3536 Y65.9324
G01 X7.3093 Y65.9534
G01 X7.2672 Y65.9786
G01 X7.2278 Y66.0078
G01 X7.1915 Y66.0408
G01 X7.1586 Y66.0771
G01 X7.1294 Y66.1165
G01 X7.1041 Y66.1585
G01 X7.0832 Y66.2029
G01 X7.0667 Y66.2490
G01 X7.0547 Y66.2966
G01 X7.0475 Y66.3451
G01 X7.0451 Y66.3941
G01 X7.0475 Y66.4431
G01 X7.0547 Y66.4916
G01 X7.0667 Y66.5391
G01 X7.0832 Y66.5853
G01 X7.1041 Y66.6296
G01 X7.1294 Y66.6717
G01 X7.1586 Y66.7111
G01 X7.1915 Y66.7474
G01 X7.2278 Y66.7803
G01 X7.2672 Y66.8096
G01 X7.3093 Y66.8348
G01 X7.3536 Y66.8557
G01 X7.3998 Y66.8722
G01 X7.4473 Y66.8842
G01 X7.4958 Y66.8914
G01 X7.5448 Y66.8938
G01 X7.5938 Y66.8914
G01 X7.6423 Y66.8842
G01 X7.6899 Y66.8722
G01 X7.7360 Y66.8557
G01 X7.7804 Y66.8348
G01 X7.8224 Y66.8096
G01 X7.8618 Y66.7803
G01 X7.8981 Y66.7474
G01 X7.9311 Y66.7111
G01 X7.9603 Y66.6717
G01 X7.9855 Y66.6296
G01 X8.0065 Y66.5853
G01 X8.0230 Y66.5391
G01 X8.0349 Y66.4916
G01 X8.0421 Y66.4431
G01 X8.0445 Y66.3941
G00 X8.0445 Y66.3941
G01 F250.00
G01 Z-0.3000
G01 F1250.00
G01 X8.0421 Y66.3451
G01 X8.0349 Y66.2966
G01 X8.0230 Y66.2490
G01 X8.0065 Y66.2029
G01 X7.9855 Y66.1585
G01 X7.9603 Y66.1165
G01 X7.9311 Y66.0771
G01 X7.8981 Y66.0408
G01 X7.8618 Y66.0078
G01 X7.8224 Y65.9786
G01 X7.7804 Y65.9534
G01 X7.7360 Y65.9324
G01 X7.6899 Y65.9159
G01 X7.6423 Y65.9040
G01 X7.5938 Y65.8968
G01 X7.5448 Y65.8944
G01 X7.4958 Y65.8968
G01 X7.4473 Y65.9040
G01 X7.3998 Y65.9159
G01 X7.3536 Y65.9324
G01 X7.3093 Y65.9534
G01 X7.2672 Y65.9786
G01 X7.2278 Y66.0078
G01 X7.1915 Y66.0408
G01 X7.1586 Y66.0771
G01 X7.1294 Y66.1165
G01 X7.1041 Y66.1585
G01 X7.0832 Y66.2029
G01 X7.0667 Y66.2490
G01 X7.0547 Y66.2966
G01 X7.0475 Y66.3451
G01 X7.0451 Y66.3941
G01 X7.0475 Y66.4431
G01 X7.0547 Y66.4916
G01 X7.0667 Y66.5391
G01 X7.0832 Y66.5853
G01 X7.1041 Y66.6296
G01 X7.1294 Y66.6717
G01 X7.1586 Y66.7111
G01 X7.1915 Y66.7474
G01 X7.2278 Y66.7803
G01 X7.2672 Y66.8096
G01 X7.3093 Y66.8348
G01 X7.3536 Y66.8557
G01 X7.3998 Y66.8722
G01 X7.4473 Y66.8842
G01 X7.4958 Y66.8914
G01 X7.5448 Y66.8938
G01 X7.5938 Y66.8914
G01 X7.6423 Y66.8842
G01 X7.6899 Y66.8722
G01 X7.7360 Y66.8557
G01 X7.7804 Y66.8348
G01 X7.8224 Y66.8096
G01 X7.8618 Y66.7803
G01 X7.8981 Y66.7474
G01 X7.9311 Y66.7111
G01 X7.9603 Y66.6717
G01 X7.9855 Y66.6296
G01 X8.0065 Y66.5853
G01 X8.0230 Y66.5391
G01 X8.0349 Y66.4916
G01 X8.0421 Y66.4431
G01 X8.0445 Y66.3941
G00 X8.0445 Y66.3941
G01 F250.00
G01 Z-0.4000
G01 F1250.00
G01 X8.0421 Y66.3451
G01 X8.0349 Y66.2966
G01 X8.0230 Y66.2490
G01 X8.0065 Y66.2029
G01 X7.9855 Y66.1585
G01 X7.9603 Y66.1165
G01 X7.9311 Y66.0771
G01 X7.8981 Y66.0408
G01 X7.8618 Y66.0078
G01 X7.8224 Y65.9786
G01 X7.7804 Y65.9534
G01 X7.7360 Y65.9324
G01 X7.6899 Y65.9159
G01 X7.6423 Y65.9040
G01 X7.5938 Y65.8968
G01 X7.5448 Y65.8944
G01 X7.4958 Y65.8968
G01 X7.4473 Y65.9040
G01 X7.3998 Y65.9159
G01 X7.3536 Y65.9324
G01 X7.3093 Y65.9534
G01 X7.2672 Y65.9786
G01 X7.2278 Y66.0078
G01 X7.1915 Y66.0408
G01 X7.1586 Y66.0771
G01 X7.1294 Y66.1165
G01 X7.1041 Y66.1585
G01 X7.0832 Y66.2029
G01 X7.0667 Y66.2490
G01 X7.0547 Y66.2966
G01 X7.0475 Y66.3451
G01 X7.0451 Y66.3941
G01 X7.0475 Y66.4431
G01 X7.0547 Y66.4916
G01 X7.0667 Y66.5391
G01 X7.0832 Y66.5853
G01 X7.1041 Y66.6296
G01 X7.1294 Y66.6717
G01 X7.1586 Y66.7111
G01 X7.1915 Y66.7474
G01 X7.2278 Y66.7803
G01 X7.2672 Y66.8096
G01 X7.3093 Y66.8348
G01 X7.3536 Y66.8557
G01 X7.3998 Y66.8722
G01 X7.4473 Y66.8842
G01 X7.4958 Y66.8914
G01 X7.5448 Y66.8938
G01 X7.5938 Y66.8914
G01 X7.6423 Y66.8842
G01 X7.6899 Y66.8722
G01 X7.7360 Y66.8557
G01 X7.7804 Y66.8348
G01 X7.8224 Y66.8096
G01 X7.8618 Y66.7803
G01 X7.8981 Y66.7474
G01 X7.9311 Y66.7111
G01 X7.9603 Y66.6717
G01 X7.9855 Y66.6296
G01 X8.0065 Y66.5853
G01 X8.0230 Y66.5391
G01 X8.0349 Y66.4916
G01 X8.0421 Y66.4431
G01 X8.0445 Y66.3941
G00 X8.0445 Y66.3941
G01 F250.00
G01 Z-0.5000
G01 F1250.00
G01 X8.0421 Y66.3451
G01 X8.0349 Y66.2966
G01 X8.0230 Y66.2490
G01 X8.0065 Y66.2029
G01 X7.9855 Y66.1585
G01 X7.9603 Y66.1165
G01 X7.9311 Y66.0771
G01 X7.8981 Y66.0408
G01 X7.8618 Y66.0078
G01 X7.8224 Y65.9786
G01 X7.7804 Y65.9534
G01 X7.7360 Y65.9324
G01 X7.6899 Y65.9159
G01 X7.6423 Y65.9040
G01 X7.5938 Y65.8968
G01 X7.5448 Y65.8944
G01 X7.4958 Y65.8968
G01 X7.4473 Y65.9040
G01 X7.3998 Y65.9159
G01 X7.3536 Y65.9324
G01 X7.3093 Y65.9534
G01 X7.2672 Y65.9786
G01 X7.2278 Y66.0078
G01 X7.1915 Y66.0408
G01 X7.1586 Y66.0771
G01 X7.1294 Y66.1165
G01 X7.1041 Y66.1585
G01 X7.0832 Y66.2029
G01 X7.0667 Y66.2490
G01 X7.0547 Y66.2966
G01 X7.0475 Y66.3451
G01 X7.0451 Y66.3941
G01 X7.0475 Y66.4431
G01 X7.0547 Y66.4916
G01 X7.0667 Y66.5391
G01 X7.0832 Y66.5853
G01 X7.1041 Y66.6296
G01 X7.1294 Y66.6717
G01 X7.1586 Y66.7111
G01 X7.1915 Y66.7474
G01 X7.2278 Y66.7803
G01 X7.2672 Y66.8096
G01 X7.3093 Y66.8348
G01 X7.3536 Y66.8557
G01 X7.3998 Y66.8722
G01 X7.4473 Y66.8842
G01 X7.4958 Y66.8914
G01 X7.5448 Y66.8938
G01 X7.5938 Y66.8914
G01 X7.6423 Y66.8842
G01 X7.6899 Y66.8722
G01 X7.7360 Y66.8557
G01 X7.7804 Y66.8348
G01 X7.8224 Y66.8096
G01 X7.8618 Y66.7803
G01 X7.8981 Y66.7474
G01 X7.9311 Y66.7111
G01 X7.9603 Y66.6717
G01 X7.9855 Y66.6296
G01 X8.0065 Y66.5853
G01 X8.0230 Y66.5391
G01 X8.0349 Y66.4916
G01 X8.0421 Y66.4431
G01 X8.0445 Y66.3941
G00 X8.0445 Y66.3941
G01 F250.00
G01 Z-0.6000
G01 F1250.00
G01 X8.0421 Y66.3451
G01 X8.0349 Y66.2966
G01 X8.0230 Y66.2490
G01 X8.0065 Y66.2029
G01 X7.9855 Y66.1585
G01 X7.9603 Y66.1165
G01 X7.9311 Y66.0771
G01 X7.8981 Y66.0408
G01 X7.8618 Y66.0078
G01 X7.8224 Y65.9786
G01 X7.7804 Y65.9534
G01 X7.7360 Y65.9324
G01 X7.6899 Y65.9159
G01 X7.6423 Y65.9040
G01 X7.5938 Y65.8968
G01 X7.5448 Y65.8944
G01 X7.4958 Y65.8968
G01 X7.4473 Y65.9040
G01 X7.3998 Y65.9159
G01 X7.3536 Y65.9324
G01 X7.3093 Y65.9534
G01 X7.2672 Y65.9786
G01 X7.2278 Y66.0078
G01 X7.1915 Y66.0408
G01 X7.1586 Y66.0771
G01 X7.1294 Y66.1165
G01 X7.1041 Y66.1585
G01 X7.0832 Y66.2029
G01 X7.0667 Y66.2490
G01 X7.0547 Y66.2966
G01 X7.0475 Y66.3451
G01 X7.0451 Y66.3941
G01 X7.0475 Y66.4431
G01 X7.0547 Y66.4916
G01 X7.0667 Y66.5391
G01 X7.0832 Y66.5853
G01 X7.1041 Y66.6296
G01 X7.1294 Y66.6717
G01 X7.1586 Y66.7111
G01 X7.1915 Y66.7474
G01 X7.2278 Y66.7803
G01 X7.2672 Y66.8096
G01 X7.3093 Y66.8348
G01 X7.3536 Y66.8557
G01 X7.3998 Y66.8722
G01 X7.4473 Y66.8842
G01 X7.4958 Y66.8914
G01 X7.5448 Y66.8938
G01 X7.5938 Y66.8914
G01 X7.6423 Y66.8842
G01 X7.6899 Y66.8722
G01 X7.7360 Y66.8557
G01 X7.7804 Y66.8348
G01 X7.8224 Y66.8096
G01 X7.8618 Y66.7803
G01 X7.8981 Y66.7474
G01 X7.9311 Y66.7111
G01 X7.9603 Y66.6717
G01 X7.9855 Y66.6296
G01 X8.0065 Y66.5853
G01 X8.0230 Y66.5391
G01 X8.0349 Y66.4916
G01 X8.0421 Y66.4431
G01 X8.0445 Y66.3941
G00 X8.0445 Y66.3941
G01 F250.00
G01 Z-0.7000
G01 F1250.00
G01 X8.0421 Y66.3451
G01 X8.0349 Y66.2966
G01 X8.0230 Y66.2490
G01 X8.0065 Y66.2029
G01 X7.9855 Y66.1585
G01 X7.9603 Y66.1165
G01 X7.9311 Y66.0771
G01 X7.8981 Y66.0408
G01 X7.8618 Y66.0078
G01 X7.8224 Y65.9786
G01 X7.7804 Y65.9534
G01 X7.7360 Y65.9324
G01 X7.6899 Y65.9159
G01 X7.6423 Y65.9040
G01 X7.5938 Y65.8968
G01 X7.5448 Y65.8944
G01 X7.4958 Y65.8968
G01 X7.4473 Y65.9040
G01 X7.3998 Y65.9159
G01 X7.3536 Y65.9324
G01 X7.3093 Y65.9534
G01 X7.2672 Y65.9786
G01 X7.2278 Y66.0078
G01 X7.1915 Y66.0408
G01 X7.1586 Y66.0771
G01 X7.1294 Y66.1165
G01 X7.1041 Y66.1585
G01 X7.0832 Y66.2029
G01 X7.0667 Y66.2490
G01 X7.0547 Y66.2966
G01 X7.0475 Y66.3451
G01 X7.0451 Y66.3941
G01 X7.0475 Y66.4431
G01 X7.0547 Y66.4916
G01 X7.0667 Y66.5391
G01 X7.0832 Y66.5853
G01 X7.1041 Y66.6296
G01 X7.1294 Y66.6717
G01 X7.1586 Y66.7111
G01 X7.1915 Y66.7474
G01 X7.2278 Y66.7803
G01 X7.2672 Y66.8096
G01 X7.3093 Y66.8348
G01 X7.3536 Y66.8557
G01 X7.3998 Y66.8722
G01 X7.4473 Y66.8842
G01 X7.4958 Y66.8914
G01 X7.5448 Y66.8938
G01 X7.5938 Y66.8914
G01 X7.6423 Y66.8842
G01 X7.6899 Y66.8722
G01 X7.7360 Y66.8557
G01 X7.7804 Y66.8348
G01 X7.8224 Y66.8096
G01 X7.8618 Y66.7803
G01 X7.8981 Y66.7474
G01 X7.9311 Y66.7111
G01 X7.9603 Y66.6717
G01 X7.9855 Y66.6296
G01 X8.0065 Y66.5853
G01 X8.0230 Y66.5391
G01 X8.0349 Y66.4916
G01 X8.0421 Y66.4431
G01 X8.0445 Y66.3941
G00 X8.0445 Y66.3941
G01 F250.00
G01 Z-0.8000
G01 F1250.00
G01 X8.0421 Y66.3451
G01 X8.0349 Y66.2966
G01 X8.0230 Y66.2490
G01 X8.0065 Y66.2029
G01 X7.9855 Y66.1585
G01 X7.9603 Y66.1165
G01 X7.9311 Y66.0771
G01 X7.8981 Y66.0408
G01 X7.8618 Y66.0078
G01 X7.8224 Y65.9786
G01 X7.7804 Y65.9534
G01 X7.7360 Y65.9324
G01 X7.6899 Y65.9159
G01 X7.6423 Y65.9040
G01 X7.5938 Y65.8968
G01 X7.5448 Y65.8944
G01 X7.4958 Y65.8968
G01 X7.4473 Y65.9040
G01 X7.3998 Y65.9159
G01 X7.3536 Y65.9324
G01 X7.3093 Y65.9534
G01 X7.2672 Y65.9786
G01 X7.2278 Y66.0078
G01 X7.1915 Y66.0408
G01 X7.1586 Y66.0771
G01 X7.1294 Y66.1165
G01 X7.1041 Y66.1585
G01 X7.0832 Y66.2029
G01 X7.0667 Y66.2490
G01 X7.0547 Y66.2966
G01 X7.0475 Y66.3451
G01 X7.0451 Y66.3941
G01 X7.0475 Y66.4431
G01 X7.0547 Y66.4916
G01 X7.0667 Y66.5391
G01 X7.0832 Y66.5853
G01 X7.1041 Y66.6296
G01 X7.1294 Y66.6717
G01 X7.1586 Y66.7111
G01 X7.1915 Y66.7474
G01 X7.2278 Y66.7803
G01 X7.2672 Y66.8096
G01 X7.3093 Y66.8348
G01 X7.3536 Y66.8557
G01 X7.3998 Y66.8722
G01 X7.4473 Y66.8842
G01 X7.4958 Y66.8914
G01 X7.5448 Y66.8938
G01 X7.5938 Y66.8914
G01 X7.6423 Y66.8842
G01 X7.6899 Y66.8722
G01 X7.7360 Y66.8557
G01 X7.7804 Y66.8348
G01 X7.8224 Y66.8096
G01 X7.8618 Y66.7803
G01 X7.8981 Y66.7474
G01 X7.9311 Y66.7111
G01 X7.9603 Y66.6717
G01 X7.9855 Y66.6296
G01 X8.0065 Y66.5853
G01 X8.0230 Y66.5391
G01 X8.0349 Y66.4916
G01 X8.0421 Y66.4431
G01 X8.0445 Y66.3941
G00 X8.0445 Y66.3941
G01 F250.00
G01 Z-0.9000
G01 F1250.00
G01 X8.0421 Y66.3451
G01 X8.0349 Y66.2966
G01 X8.0230 Y66.2490
G01 X8.0065 Y66.2029
G01 X7.9855 Y66.1585
G01 X7.9603 Y66.1165
G01 X7.9311 Y66.0771
G01 X7.8981 Y66.0408
G01 X7.8618 Y66.0078
G01 X7.8224 Y65.9786
G01 X7.7804 Y65.9534
G01 X7.7360 Y65.9324
G01 X7.6899 Y65.9159
G01 X7.6423 Y65.9040
G01 X7.5938 Y65.8968
G01 X7.5448 Y65.8944
G01 X7.4958 Y65.8968
G01 X7.4473 Y65.9040
G01 X7.3998 Y65.9159
G01 X7.3536 Y65.9324
G01 X7.3093 Y65.9534
G01 X7.2672 Y65.9786
G01 X7.2278 Y66.0078
G01 X7.1915 Y66.0408
G01 X7.1586 Y66.0771
G01 X7.1294 Y66.1165
G01 X7.1041 Y66.1585
G01 X7.0832 Y66.2029
G01 X7.0667 Y66.2490
G01 X7.0547 Y66.2966
G01 X7.0475 Y66.3451
G01 X7.0451 Y66.3941
G01 X7.0475 Y66.4431
G01 X7.0547 Y66.4916
G01 X7.0667 Y66.5391
G01 X7.0832 Y66.5853
G01 X7.1041 Y66.6296
G01 X7.1294 Y66.6717
G01 X7.1586 Y66.7111
G01 X7.1915 Y66.7474
G01 X7.2278 Y66.7803
G01 X7.2672 Y66.8096
G01 X7.3093 Y66.8348
G01 X7.3536 Y66.8557
G01 X7.3998 Y66.8722
G01 X7.4473 Y66.8842
G01 X7.4958 Y66.8914
G01 X7.5448 Y66.8938
G01 X7.5938 Y66.8914
G01 X7.6423 Y66.8842
G01 X7.6899 Y66.8722
G01 X7.7360 Y66.8557
G01 X7.7804 Y66.8348
G01 X7.8224 Y66.8096
G01 X7.8618 Y66.7803
G01 X7.8981 Y66.7474
G01 X7.9311 Y66.7111
G01 X7.9603 Y66.6717
G01 X7.9855 Y66.6296
G01 X8.0065 Y66.5853
G01 X8.0230 Y66.5391
G01 X8.0349 Y66.4916
G01 X8.0421 Y66.4431
G01 X8.0445 Y66.3941
G00 X8.0445 Y66.3941
G01 F250.00
G01 Z-1.0000
G01 F1250.00
G01 X8.0421 Y66.3451
G01 X8.0349 Y66.2966
G01 X8.0230 Y66.2490
G01 X8.0065 Y66.2029
G01 X7.9855 Y66.1585
G01 X7.9603 Y66.1165
G01 X7.9311 Y66.0771
G01 X7.8981 Y66.0408
G01 X7.8618 Y66.0078
G01 X7.8224 Y65.9786
G01 X7.7804 Y65.9534
G01 X7.7360 Y65.9324
G01 X7.6899 Y65.9159
G01 X7.6423 Y65.9040
G01 X7.5938 Y65.8968
G01 X7.5448 Y65.8944
G01 X7.4958 Y65.8968
G01 X7.4473 Y65.9040
G01 X7.3998 Y65.9159
G01 X7.3536 Y65.9324
G01 X7.3093 Y65.9534
G01 X7.2672 Y65.9786
G01 X7.2278 Y66.0078
G01 X7.1915 Y66.0408
G01 X7.1586 Y66.0771
G01 X7.1294 Y66.1165
G01 X7.1041 Y66.1585
G01 X7.0832 Y66.2029
G01 X7.0667 Y66.2490
G01 X7.0547 Y66.2966
G01 X7.0475 Y66.3451
G01 X7.0451 Y66.3941
G01 X7.0475 Y66.4431
G01 X7.0547 Y66.4916
G01 X7.0667 Y66.5391
G01 X7.0832 Y66.5853
G01 X7.1041 Y66.6296
G01 X7.1294 Y66.6717
G01 X7.1586 Y66.7111
G01 X7.1915 Y66.7474
G01 X7.2278 Y66.7803
G01 X7.2672 Y66.8096
G01 X7.3093 Y66.8348
G01 X7.3536 Y66.8557
G01 X7.3998 Y66.8722
G01 X7.4473 Y66.8842
G01 X7.4958 Y66.8914
G01 X7.5448 Y66.8938
G01 X7.5938 Y66.8914
G01 X7.6423 Y66.8842
G01 X7.6899 Y66.8722
G01 X7.7360 Y66.8557
G01 X7.7804 Y66.8348
G01 X7.8224 Y66.8096
G01 X7.8618 Y66.7803
G01 X7.8981 Y66.7474
G01 X7.9311 Y66.7111
G01 X7.9603 Y66.6717
G01 X7.9855 Y66.6296
G01 X8.0065 Y66.5853
G01 X8.0230 Y66.5391
G01 X8.0349 Y66.4916
G01 X8.0421 Y66.4431
G01 X8.0445 Y66.3941
G00 X8.0445 Y66.3941
G01 F250.00
G01 Z-1.1000
G01 F1250.00
G01 X8.0421 Y66.3451
G01 X8.0349 Y66.2966
G01 X8.0230 Y66.2490
G01 X8.0065 Y66.2029
G01 X7.9855 Y66.1585
G01 X7.9603 Y66.1165
G01 X7.9311 Y66.0771
G01 X7.8981 Y66.0408
G01 X7.8618 Y66.0078
G01 X7.8224 Y65.9786
G01 X7.7804 Y65.9534
G01 X7.7360 Y65.9324
G01 X7.6899 Y65.9159
G01 X7.6423 Y65.9040
G01 X7.5938 Y65.8968
G01 X7.5448 Y65.8944
G01 X7.4958 Y65.8968
G01 X7.4473 Y65.9040
G01 X7.3998 Y65.9159
G01 X7.3536 Y65.9324
G01 X7.3093 Y65.9534
G01 X7.2672 Y65.9786
G01 X7.2278 Y66.0078
G01 X7.1915 Y66.0408
G01 X7.1586 Y66.0771
G01 X7.1294 Y66.1165
G01 X7.1041 Y66.1585
G01 X7.0832 Y66.2029
G01 X7.0667 Y66.2490
G01 X7.0547 Y66.2966
G01 X7.0475 Y66.3451
G01 X7.0451 Y66.3941
G01 X7.0475 Y66.4431
G01 X7.0547 Y66.4916
G01 X7.0667 Y66.5391
G01 X7.0832 Y66.5853
G01 X7.1041 Y66.6296
G01 X7.1294 Y66.6717
G01 X7.1586 Y66.7111
G01 X7.1915 Y66.7474
G01 X7.2278 Y66.7803
G01 X7.2672 Y66.8096
G01 X7.3093 Y66.8348
G01 X7.3536 Y66.8557
G01 X7.3998 Y66.8722
G01 X7.4473 Y66.8842
G01 X7.4958 Y66.8914
G01 X7.5448 Y66.8938
G01 X7.5938 Y66.8914
G01 X7.6423 Y66.8842
G01 X7.6899 Y66.8722
G01 X7.7360 Y66.8557
G01 X7.7804 Y66.8348
G01 X7.8224 Y66.8096
G01 X7.8618 Y66.7803
G01 X7.8981 Y66.7474
G01 X7.9311 Y66.7111
G01 X7.9603 Y66.6717
G01 X7.9855 Y66.6296
G01 X8.0065 Y66.5853
G01 X8.0230 Y66.5391
G01 X8.0349 Y66.4916
G01 X8.0421 Y66.4431
G01 X8.0445 Y66.3941
G00 X8.0445 Y66.3941
G01 F250.00
G01 Z-1.2000
G01 F1250.00
G01 X8.0421 Y66.3451
G01 X8.0349 Y66.2966
G01 X8.0230 Y66.2490
G01 X8.0065 Y66.2029
G01 X7.9855 Y66.1585
G01 X7.9603 Y66.1165
G01 X7.9311 Y66.0771
G01 X7.8981 Y66.0408
G01 X7.8618 Y66.0078
G01 X7.8224 Y65.9786
G01 X7.7804 Y65.9534
G01 X7.7360 Y65.9324
G01 X7.6899 Y65.9159
G01 X7.6423 Y65.9040
G01 X7.5938 Y65.8968
G01 X7.5448 Y65.8944
G01 X7.4958 Y65.8968
G01 X7.4473 Y65.9040
G01 X7.3998 Y65.9159
G01 X7.3536 Y65.9324
G01 X7.3093 Y65.9534
G01 X7.2672 Y65.9786
G01 X7.2278 Y66.0078
G01 X7.1915 Y66.0408
G01 X7.1586 Y66.0771
G01 X7.1294 Y66.1165
G01 X7.1041 Y66.1585
G01 X7.0832 Y66.2029
G01 X7.0667 Y66.2490
G01 X7.0547 Y66.2966
G01 X7.0475 Y66.3451
G01 X7.0451 Y66.3941
G01 X7.0475 Y66.4431
G01 X7.0547 Y66.4916
G01 X7.0667 Y66.5391
G01 X7.0832 Y66.5853
G01 X7.1041 Y66.6296
G01 X7.1294 Y66.6717
G01 X7.1586 Y66.7111
G01 X7.1915 Y66.7474
G01 X7.2278 Y66.7803
G01 X7.2672 Y66.8096
G01 X7.3093 Y66.8348
G01 X7.3536 Y66.8557
G01 X7.3998 Y66.8722
G01 X7.4473 Y66.8842
G01 X7.4958 Y66.8914
G01 X7.5448 Y66.8938
G01 X7.5938 Y66.8914
G01 X7.6423 Y66.8842
G01 X7.6899 Y66.8722
G01 X7.7360 Y66.8557
G01 X7.7804 Y66.8348
G01 X7.8224 Y66.8096
G01 X7.8618 Y66.7803
G01 X7.8981 Y66.7474
G01 X7.9311 Y66.7111
G01 X7.9603 Y66.6717
G01 X7.9855 Y66.6296
G01 X8.0065 Y66.5853
G01 X8.0230 Y66.5391
G01 X8.0349 Y66.4916
G01 X8.0421 Y66.4431
G01 X8.0445 Y66.3941
G00 X8.0445 Y66.3941
G01 F250.00
G01 Z-1.3000
G01 F1250.00
G01 X8.0421 Y66.3451
G01 X8.0349 Y66.2966
G01 X8.0230 Y66.2490
G01 X8.0065 Y66.2029
G01 X7.9855 Y66.1585
G01 X7.9603 Y66.1165
G01 X7.9311 Y66.0771
G01 X7.8981 Y66.0408
G01 X7.8618 Y66.0078
G01 X7.8224 Y65.9786
G01 X7.7804 Y65.9534
G01 X7.7360 Y65.9324
G01 X7.6899 Y65.9159
G01 X7.6423 Y65.9040
G01 X7.5938 Y65.8968
G01 X7.5448 Y65.8944
G01 X7.4958 Y65.8968
G01 X7.4473 Y65.9040
G01 X7.3998 Y65.9159
G01 X7.3536 Y65.9324
G01 X7.3093 Y65.9534
G01 X7.2672 Y65.9786
G01 X7.2278 Y66.0078
G01 X7.1915 Y66.0408
G01 X7.1586 Y66.0771
G01 X7.1294 Y66.1165
G01 X7.1041 Y66.1585
G01 X7.0832 Y66.2029
G01 X7.0667 Y66.2490
G01 X7.0547 Y66.2966
G01 X7.0475 Y66.3451
G01 X7.0451 Y66.3941
G01 X7.0475 Y66.4431
G01 X7.0547 Y66.4916
G01 X7.0667 Y66.5391
G01 X7.0832 Y66.5853
G01 X7.1041 Y66.6296
G01 X7.1294 Y66.6717
G01 X7.1586 Y66.7111
G01 X7.1915 Y66.7474
G01 X7.2278 Y66.7803
G01 X7.2672 Y66.8096
G01 X7.3093 Y66.8348
G01 X7.3536 Y66.8557
G01 X7.3998 Y66.8722
G01 X7.4473 Y66.8842
G01 X7.4958 Y66.8914
G01 X7.5448 Y66.8938
G01 X7.5938 Y66.8914
G01 X7.6423 Y66.8842
G01 X7.6899 Y66.8722
G01 X7.7360 Y66.8557
G01 X7.7804 Y66.8348
G01 X7.8224 Y66.8096
G01 X7.8618 Y66.7803
G01 X7.8981 Y66.7474
G01 X7.9311 Y66.7111
G01 X7.9603 Y66.6717
G01 X7.9855 Y66.6296
G01 X8.0065 Y66.5853
G01 X8.0230 Y66.5391
G01 X8.0349 Y66.4916
G01 X8.0421 Y66.4431
G01 X8.0445 Y66.3941
G00 X8.0445 Y66.3941
G01 F250.00
G01 Z-1.4000
G01 F1250.00
G01 X8.0421 Y66.3451
G01 X8.0349 Y66.2966
G01 X8.0230 Y66.2490
G01 X8.0065 Y66.2029
G01 X7.9855 Y66.1585
G01 X7.9603 Y66.1165
G01 X7.9311 Y66.0771
G01 X7.8981 Y66.0408
G01 X7.8618 Y66.0078
G01 X7.8224 Y65.9786
G01 X7.7804 Y65.9534
G01 X7.7360 Y65.9324
G01 X7.6899 Y65.9159
G01 X7.6423 Y65.9040
G01 X7.5938 Y65.8968
G01 X7.5448 Y65.8944
G01 X7.4958 Y65.8968
G01 X7.4473 Y65.9040
G01 X7.3998 Y65.9159
G01 X7.3536 Y65.9324
G01 X7.3093 Y65.9534
G01 X7.2672 Y65.9786
G01 X7.2278 Y66.0078
G01 X7.1915 Y66.0408
G01 X7.1586 Y66.0771
G01 X7.1294 Y66.1165
G01 X7.1041 Y66.1585
G01 X7.0832 Y66.2029
G01 X7.0667 Y66.2490
G01 X7.0547 Y66.2966
G01 X7.0475 Y66.3451
G01 X7.0451 Y66.3941
G01 X7.0475 Y66.4431
G01 X7.0547 Y66.4916
G01 X7.0667 Y66.5391
G01 X7.0832 Y66.5853
G01 X7.1041 Y66.6296
G01 X7.1294 Y66.6717
G01 X7.1586 Y66.7111
G01 X7.1915 Y66.7474
G01 X7.2278 Y66.7803
G01 X7.2672 Y66.8096
G01 X7.3093 Y66.8348
G01 X7.3536 Y66.8557
G01 X7.3998 Y66.8722
G01 X7.4473 Y66.8842
G01 X7.4958 Y66.8914
G01 X7.5448 Y66.8938
G01 X7.5938 Y66.8914
G01 X7.6423 Y66.8842
G01 X7.6899 Y66.8722
G01 X7.7360 Y66.8557
G01 X7.7804 Y66.8348
G01 X7.8224 Y66.8096
G01 X7.8618 Y66.7803
G01 X7.8981 Y66.7474
G01 X7.9311 Y66.7111
G01 X7.9603 Y66.6717
G01 X7.9855 Y66.6296
G01 X8.0065 Y66.5853
G01 X8.0230 Y66.5391
G01 X8.0349 Y66.4916
G01 X8.0421 Y66.4431
G01 X8.0445 Y66.3941
G00 X8.0445 Y66.3941
G01 F250.00
G01 Z-1.5000
G01 F1250.00
G01 X8.0421 Y66.3451
G01 X8.0349 Y66.2966
G01 X8.0230 Y66.2490
G01 X8.0065 Y66.2029
G01 X7.9855 Y66.1585
G01 X7.9603 Y66.1165
G01 X7.9311 Y66.0771
G01 X7.8981 Y66.0408
G01 X7.8618 Y66.0078
G01 X7.8224 Y65.9786
G01 X7.7804 Y65.9534
G01 X7.7360 Y65.9324
G01 X7.6899 Y65.9159
G01 X7.6423 Y65.9040
G01 X7.5938 Y65.8968
G01 X7.5448 Y65.8944
G01 X7.4958 Y65.8968
G01 X7.4473 Y65.9040
G01 X7.3998 Y65.9159
G01 X7.3536 Y65.9324
G01 X7.3093 Y65.9534
G01 X7.2672 Y65.9786
G01 X7.2278 Y66.0078
G01 X7.1915 Y66.0408
G01 X7.1586 Y66.0771
G01 X7.1294 Y66.1165
G01 X7.1041 Y66.1585
G01 X7.0832 Y66.2029
G01 X7.0667 Y66.2490
G01 X7.0547 Y66.2966
G01 X7.0475 Y66.3451
G01 X7.0451 Y66.3941
G01 X7.0475 Y66.4431
G01 X7.0547 Y66.4916
G01 X7.0667 Y66.5391
G01 X7.0832 Y66.5853
G01 X7.1041 Y66.6296
G01 X7.1294 Y66.6717
G01 X7.1586 Y66.7111
G01 X7.1915 Y66.7474
G01 X7.2278 Y66.7803
G01 X7.2672 Y66.8096
G01 X7.3093 Y66.8348
G01 X7.3536 Y66.8557
G01 X7.3998 Y66.8722
G01 X7.4473 Y66.8842
G01 X7.4958 Y66.8914
G01 X7.5448 Y66.8938
G01 X7.5938 Y66.8914
G01 X7.6423 Y66.8842
G01 X7.6899 Y66.8722
G01 X7.7360 Y66.8557
G01 X7.7804 Y66.8348
G01 X7.8224 Y66.8096
G01 X7.8618 Y66.7803
G01 X7.8981 Y66.7474
G01 X7.9311 Y66.7111
G01 X7.9603 Y66.6717
G01 X7.9855 Y66.6296
G01 X8.0065 Y66.5853
G01 X8.0230 Y66.5391
G01 X8.0349 Y66.4916
G01 X8.0421 Y66.4431
G01 X8.0445 Y66.3941
G00 X8.0445 Y66.3941
G01 F250.00
G01 Z-1.6000
G01 F1250.00
G01 X8.0421 Y66.3451
G01 X8.0349 Y66.2966
G01 X8.0230 Y66.2490
G01 X8.0065 Y66.2029
G01 X7.9855 Y66.1585
G01 X7.9603 Y66.1165
G01 X7.9311 Y66.0771
G01 X7.8981 Y66.0408
G01 X7.8618 Y66.0078
G01 X7.8224 Y65.9786
G01 X7.7804 Y65.9534
G01 X7.7360 Y65.9324
G01 X7.6899 Y65.9159
G01 X7.6423 Y65.9040
G01 X7.5938 Y65.8968
G01 X7.5448 Y65.8944
G01 X7.4958 Y65.8968
G01 X7.4473 Y65.9040
G01 X7.3998 Y65.9159
G01 X7.3536 Y65.9324
G01 X7.3093 Y65.9534
G01 X7.2672 Y65.9786
G01 X7.2278 Y66.0078
G01 X7.1915 Y66.0408
G01 X7.1586 Y66.0771
G01 X7.1294 Y66.1165
G01 X7.1041 Y66.1585
G01 X7.0832 Y66.2029
G01 X7.0667 Y66.2490
G01 X7.0547 Y66.2966
G01 X7.0475 Y66.3451
G01 X7.0451 Y66.3941
G01 X7.0475 Y66.4431
G01 X7.0547 Y66.4916
G01 X7.0667 Y66.5391
G01 X7.0832 Y66.5853
G01 X7.1041 Y66.6296
G01 X7.1294 Y66.6717
G01 X7.1586 Y66.7111
G01 X7.1915 Y66.7474
G01 X7.2278 Y66.7803
G01 X7.2672 Y66.8096
G01 X7.3093 Y66.8348
G01 X7.3536 Y66.8557
G01 X7.3998 Y66.8722
G01 X7.4473 Y66.8842
G01 X7.4958 Y66.8914
G01 X7.5448 Y66.8938
G01 X7.5938 Y66.8914
G01 X7.6423 Y66.8842
G01 X7.6899 Y66.8722
G01 X7.7360 Y66.8557
G01 X7.7804 Y66.8348
G01 X7.8224 Y66.8096
G01 X7.8618 Y66.7803
G01 X7.8981 Y66.7474
G01 X7.9311 Y66.7111
G01 X7.9603 Y66.6717
G01 X7.9855 Y66.6296
G01 X8.0065 Y66.5853
G01 X8.0230 Y66.5391
G01 X8.0349 Y66.4916
G01 X8.0421 Y66.4431
G01 X8.0445 Y66.3941
G00 X8.0445 Y66.3941
G01 F250.00
G01 Z-1.7000
G01 F1250.00
G01 X8.0421 Y66.3451
G01 X8.0349 Y66.2966
G01 X8.0230 Y66.2490
G01 X8.0065 Y66.2029
G01 X7.9855 Y66.1585
G01 X7.9603 Y66.1165
G01 X7.9311 Y66.0771
G01 X7.8981 Y66.0408
G01 X7.8618 Y66.0078
G01 X7.8224 Y65.9786
G01 X7.7804 Y65.9534
G01 X7.7360 Y65.9324
G01 X7.6899 Y65.9159
G01 X7.6423 Y65.9040
G01 X7.5938 Y65.8968
G01 X7.5448 Y65.8944
G01 X7.4958 Y65.8968
G01 X7.4473 Y65.9040
G01 X7.3998 Y65.9159
G01 X7.3536 Y65.9324
G01 X7.3093 Y65.9534
G01 X7.2672 Y65.9786
G01 X7.2278 Y66.0078
G01 X7.1915 Y66.0408
G01 X7.1586 Y66.0771
G01 X7.1294 Y66.1165
G01 X7.1041 Y66.1585
G01 X7.0832 Y66.2029
G01 X7.0667 Y66.2490
G01 X7.0547 Y66.2966
G01 X7.0475 Y66.3451
G01 X7.0451 Y66.3941
G01 X7.0475 Y66.4431
G01 X7.0547 Y66.4916
G01 X7.0667 Y66.5391
G01 X7.0832 Y66.5853
G01 X7.1041 Y66.6296
G01 X7.1294 Y66.6717
G01 X7.1586 Y66.7111
G01 X7.1915 Y66.7474
G01 X7.2278 Y66.7803
G01 X7.2672 Y66.8096
G01 X7.3093 Y66.8348
G01 X7.3536 Y66.8557
G01 X7.3998 Y66.8722
G01 X7.4473 Y66.8842
G01 X7.4958 Y66.8914
G01 X7.5448 Y66.8938
G01 X7.5938 Y66.8914
G01 X7.6423 Y66.8842
G01 X7.6899 Y66.8722
G01 X7.7360 Y66.8557
G01 X7.7804 Y66.8348
G01 X7.8224 Y66.8096
G01 X7.8618 Y66.7803
G01 X7.8981 Y66.7474
G01 X7.9311 Y66.7111
G01 X7.9603 Y66.6717
G01 X7.9855 Y66.6296
G01 X8.0065 Y66.5853
G01 X8.0230 Y66.5391
G01 X8.0349 Y66.4916
G01 X8.0421 Y66.4431
G01 X8.0445 Y66.3941
G00 Z0.5000
G00 X8.0445 Y70.1939
G01 F250.00
G01 Z-0.1000
G01 F1250.00
G01 X8.0421 Y70.1449
G01 X8.0349 Y70.0964
G01 X8.0230 Y70.0489
G01 X8.0065 Y70.0027
G01 X7.9855 Y69.9584
G01 X7.9603 Y69.9163
G01 X7.9311 Y69.8769
G01 X7.8981 Y69.8406
G01 X7.8618 Y69.8077
G01 X7.8224 Y69.7785
G01 X7.7804 Y69.7532
G01 X7.7360 Y69.7323
G01 X7.6899 Y69.7158
G01 X7.6423 Y69.7038
G01 X7.5938 Y69.6966
G01 X7.5448 Y69.6942
G01 X7.4958 Y69.6966
G01 X7.4473 Y69.7038
G01 X7.3998 Y69.7158
G01 X7.3536 Y69.7323
G01 X7.3093 Y69.7532
G01 X7.2672 Y69.7785
G01 X7.2278 Y69.8077
G01 X7.1915 Y69.8406
G01 X7.1586 Y69.8769
G01 X7.1294 Y69.9163
G01 X7.1041 Y69.9584
G01 X7.0832 Y70.0027
G01 X7.0667 Y70.0489
G01 X7.0547 Y70.0964
G01 X7.0475 Y70.1449
G01 X7.0451 Y70.1939
G01 X7.0475 Y70.2429
G01 X7.0547 Y70.2914
G01 X7.0667 Y70.3390
G01 X7.0832 Y70.3851
G01 X7.1041 Y70.4295
G01 X7.1294 Y70.4715
G01 X7.1586 Y70.5109
G01 X7.1915 Y70.5472
G01 X7.2278 Y70.5802
G01 X7.2672 Y70.6094
G01 X7.3093 Y70.6346
G01 X7.3536 Y70.6556
G01 X7.3998 Y70.6721
G01 X7.4473 Y70.6840
G01 X7.4958 Y70.6912
G01 X7.5448 Y70.6936
G01 X7.5938 Y70.6912
G01 X7.6423 Y70.6840
G01 X7.6899 Y70.6721
G01 X7.7360 Y70.6556
G01 X7.7804 Y70.6346
G01 X7.8224 Y70.6094
G01 X7.8618 Y70.5802
G01 X7.8981 Y70.5472
G01 X7.9311 Y70.5109
G01 X7.9603 Y70.4715
G01 X7.9855 Y70.4295
G01 X8.0065 Y70.3851
G01 X8.0230 Y70.3390
G01 X8.0349 Y70.2914
G01 X8.0421 Y70.2429
G01 X8.0445 Y70.1939
G00 X8.0445 Y70.1939
G01 F250.00
G01 Z-0.2000
G01 F1250.00
G01 X8.0421 Y70.1449
G01 X8.0349 Y70.0964
G01 X8.0230 Y70.0489
G01 X8.0065 Y70.0027
G01 X7.9855 Y69.9584
G01 X7.9603 Y69.9163
G01 X7.9311 Y69.8769
G01 X7.8981 Y69.8406
G01 X7.8618 Y69.8077
G01 X7.8224 Y69.7785
G01 X7.7804 Y69.7532
G01 X7.7360 Y69.7323
G01 X7.6899 Y69.7158
G01 X7.6423 Y69.7038
G01 X7.5938 Y69.6966
G01 X7.5448 Y69.6942
G01 X7.4958 Y69.6966
G01 X7.4473 Y69.7038
G01 X7.3998 Y69.7158
G01 X7.3536 Y69.7323
G01 X7.3093 Y69.7532
G01 X7.2672 Y69.7785
G01 X7.2278 Y69.8077
G01 X7.1915 Y69.8406
G01 X7.1586 Y69.8769
G01 X7.1294 Y69.9163
G01 X7.1041 Y69.9584
G01 X7.0832 Y70.0027
G01 X7.0667 Y70.0489
G01 X7.0547 Y70.0964
G01 X7.0475 Y70.1449
G01 X7.0451 Y70.1939
G01 X7.0475 Y70.2429
G01 X7.0547 Y70.2914
G01 X7.0667 Y70.3390
G01 X7.0832 Y70.3851
G01 X7.1041 Y70.4295
G01 X7.1294 Y70.4715
G01 X7.1586 Y70.5109
G01 X7.1915 Y70.5472
G01 X7.2278 Y70.5802
G01 X7.2672 Y70.6094
G01 X7.3093 Y70.6346
G01 X7.3536 Y70.6556
G01 X7.3998 Y70.6721
G01 X7.4473 Y70.6840
G01 X7.4958 Y70.6912
G01 X7.5448 Y70.6936
G01 X7.5938 Y70.6912
G01 X7.6423 Y70.6840
G01 X7.6899 Y70.6721
G01 X7.7360 Y70.6556
G01 X7.7804 Y70.6346
G01 X7.8224 Y70.6094
G01 X7.8618 Y70.5802
G01 X7.8981 Y70.5472
G01 X7.9311 Y70.5109
G01 X7.9603 Y70.4715
G01 X7.9855 Y70.4295
G01 X8.0065 Y70.3851
G01 X8.0230 Y70.3390
G01 X8.0349 Y70.2914
G01 X8.0421 Y70.2429
G01 X8.0445 Y70.1939
G00 X8.0445 Y70.1939
G01 F250.00
G01 Z-0.3000
G01 F1250.00
G01 X8.0421 Y70.1449
G01 X8.0349 Y70.0964
G01 X8.0230 Y70.0489
G01 X8.0065 Y70.0027
G01 X7.9855 Y69.9584
G01 X7.9603 Y69.9163
G01 X7.9311 Y69.8769
G01 X7.8981 Y69.8406
G01 X7.8618 Y69.8077
G01 X7.8224 Y69.7785
G01 X7.7804 Y69.7532
G01 X7.7360 Y69.7323
G01 X7.6899 Y69.7158
G01 X7.6423 Y69.7038
G01 X7.5938 Y69.6966
G01 X7.5448 Y69.6942
G01 X7.4958 Y69.6966
G01 X7.4473 Y69.7038
G01 X7.3998 Y69.7158
G01 X7.3536 Y69.7323
G01 X7.3093 Y69.7532
G01 X7.2672 Y69.7785
G01 X7.2278 Y69.8077
G01 X7.1915 Y69.8406
G01 X7.1586 Y69.8769
G01 X7.1294 Y69.9163
G01 X7.1041 Y69.9584
G01 X7.0832 Y70.0027
G01 X7.0667 Y70.0489
G01 X7.0547 Y70.0964
G01 X7.0475 Y70.1449
G01 X7.0451 Y70.1939
G01 X7.0475 Y70.2429
G01 X7.0547 Y70.2914
G01 X7.0667 Y70.3390
G01 X7.0832 Y70.3851
G01 X7.1041 Y70.4295
G01 X7.1294 Y70.4715
G01 X7.1586 Y70.5109
G01 X7.1915 Y70.5472
G01 X7.2278 Y70.5802
G01 X7.2672 Y70.6094
G01 X7.3093 Y70.6346
G01 X7.3536 Y70.6556
G01 X7.3998 Y70.6721
G01 X7.4473 Y70.6840
G01 X7.4958 Y70.6912
G01 X7.5448 Y70.6936
G01 X7.5938 Y70.6912
G01 X7.6423 Y70.6840
G01 X7.6899 Y70.6721
G01 X7.7360 Y70.6556
G01 X7.7804 Y70.6346
G01 X7.8224 Y70.6094
G01 X7.8618 Y70.5802
G01 X7.8981 Y70.5472
G01 X7.9311 Y70.5109
G01 X7.9603 Y70.4715
G01 X7.9855 Y70.4295
G01 X8.0065 Y70.3851
G01 X8.0230 Y70.3390
G01 X8.0349 Y70.2914
G01 X8.0421 Y70.2429
G01 X8.0445 Y70.1939
G00 X8.0445 Y70.1939
G01 F250.00
G01 Z-0.4000
G01 F1250.00
G01 X8.0421 Y70.1449
G01 X8.0349 Y70.0964
G01 X8.0230 Y70.0489
G01 X8.0065 Y70.0027
G01 X7.9855 Y69.9584
G01 X7.9603 Y69.9163
G01 X7.9311 Y69.8769
G01 X7.8981 Y69.8406
G01 X7.8618 Y69.8077
G01 X7.8224 Y69.7785
G01 X7.7804 Y69.7532
G01 X7.7360 Y69.7323
G01 X7.6899 Y69.7158
G01 X7.6423 Y69.7038
G01 X7.5938 Y69.6966
G01 X7.5448 Y69.6942
G01 X7.4958 Y69.6966
G01 X7.4473 Y69.7038
G01 X7.3998 Y69.7158
G01 X7.3536 Y69.7323
G01 X7.3093 Y69.7532
G01 X7.2672 Y69.7785
G01 X7.2278 Y69.8077
G01 X7.1915 Y69.8406
G01 X7.1586 Y69.8769
G01 X7.1294 Y69.9163
G01 X7.1041 Y69.9584
G01 X7.0832 Y70.0027
G01 X7.0667 Y70.0489
G01 X7.0547 Y70.0964
G01 X7.0475 Y70.1449
G01 X7.0451 Y70.1939
G01 X7.0475 Y70.2429
G01 X7.0547 Y70.2914
G01 X7.0667 Y70.3390
G01 X7.0832 Y70.3851
G01 X7.1041 Y70.4295
G01 X7.1294 Y70.4715
G01 X7.1586 Y70.5109
G01 X7.1915 Y70.5472
G01 X7.2278 Y70.5802
G01 X7.2672 Y70.6094
G01 X7.3093 Y70.6346
G01 X7.3536 Y70.6556
G01 X7.3998 Y70.6721
G01 X7.4473 Y70.6840
G01 X7.4958 Y70.6912
G01 X7.5448 Y70.6936
G01 X7.5938 Y70.6912
G01 X7.6423 Y70.6840
G01 X7.6899 Y70.6721
G01 X7.7360 Y70.6556
G01 X7.7804 Y70.6346
G01 X7.8224 Y70.6094
G01 X7.8618 Y70.5802
G01 X7.8981 Y70.5472
G01 X7.9311 Y70.5109
G01 X7.9603 Y70.4715
G01 X7.9855 Y70.4295
G01 X8.0065 Y70.3851
G01 X8.0230 Y70.3390
G01 X8.0349 Y70.2914
G01 X8.0421 Y70.2429
G01 X8.0445 Y70.1939
G00 X8.0445 Y70.1939
G01 F250.00
G01 Z-0.5000
G01 F1250.00
G01 X8.0421 Y70.1449
G01 X8.0349 Y70.0964
G01 X8.0230 Y70.0489
G01 X8.0065 Y70.0027
G01 X7.9855 Y69.9584
G01 X7.9603 Y69.9163
G01 X7.9311 Y69.8769
G01 X7.8981 Y69.8406
G01 X7.8618 Y69.8077
G01 X7.8224 Y69.7785
G01 X7.7804 Y69.7532
G01 X7.7360 Y69.7323
G01 X7.6899 Y69.7158
G01 X7.6423 Y69.7038
G01 X7.5938 Y69.6966
G01 X7.5448 Y69.6942
G01 X7.4958 Y69.6966
G01 X7.4473 Y69.7038
G01 X7.3998 Y69.7158
G01 X7.3536 Y69.7323
G01 X7.3093 Y69.7532
G01 X7.2672 Y69.7785
G01 X7.2278 Y69.8077
G01 X7.1915 Y69.8406
G01 X7.1586 Y69.8769
G01 X7.1294 Y69.9163
G01 X7.1041 Y69.9584
G01 X7.0832 Y70.0027
G01 X7.0667 Y70.0489
G01 X7.0547 Y70.0964
G01 X7.0475 Y70.1449
G01 X7.0451 Y70.1939
G01 X7.0475 Y70.2429
G01 X7.0547 Y70.2914
G01 X7.0667 Y70.3390
G01 X7.0832 Y70.3851
G01 X7.1041 Y70.4295
G01 X7.1294 Y70.4715
G01 X7.1586 Y70.5109
G01 X7.1915 Y70.5472
G01 X7.2278 Y70.5802
G01 X7.2672 Y70.6094
G01 X7.3093 Y70.6346
G01 X7.3536 Y70.6556
G01 X7.3998 Y70.6721
G01 X7.4473 Y70.6840
G01 X7.4958 Y70.6912
G01 X7.5448 Y70.6936
G01 X7.5938 Y70.6912
G01 X7.6423 Y70.6840
G01 X7.6899 Y70.6721
G01 X7.7360 Y70.6556
G01 X7.7804 Y70.6346
G01 X7.8224 Y70.6094
G01 X7.8618 Y70.5802
G01 X7.8981 Y70.5472
G01 X7.9311 Y70.5109
G01 X7.9603 Y70.4715
G01 X7.9855 Y70.4295
G01 X8.0065 Y70.3851
G01 X8.0230 Y70.3390
G01 X8.0349 Y70.2914
G01 X8.0421 Y70.2429
G01 X8.0445 Y70.1939
G00 X8.0445 Y70.1939
G01 F250.00
G01 Z-0.6000
G01 F1250.00
G01 X8.0421 Y70.1449
G01 X8.0349 Y70.0964
G01 X8.0230 Y70.0489
G01 X8.0065 Y70.0027
G01 X7.9855 Y69.9584
G01 X7.9603 Y69.9163
G01 X7.9311 Y69.8769
G01 X7.8981 Y69.8406
G01 X7.8618 Y69.8077
G01 X7.8224 Y69.7785
G01 X7.7804 Y69.7532
G01 X7.7360 Y69.7323
G01 X7.6899 Y69.7158
G01 X7.6423 Y69.7038
G01 X7.5938 Y69.6966
G01 X7.5448 Y69.6942
G01 X7.4958 Y69.6966
G01 X7.4473 Y69.7038
G01 X7.3998 Y69.7158
G01 X7.3536 Y69.7323
G01 X7.3093 Y69.7532
G01 X7.2672 Y69.7785
G01 X7.2278 Y69.8077
G01 X7.1915 Y69.8406
G01 X7.1586 Y69.8769
G01 X7.1294 Y69.9163
G01 X7.1041 Y69.9584
G01 X7.0832 Y70.0027
G01 X7.0667 Y70.0489
G01 X7.0547 Y70.0964
G01 X7.0475 Y70.1449
G01 X7.0451 Y70.1939
G01 X7.0475 Y70.2429
G01 X7.0547 Y70.2914
G01 X7.0667 Y70.3390
G01 X7.0832 Y70.3851
G01 X7.1041 Y70.4295
G01 X7.1294 Y70.4715
G01 X7.1586 Y70.5109
G01 X7.1915 Y70.5472
G01 X7.2278 Y70.5802
G01 X7.2672 Y70.6094
G01 X7.3093 Y70.6346
G01 X7.3536 Y70.6556
G01 X7.3998 Y70.6721
G01 X7.4473 Y70.6840
G01 X7.4958 Y70.6912
G01 X7.5448 Y70.6936
G01 X7.5938 Y70.6912
G01 X7.6423 Y70.6840
G01 X7.6899 Y70.6721
G01 X7.7360 Y70.6556
G01 X7.7804 Y70.6346
G01 X7.8224 Y70.6094
G01 X7.8618 Y70.5802
G01 X7.8981 Y70.5472
G01 X7.9311 Y70.5109
G01 X7.9603 Y70.4715
G01 X7.9855 Y70.4295
G01 X8.0065 Y70.3851
G01 X8.0230 Y70.3390
G01 X8.0349 Y70.2914
G01 X8.0421 Y70.2429
G01 X8.0445 Y70.1939
G00 X8.0445 Y70.1939
G01 F250.00
G01 Z-0.7000
G01 F1250.00
G01 X8.0421 Y70.1449
G01 X8.0349 Y70.0964
G01 X8.0230 Y70.0489
G01 X8.0065 Y70.0027
G01 X7.9855 Y69.9584
G01 X7.9603 Y69.9163
G01 X7.9311 Y69.8769
G01 X7.8981 Y69.8406
G01 X7.8618 Y69.8077
G01 X7.8224 Y69.7785
G01 X7.7804 Y69.7532
G01 X7.7360 Y69.7323
G01 X7.6899 Y69.7158
G01 X7.6423 Y69.7038
G01 X7.5938 Y69.6966
G01 X7.5448 Y69.6942
G01 X7.4958 Y69.6966
G01 X7.4473 Y69.7038
G01 X7.3998 Y69.7158
G01 X7.3536 Y69.7323
G01 X7.3093 Y69.7532
G01 X7.2672 Y69.7785
G01 X7.2278 Y69.8077
G01 X7.1915 Y69.8406
G01 X7.1586 Y69.8769
G01 X7.1294 Y69.9163
G01 X7.1041 Y69.9584
G01 X7.0832 Y70.0027
G01 X7.0667 Y70.0489
G01 X7.0547 Y70.0964
G01 X7.0475 Y70.1449
G01 X7.0451 Y70.1939
G01 X7.0475 Y70.2429
G01 X7.0547 Y70.2914
G01 X7.0667 Y70.3390
G01 X7.0832 Y70.3851
G01 X7.1041 Y70.4295
G01 X7.1294 Y70.4715
G01 X7.1586 Y70.5109
G01 X7.1915 Y70.5472
G01 X7.2278 Y70.5802
G01 X7.2672 Y70.6094
G01 X7.3093 Y70.6346
G01 X7.3536 Y70.6556
G01 X7.3998 Y70.6721
G01 X7.4473 Y70.6840
G01 X7.4958 Y70.6912
G01 X7.5448 Y70.6936
G01 X7.5938 Y70.6912
G01 X7.6423 Y70.6840
G01 X7.6899 Y70.6721
G01 X7.7360 Y70.6556
G01 X7.7804 Y70.6346
G01 X7.8224 Y70.6094
G01 X7.8618 Y70.5802
G01 X7.8981 Y70.5472
G01 X7.9311 Y70.5109
G01 X7.9603 Y70.4715
G01 X7.9855 Y70.4295
G01 X8.0065 Y70.3851
G01 X8.0230 Y70.3390
G01 X8.0349 Y70.2914
G01 X8.0421 Y70.2429
G01 X8.0445 Y70.1939
G00 X8.0445 Y70.1939
G01 F250.00
G01 Z-0.8000
G01 F1250.00
G01 X8.0421 Y70.1449
G01 X8.0349 Y70.0964
G01 X8.0230 Y70.0489
G01 X8.0065 Y70.0027
G01 X7.9855 Y69.9584
G01 X7.9603 Y69.9163
G01 X7.9311 Y69.8769
G01 X7.8981 Y69.8406
G01 X7.8618 Y69.8077
G01 X7.8224 Y69.7785
G01 X7.7804 Y69.7532
G01 X7.7360 Y69.7323
G01 X7.6899 Y69.7158
G01 X7.6423 Y69.7038
G01 X7.5938 Y69.6966
G01 X7.5448 Y69.6942
G01 X7.4958 Y69.6966
G01 X7.4473 Y69.7038
G01 X7.3998 Y69.7158
G01 X7.3536 Y69.7323
G01 X7.3093 Y69.7532
G01 X7.2672 Y69.7785
G01 X7.2278 Y69.8077
G01 X7.1915 Y69.8406
G01 X7.1586 Y69.8769
G01 X7.1294 Y69.9163
G01 X7.1041 Y69.9584
G01 X7.0832 Y70.0027
G01 X7.0667 Y70.0489
G01 X7.0547 Y70.0964
G01 X7.0475 Y70.1449
G01 X7.0451 Y70.1939
G01 X7.0475 Y70.2429
G01 X7.0547 Y70.2914
G01 X7.0667 Y70.3390
G01 X7.0832 Y70.3851
G01 X7.1041 Y70.4295
G01 X7.1294 Y70.4715
G01 X7.1586 Y70.5109
G01 X7.1915 Y70.5472
G01 X7.2278 Y70.5802
G01 X7.2672 Y70.6094
G01 X7.3093 Y70.6346
G01 X7.3536 Y70.6556
G01 X7.3998 Y70.6721
G01 X7.4473 Y70.6840
G01 X7.4958 Y70.6912
G01 X7.5448 Y70.6936
G01 X7.5938 Y70.6912
G01 X7.6423 Y70.6840
G01 X7.6899 Y70.6721
G01 X7.7360 Y70.6556
G01 X7.7804 Y70.6346
G01 X7.8224 Y70.6094
G01 X7.8618 Y70.5802
G01 X7.8981 Y70.5472
G01 X7.9311 Y70.5109
G01 X7.9603 Y70.4715
G01 X7.9855 Y70.4295
G01 X8.0065 Y70.3851
G01 X8.0230 Y70.3390
G01 X8.0349 Y70.2914
G01 X8.0421 Y70.2429
G01 X8.0445 Y70.1939
G00 X8.0445 Y70.1939
G01 F250.00
G01 Z-0.9000
G01 F1250.00
G01 X8.0421 Y70.1449
G01 X8.0349 Y70.0964
G01 X8.0230 Y70.0489
G01 X8.0065 Y70.0027
G01 X7.9855 Y69.9584
G01 X7.9603 Y69.9163
G01 X7.9311 Y69.8769
G01 X7.8981 Y69.8406
G01 X7.8618 Y69.8077
G01 X7.8224 Y69.7785
G01 X7.7804 Y69.7532
G01 X7.7360 Y69.7323
G01 X7.6899 Y69.7158
G01 X7.6423 Y69.7038
G01 X7.5938 Y69.6966
G01 X7.5448 Y69.6942
G01 X7.4958 Y69.6966
G01 X7.4473 Y69.7038
G01 X7.3998 Y69.7158
G01 X7.3536 Y69.7323
G01 X7.3093 Y69.7532
G01 X7.2672 Y69.7785
G01 X7.2278 Y69.8077
G01 X7.1915 Y69.8406
G01 X7.1586 Y69.8769
G01 X7.1294 Y69.9163
G01 X7.1041 Y69.9584
G01 X7.0832 Y70.0027
G01 X7.0667 Y70.0489
G01 X7.0547 Y70.0964
G01 X7.0475 Y70.1449
G01 X7.0451 Y70.1939
G01 X7.0475 Y70.2429
G01 X7.0547 Y70.2914
G01 X7.0667 Y70.3390
G01 X7.0832 Y70.3851
G01 X7.1041 Y70.4295
G01 X7.1294 Y70.4715
G01 X7.1586 Y70.5109
G01 X7.1915 Y70.5472
G01 X7.2278 Y70.5802
G01 X7.2672 Y70.6094
G01 X7.3093 Y70.6346
G01 X7.3536 Y70.6556
G01 X7.3998 Y70.6721
G01 X7.4473 Y70.6840
G01 X7.4958 Y70.6912
G01 X7.5448 Y70.6936
G01 X7.5938 Y70.6912
G01 X7.6423 Y70.6840
G01 X7.6899 Y70.6721
G01 X7.7360 Y70.6556
G01 X7.7804 Y70.6346
G01 X7.8224 Y70.6094
G01 X7.8618 Y70.5802
G01 X7.8981 Y70.5472
G01 X7.9311 Y70.5109
G01 X7.9603 Y70.4715
G01 X7.9855 Y70.4295
G01 X8.0065 Y70.3851
G01 X8.0230 Y70.3390
G01 X8.0349 Y70.2914
G01 X8.0421 Y70.2429
G01 X8.0445 Y70.1939
G00 X8.0445 Y70.1939
G01 F250.00
G01 Z-1.0000
G01 F1250.00
G01 X8.0421 Y70.1449
G01 X8.0349 Y70.0964
G01 X8.0230 Y70.0489
G01 X8.0065 Y70.0027
G01 X7.9855 Y69.9584
G01 X7.9603 Y69.9163
G01 X7.9311 Y69.8769
G01 X7.8981 Y69.8406
G01 X7.8618 Y69.8077
G01 X7.8224 Y69.7785
G01 X7.7804 Y69.7532
G01 X7.7360 Y69.7323
G01 X7.6899 Y69.7158
G01 X7.6423 Y69.7038
G01 X7.5938 Y69.6966
G01 X7.5448 Y69.6942
G01 X7.4958 Y69.6966
G01 X7.4473 Y69.7038
G01 X7.3998 Y69.7158
G01 X7.3536 Y69.7323
G01 X7.3093 Y69.7532
G01 X7.2672 Y69.7785
G01 X7.2278 Y69.8077
G01 X7.1915 Y69.8406
G01 X7.1586 Y69.8769
G01 X7.1294 Y69.9163
G01 X7.1041 Y69.9584
G01 X7.0832 Y70.0027
G01 X7.0667 Y70.0489
G01 X7.0547 Y70.0964
G01 X7.0475 Y70.1449
G01 X7.0451 Y70.1939
G01 X7.0475 Y70.2429
G01 X7.0547 Y70.2914
G01 X7.0667 Y70.3390
G01 X7.0832 Y70.3851
G01 X7.1041 Y70.4295
G01 X7.1294 Y70.4715
G01 X7.1586 Y70.5109
G01 X7.1915 Y70.5472
G01 X7.2278 Y70.5802
G01 X7.2672 Y70.6094
G01 X7.3093 Y70.6346
G01 X7.3536 Y70.6556
G01 X7.3998 Y70.6721
G01 X7.4473 Y70.6840
G01 X7.4958 Y70.6912
G01 X7.5448 Y70.6936
G01 X7.5938 Y70.6912
G01 X7.6423 Y70.6840
G01 X7.6899 Y70.6721
G01 X7.7360 Y70.6556
G01 X7.7804 Y70.6346
G01 X7.8224 Y70.6094
G01 X7.8618 Y70.5802
G01 X7.8981 Y70.5472
G01 X7.9311 Y70.5109
G01 X7.9603 Y70.4715
G01 X7.9855 Y70.4295
G01 X8.0065 Y70.3851
G01 X8.0230 Y70.3390
G01 X8.0349 Y70.2914
G01 X8.0421 Y70.2429
G01 X8.0445 Y70.1939
G00 X8.0445 Y70.1939
G01 F250.00
G01 Z-1.1000
G01 F1250.00
G01 X8.0421 Y70.1449
G01 X8.0349 Y70.0964
G01 X8.0230 Y70.0489
G01 X8.0065 Y70.0027
G01 X7.9855 Y69.9584
G01 X7.9603 Y69.9163
G01 X7.9311 Y69.8769
G01 X7.8981 Y69.8406
G01 X7.8618 Y69.8077
G01 X7.8224 Y69.7785
G01 X7.7804 Y69.7532
G01 X7.7360 Y69.7323
G01 X7.6899 Y69.7158
G01 X7.6423 Y69.7038
G01 X7.5938 Y69.6966
G01 X7.5448 Y69.6942
G01 X7.4958 Y69.6966
G01 X7.4473 Y69.7038
G01 X7.3998 Y69.7158
G01 X7.3536 Y69.7323
G01 X7.3093 Y69.7532
G01 X7.2672 Y69.7785
G01 X7.2278 Y69.8077
G01 X7.1915 Y69.8406
G01 X7.1586 Y69.8769
G01 X7.1294 Y69.9163
G01 X7.1041 Y69.9584
G01 X7.0832 Y70.0027
G01 X7.0667 Y70.0489
G01 X7.0547 Y70.0964
G01 X7.0475 Y70.1449
G01 X7.0451 Y70.1939
G01 X7.0475 Y70.2429
G01 X7.0547 Y70.2914
G01 X7.0667 Y70.3390
G01 X7.0832 Y70.3851
G01 X7.1041 Y70.4295
G01 X7.1294 Y70.4715
G01 X7.1586 Y70.5109
G01 X7.1915 Y70.5472
G01 X7.2278 Y70.5802
G01 X7.2672 Y70.6094
G01 X7.3093 Y70.6346
G01 X7.3536 Y70.6556
G01 X7.3998 Y70.6721
G01 X7.4473 Y70.6840
G01 X7.4958 Y70.6912
G01 X7.5448 Y70.6936
G01 X7.5938 Y70.6912
G01 X7.6423 Y70.6840
G01 X7.6899 Y70.6721
G01 X7.7360 Y70.6556
G01 X7.7804 Y70.6346
G01 X7.8224 Y70.6094
G01 X7.8618 Y70.5802
G01 X7.8981 Y70.5472
G01 X7.9311 Y70.5109
G01 X7.9603 Y70.4715
G01 X7.9855 Y70.4295
G01 X8.0065 Y70.3851
G01 X8.0230 Y70.3390
G01 X8.0349 Y70.2914
G01 X8.0421 Y70.2429
G01 X8.0445 Y70.1939
G00 X8.0445 Y70.1939
G01 F250.00
G01 Z-1.2000
G01 F1250.00
G01 X8.0421 Y70.1449
G01 X8.0349 Y70.0964
G01 X8.0230 Y70.0489
G01 X8.0065 Y70.0027
G01 X7.9855 Y69.9584
G01 X7.9603 Y69.9163
G01 X7.9311 Y69.8769
G01 X7.8981 Y69.8406
G01 X7.8618 Y69.8077
G01 X7.8224 Y69.7785
G01 X7.7804 Y69.7532
G01 X7.7360 Y69.7323
G01 X7.6899 Y69.7158
G01 X7.6423 Y69.7038
G01 X7.5938 Y69.6966
G01 X7.5448 Y69.6942
G01 X7.4958 Y69.6966
G01 X7.4473 Y69.7038
G01 X7.3998 Y69.7158
G01 X7.3536 Y69.7323
G01 X7.3093 Y69.7532
G01 X7.2672 Y69.7785
G01 X7.2278 Y69.8077
G01 X7.1915 Y69.8406
G01 X7.1586 Y69.8769
G01 X7.1294 Y69.9163
G01 X7.1041 Y69.9584
G01 X7.0832 Y70.0027
G01 X7.0667 Y70.0489
G01 X7.0547 Y70.0964
G01 X7.0475 Y70.1449
G01 X7.0451 Y70.1939
G01 X7.0475 Y70.2429
G01 X7.0547 Y70.2914
G01 X7.0667 Y70.3390
G01 X7.0832 Y70.3851
G01 X7.1041 Y70.4295
G01 X7.1294 Y70.4715
G01 X7.1586 Y70.5109
G01 X7.1915 Y70.5472
G01 X7.2278 Y70.5802
G01 X7.2672 Y70.6094
G01 X7.3093 Y70.6346
G01 X7.3536 Y70.6556
G01 X7.3998 Y70.6721
G01 X7.4473 Y70.6840
G01 X7.4958 Y70.6912
G01 X7.5448 Y70.6936
G01 X7.5938 Y70.6912
G01 X7.6423 Y70.6840
G01 X7.6899 Y70.6721
G01 X7.7360 Y70.6556
G01 X7.7804 Y70.6346
G01 X7.8224 Y70.6094
G01 X7.8618 Y70.5802
G01 X7.8981 Y70.5472
G01 X7.9311 Y70.5109
G01 X7.9603 Y70.4715
G01 X7.9855 Y70.4295
G01 X8.0065 Y70.3851
G01 X8.0230 Y70.3390
G01 X8.0349 Y70.2914
G01 X8.0421 Y70.2429
G01 X8.0445 Y70.1939
G00 X8.0445 Y70.1939
G01 F250.00
G01 Z-1.3000
G01 F1250.00
G01 X8.0421 Y70.1449
G01 X8.0349 Y70.0964
G01 X8.0230 Y70.0489
G01 X8.0065 Y70.0027
G01 X7.9855 Y69.9584
G01 X7.9603 Y69.9163
G01 X7.9311 Y69.8769
G01 X7.8981 Y69.8406
G01 X7.8618 Y69.8077
G01 X7.8224 Y69.7785
G01 X7.7804 Y69.7532
G01 X7.7360 Y69.7323
G01 X7.6899 Y69.7158
G01 X7.6423 Y69.7038
G01 X7.5938 Y69.6966
G01 X7.5448 Y69.6942
G01 X7.4958 Y69.6966
G01 X7.4473 Y69.7038
G01 X7.3998 Y69.7158
G01 X7.3536 Y69.7323
G01 X7.3093 Y69.7532
G01 X7.2672 Y69.7785
G01 X7.2278 Y69.8077
G01 X7.1915 Y69.8406
G01 X7.1586 Y69.8769
G01 X7.1294 Y69.9163
G01 X7.1041 Y69.9584
G01 X7.0832 Y70.0027
G01 X7.0667 Y70.0489
G01 X7.0547 Y70.0964
G01 X7.0475 Y70.1449
G01 X7.0451 Y70.1939
G01 X7.0475 Y70.2429
G01 X7.0547 Y70.2914
G01 X7.0667 Y70.3390
G01 X7.0832 Y70.3851
G01 X7.1041 Y70.4295
G01 X7.1294 Y70.4715
G01 X7.1586 Y70.5109
G01 X7.1915 Y70.5472
G01 X7.2278 Y70.5802
G01 X7.2672 Y70.6094
G01 X7.3093 Y70.6346
G01 X7.3536 Y70.6556
G01 X7.3998 Y70.6721
G01 X7.4473 Y70.6840
G01 X7.4958 Y70.6912
G01 X7.5448 Y70.6936
G01 X7.5938 Y70.6912
G01 X7.6423 Y70.6840
G01 X7.6899 Y70.6721
G01 X7.7360 Y70.6556
G01 X7.7804 Y70.6346
G01 X7.8224 Y70.6094
G01 X7.8618 Y70.5802
G01 X7.8981 Y70.5472
G01 X7.9311 Y70.5109
G01 X7.9603 Y70.4715
G01 X7.9855 Y70.4295
G01 X8.0065 Y70.3851
G01 X8.0230 Y70.3390
G01 X8.0349 Y70.2914
G01 X8.0421 Y70.2429
G01 X8.0445 Y70.1939
G00 X8.0445 Y70.1939
G01 F250.00
G01 Z-1.4000
G01 F1250.00
G01 X8.0421 Y70.1449
G01 X8.0349 Y70.0964
G01 X8.0230 Y70.0489
G01 X8.0065 Y70.0027
G01 X7.9855 Y69.9584
G01 X7.9603 Y69.9163
G01 X7.9311 Y69.8769
G01 X7.8981 Y69.8406
G01 X7.8618 Y69.8077
G01 X7.8224 Y69.7785
G01 X7.7804 Y69.7532
G01 X7.7360 Y69.7323
G01 X7.6899 Y69.7158
G01 X7.6423 Y69.7038
G01 X7.5938 Y69.6966
G01 X7.5448 Y69.6942
G01 X7.4958 Y69.6966
G01 X7.4473 Y69.7038
G01 X7.3998 Y69.7158
G01 X7.3536 Y69.7323
G01 X7.3093 Y69.7532
G01 X7.2672 Y69.7785
G01 X7.2278 Y69.8077
G01 X7.1915 Y69.8406
G01 X7.1586 Y69.8769
G01 X7.1294 Y69.9163
G01 X7.1041 Y69.9584
G01 X7.0832 Y70.0027
G01 X7.0667 Y70.0489
G01 X7.0547 Y70.0964
G01 X7.0475 Y70.1449
G01 X7.0451 Y70.1939
G01 X7.0475 Y70.2429
G01 X7.0547 Y70.2914
G01 X7.0667 Y70.3390
G01 X7.0832 Y70.3851
G01 X7.1041 Y70.4295
G01 X7.1294 Y70.4715
G01 X7.1586 Y70.5109
G01 X7.1915 Y70.5472
G01 X7.2278 Y70.5802
G01 X7.2672 Y70.6094
G01 X7.3093 Y70.6346
G01 X7.3536 Y70.6556
G01 X7.3998 Y70.6721
G01 X7.4473 Y70.6840
G01 X7.4958 Y70.6912
G01 X7.5448 Y70.6936
G01 X7.5938 Y70.6912
G01 X7.6423 Y70.6840
G01 X7.6899 Y70.6721
G01 X7.7360 Y70.6556
G01 X7.7804 Y70.6346
G01 X7.8224 Y70.6094
G01 X7.8618 Y70.5802
G01 X7.8981 Y70.5472
G01 X7.9311 Y70.5109
G01 X7.9603 Y70.4715
G01 X7.9855 Y70.4295
G01 X8.0065 Y70.3851
G01 X8.0230 Y70.3390
G01 X8.0349 Y70.2914
G01 X8.0421 Y70.2429
G01 X8.0445 Y70.1939
G00 X8.0445 Y70.1939
G01 F250.00
G01 Z-1.5000
G01 F1250.00
G01 X8.0421 Y70.1449
G01 X8.0349 Y70.0964
G01 X8.0230 Y70.0489
G01 X8.0065 Y70.0027
G01 X7.9855 Y69.9584
G01 X7.9603 Y69.9163
G01 X7.9311 Y69.8769
G01 X7.8981 Y69.8406
G01 X7.8618 Y69.8077
G01 X7.8224 Y69.7785
G01 X7.7804 Y69.7532
G01 X7.7360 Y69.7323
G01 X7.6899 Y69.7158
G01 X7.6423 Y69.7038
G01 X7.5938 Y69.6966
G01 X7.5448 Y69.6942
G01 X7.4958 Y69.6966
G01 X7.4473 Y69.7038
G01 X7.3998 Y69.7158
G01 X7.3536 Y69.7323
G01 X7.3093 Y69.7532
G01 X7.2672 Y69.7785
G01 X7.2278 Y69.8077
G01 X7.1915 Y69.8406
G01 X7.1586 Y69.8769
G01 X7.1294 Y69.9163
G01 X7.1041 Y69.9584
G01 X7.0832 Y70.0027
G01 X7.0667 Y70.0489
G01 X7.0547 Y70.0964
G01 X7.0475 Y70.1449
G01 X7.0451 Y70.1939
G01 X7.0475 Y70.2429
G01 X7.0547 Y70.2914
G01 X7.0667 Y70.3390
G01 X7.0832 Y70.3851
G01 X7.1041 Y70.4295
G01 X7.1294 Y70.4715
G01 X7.1586 Y70.5109
G01 X7.1915 Y70.5472
G01 X7.2278 Y70.5802
G01 X7.2672 Y70.6094
G01 X7.3093 Y70.6346
G01 X7.3536 Y70.6556
G01 X7.3998 Y70.6721
G01 X7.4473 Y70.6840
G01 X7.4958 Y70.6912
G01 X7.5448 Y70.6936
G01 X7.5938 Y70.6912
G01 X7.6423 Y70.6840
G01 X7.6899 Y70.6721
G01 X7.7360 Y70.6556
G01 X7.7804 Y70.6346
G01 X7.8224 Y70.6094
G01 X7.8618 Y70.5802
G01 X7.8981 Y70.5472
G01 X7.9311 Y70.5109
G01 X7.9603 Y70.4715
G01 X7.9855 Y70.4295
G01 X8.0065 Y70.3851
G01 X8.0230 Y70.3390
G01 X8.0349 Y70.2914
G01 X8.0421 Y70.2429
G01 X8.0445 Y70.1939
G00 X8.0445 Y70.1939
G01 F250.00
G01 Z-1.6000
G01 F1250.00
G01 X8.0421 Y70.1449
G01 X8.0349 Y70.0964
G01 X8.0230 Y70.0489
G01 X8.0065 Y70.0027
G01 X7.9855 Y69.9584
G01 X7.9603 Y69.9163
G01 X7.9311 Y69.8769
G01 X7.8981 Y69.8406
G01 X7.8618 Y69.8077
G01 X7.8224 Y69.7785
G01 X7.7804 Y69.7532
G01 X7.7360 Y69.7323
G01 X7.6899 Y69.7158
G01 X7.6423 Y69.7038
G01 X7.5938 Y69.6966
G01 X7.5448 Y69.6942
G01 X7.4958 Y69.6966
G01 X7.4473 Y69.7038
G01 X7.3998 Y69.7158
G01 X7.3536 Y69.7323
G01 X7.3093 Y69.7532
G01 X7.2672 Y69.7785
G01 X7.2278 Y69.8077
G01 X7.1915 Y69.8406
G01 X7.1586 Y69.8769
G01 X7.1294 Y69.9163
G01 X7.1041 Y69.9584
G01 X7.0832 Y70.0027
G01 X7.0667 Y70.0489
G01 X7.0547 Y70.0964
G01 X7.0475 Y70.1449
G01 X7.0451 Y70.1939
G01 X7.0475 Y70.2429
G01 X7.0547 Y70.2914
G01 X7.0667 Y70.3390
G01 X7.0832 Y70.3851
G01 X7.1041 Y70.4295
G01 X7.1294 Y70.4715
G01 X7.1586 Y70.5109
G01 X7.1915 Y70.5472
G01 X7.2278 Y70.5802
G01 X7.2672 Y70.6094
G01 X7.3093 Y70.6346
G01 X7.3536 Y70.6556
G01 X7.3998 Y70.6721
G01 X7.4473 Y70.6840
G01 X7.4958 Y70.6912
G01 X7.5448 Y70.6936
G01 X7.5938 Y70.6912
G01 X7.6423 Y70.6840
G01 X7.6899 Y70.6721
G01 X7.7360 Y70.6556
G01 X7.7804 Y70.6346
G01 X7.8224 Y70.6094
G01 X7.8618 Y70.5802
G01 X7.8981 Y70.5472
G01 X7.9311 Y70.5109
G01 X7.9603 Y70.4715
G01 X7.9855 Y70.4295
G01 X8.0065 Y70.3851
G01 X8.0230 Y70.3390
G01 X8.0349 Y70.2914
G01 X8.0421 Y70.2429
G01 X8.0445 Y70.1939
G00 X8.0445 Y70.1939
G01 F250.00
G01 Z-1.7000
G01 F1250.00
G01 X8.0421 Y70.1449
G01 X8.0349 Y70.0964
G01 X8.0230 Y70.0489
G01 X8.0065 Y70.0027
G01 X7.9855 Y69.9584
G01 X7.9603 Y69.9163
G01 X7.9311 Y69.8769
G01 X7.8981 Y69.8406
G01 X7.8618 Y69.8077
G01 X7.8224 Y69.7785
G01 X7.7804 Y69.7532
G01 X7.7360 Y69.7323
G01 X7.6899 Y69.7158
G01 X7.6423 Y69.7038
G01 X7.5938 Y69.6966
G01 X7.5448 Y69.6942
G01 X7.4958 Y69.6966
G01 X7.4473 Y69.7038
G01 X7.3998 Y69.7158
G01 X7.3536 Y69.7323
G01 X7.3093 Y69.7532
G01 X7.2672 Y69.7785
G01 X7.2278 Y69.8077
G01 X7.1915 Y69.8406
G01 X7.1586 Y69.8769
G01 X7.1294 Y69.9163
G01 X7.1041 Y69.9584
G01 X7.0832 Y70.0027
G01 X7.0667 Y70.0489
G01 X7.0547 Y70.0964
G01 X7.0475 Y70.1449
G01 X7.0451 Y70.1939
G01 X7.0475 Y70.2429
G01 X7.0547 Y70.2914
G01 X7.0667 Y70.3390
G01 X7.0832 Y70.3851
G01 X7.1041 Y70.4295
G01 X7.1294 Y70.4715
G01 X7.1586 Y70.5109
G01 X7.1915 Y70.5472
G01 X7.2278 Y70.5802
G01 X7.2672 Y70.6094
G01 X7.3093 Y70.6346
G01 X7.3536 Y70.6556
G01 X7.3998 Y70.6721
G01 X7.4473 Y70.6840
G01 X7.4958 Y70.6912
G01 X7.5448 Y70.6936
G01 X7.5938 Y70.6912
G01 X7.6423 Y70.6840
G01 X7.6899 Y70.6721
G01 X7.7360 Y70.6556
G01 X7.7804 Y70.6346
G01 X7.8224 Y70.6094
G01 X7.8618 Y70.5802
G01 X7.8981 Y70.5472
G01 X7.9311 Y70.5109
G01 X7.9603 Y70.4715
G01 X7.9855 Y70.4295
G01 X8.0065 Y70.3851
G01 X8.0230 Y70.3390
G01 X8.0349 Y70.2914
G01 X8.0421 Y70.2429
G01 X8.0445 Y70.1939
G00 Z0.5000
G00 X8.0445 Y73.7601
G01 F250.00
G01 Z-0.1000
G01 F1250.00
G01 X8.0421 Y73.7111
G01 X8.0349 Y73.6626
G01 X8.0230 Y73.6150
G01 X8.0065 Y73.5689
G01 X7.9855 Y73.5245
G01 X7.9603 Y73.4825
G01 X7.9311 Y73.4431
G01 X7.8981 Y73.4068
G01 X7.8618 Y73.3738
G01 X7.8224 Y73.3446
G01 X7.7804 Y73.3194
G01 X7.7360 Y73.2984
G01 X7.6899 Y73.2819
G01 X7.6423 Y73.2700
G01 X7.5938 Y73.2628
G01 X7.5448 Y73.2604
G01 X7.4958 Y73.2628
G01 X7.4473 Y73.2700
G01 X7.3998 Y73.2819
G01 X7.3536 Y73.2984
G01 X7.3093 Y73.3194
G01 X7.2672 Y73.3446
G01 X7.2278 Y73.3738
G01 X7.1915 Y73.4068
G01 X7.1586 Y73.4431
G01 X7.1294 Y73.4825
G01 X7.1041 Y73.5245
G01 X7.0832 Y73.5689
G01 X7.0667 Y73.6150
G01 X7.0547 Y73.6626
G01 X7.0475 Y73.7111
G01 X7.0451 Y73.7601
G01 X7.0475 Y73.8091
G01 X7.0547 Y73.8576
G01 X7.0667 Y73.9051
G01 X7.0832 Y73.9513
G01 X7.1041 Y73.9956
G01 X7.1294 Y74.0377
G01 X7.1586 Y74.0771
G01 X7.1915 Y74.1134
G01 X7.2278 Y74.1463
G01 X7.2672 Y74.1756
G01 X7.3093 Y74.2008
G01 X7.3536 Y74.2217
G01 X7.3998 Y74.2382
G01 X7.4473 Y74.2502
G01 X7.4958 Y74.2574
G01 X7.5448 Y74.2598
G01 X7.5938 Y74.2574
G01 X7.6423 Y74.2502
G01 X7.6899 Y74.2382
G01 X7.7360 Y74.2217
G01 X7.7804 Y74.2008
G01 X7.8224 Y74.1756
G01 X7.8618 Y74.1463
G01 X7.8981 Y74.1134
G01 X7.9311 Y74.0771
G01 X7.9603 Y74.0377
G01 X7.9855 Y73.9956
G01 X8.0065 Y73.9513
G01 X8.0230 Y73.9051
G01 X8.0349 Y73.8576
G01 X8.0421 Y73.8091
G01 X8.0445 Y73.7601
G00 X8.0445 Y73.7601
G01 F250.00
G01 Z-0.2000
G01 F1250.00
G01 X8.0421 Y73.7111
G01 X8.0349 Y73.6626
G01 X8.0230 Y73.6150
G01 X8.0065 Y73.5689
G01 X7.9855 Y73.5245
G01 X7.9603 Y73.4825
G01 X7.9311 Y73.4431
G01 X7.8981 Y73.4068
G01 X7.8618 Y73.3738
G01 X7.8224 Y73.3446
G01 X7.7804 Y73.3194
G01 X7.7360 Y73.2984
G01 X7.6899 Y73.2819
G01 X7.6423 Y73.2700
G01 X7.5938 Y73.2628
G01 X7.5448 Y73.2604
G01 X7.4958 Y73.2628
G01 X7.4473 Y73.2700
G01 X7.3998 Y73.2819
G01 X7.3536 Y73.2984
G01 X7.3093 Y73.3194
G01 X7.2672 Y73.3446
G01 X7.2278 Y73.3738
G01 X7.1915 Y73.4068
G01 X7.1586 Y73.4431
G01 X7.1294 Y73.4825
G01 X7.1041 Y73.5245
G01 X7.0832 Y73.5689
G01 X7.0667 Y73.6150
G01 X7.0547 Y73.6626
G01 X7.0475 Y73.7111
G01 X7.0451 Y73.7601
G01 X7.0475 Y73.8091
G01 X7.0547 Y73.8576
G01 X7.0667 Y73.9051
G01 X7.0832 Y73.9513
G01 X7.1041 Y73.9956
G01 X7.1294 Y74.0377
G01 X7.1586 Y74.0771
G01 X7.1915 Y74.1134
G01 X7.2278 Y74.1463
G01 X7.2672 Y74.1756
G01 X7.3093 Y74.2008
G01 X7.3536 Y74.2217
G01 X7.3998 Y74.2382
G01 X7.4473 Y74.2502
G01 X7.4958 Y74.2574
G01 X7.5448 Y74.2598
G01 X7.5938 Y74.2574
G01 X7.6423 Y74.2502
G01 X7.6899 Y74.2382
G01 X7.7360 Y74.2217
G01 X7.7804 Y74.2008
G01 X7.8224 Y74.1756
G01 X7.8618 Y74.1463
G01 X7.8981 Y74.1134
G01 X7.9311 Y74.0771
G01 X7.9603 Y74.0377
G01 X7.9855 Y73.9956
G01 X8.0065 Y73.9513
G01 X8.0230 Y73.9051
G01 X8.0349 Y73.8576
G01 X8.0421 Y73.8091
G01 X8.0445 Y73.7601
G00 X8.0445 Y73.7601
G01 F250.00
G01 Z-0.3000
G01 F1250.00
G01 X8.0421 Y73.7111
G01 X8.0349 Y73.6626
G01 X8.0230 Y73.6150
G01 X8.0065 Y73.5689
G01 X7.9855 Y73.5245
G01 X7.9603 Y73.4825
G01 X7.9311 Y73.4431
G01 X7.8981 Y73.4068
G01 X7.8618 Y73.3738
G01 X7.8224 Y73.3446
G01 X7.7804 Y73.3194
G01 X7.7360 Y73.2984
G01 X7.6899 Y73.2819
G01 X7.6423 Y73.2700
G01 X7.5938 Y73.2628
G01 X7.5448 Y73.2604
G01 X7.4958 Y73.2628
G01 X7.4473 Y73.2700
G01 X7.3998 Y73.2819
G01 X7.3536 Y73.2984
G01 X7.3093 Y73.3194
G01 X7.2672 Y73.3446
G01 X7.2278 Y73.3738
G01 X7.1915 Y73.4068
G01 X7.1586 Y73.4431
G01 X7.1294 Y73.4825
G01 X7.1041 Y73.5245
G01 X7.0832 Y73.5689
G01 X7.0667 Y73.6150
G01 X7.0547 Y73.6626
G01 X7.0475 Y73.7111
G01 X7.0451 Y73.7601
G01 X7.0475 Y73.8091
G01 X7.0547 Y73.8576
G01 X7.0667 Y73.9051
G01 X7.0832 Y73.9513
G01 X7.1041 Y73.9956
G01 X7.1294 Y74.0377
G01 X7.1586 Y74.0771
G01 X7.1915 Y74.1134
G01 X7.2278 Y74.1463
G01 X7.2672 Y74.1756
G01 X7.3093 Y74.2008
G01 X7.3536 Y74.2217
G01 X7.3998 Y74.2382
G01 X7.4473 Y74.2502
G01 X7.4958 Y74.2574
G01 X7.5448 Y74.2598
