(G-CODE GENERATED BY FLATCAM v8.991 - www.flatcam.org - Version Date: 2019/12/30)

(Name: Cncjob_Board_Edge)
(Type: G-code from Geometry)
(Units: MM)

(Created on Friday, 10 March 2023 at 15:48)

(TOOL DIAMETER: 1.5 mm)
(Feedrate: 2500.0 mm/min)
(Feedrate_Z: 250.0 mm/min)
(Feedrate rapids 1500.0 mm/min)

(Z_Cut: -1.7 mm)
(Z_Move: 0.5 mm)
(Z Toolchange: 15.0 mm)
(X,Y Toolchange: 0.0000, 0.0000 mm)
(Z Start: 0.5 mm)
(Z End: 15.0 mm)
(Steps per circle: 64)
(Preprocessor Geometry: default)

(X range:    1.3769 ...  117.1771  mm)
(Y range:    1.2501 ...  150.1182  mm)

(Spindle Speed: None RPM)
G21
G90
G94




G01 F2500.00
G00 Z0.5000
G00 Z0.5000
M03
G4 P1.0
G00 X1.3769 Y95.2434
G01 F250.00
G01 Z-0.1000
G01 F2500.00
G01 X1.3779 Y95.2841
G01 X1.4028 Y95.8199
G01 X1.4054 Y95.8569
G01 X1.4076 Y95.8787
G01 X1.4111 Y95.9063
G01 X1.4889 Y96.4371
G01 X1.4933 Y96.4640
G01 X1.4974 Y96.4850
G01 X1.5053 Y96.5205
G01 X1.6363 Y97.0500
G01 X1.6471 Y97.0881
G01 X1.6584 Y97.1227
G01 X1.8370 Y97.6285
G01 X1.8466 Y97.6540
G01 X1.8546 Y97.6738
G01 X1.8692 Y97.7072
G01 X2.0959 Y98.1933
G01 X2.1079 Y98.2178
G01 X2.1178 Y98.2368
G01 X2.1355 Y98.2685
G01 X2.4083 Y98.7304
G01 X2.4275 Y98.7613
G01 X2.4393 Y98.7791
G01 X2.4550 Y98.8014
G01 X2.7821 Y99.2493
G01 X2.8068 Y99.2802
G01 X2.8246 Y99.3009
G01 X3.1812 Y99.7016
G01 X3.1997 Y99.7216
G01 X3.2147 Y99.7369
G01 X3.2408 Y99.7623
G01 X3.6346 Y100.1265
G01 X3.6541 Y100.1440
G01 X3.6699 Y100.1573
G01 X3.6992 Y100.1807
G01 X11.6810 Y108.7044
G01 X11.7094 Y108.7327
G01 X11.7365 Y108.7576
G01 X11.7648 Y108.7812
G01 X11.7891 Y108.8002
G01 X11.8190 Y108.8217
G01 X11.8344 Y108.8319
G01 X11.8604 Y108.8484
G01 X11.8768 Y108.8581
G01 X11.9971 Y108.9482
G01 X12.0184 Y108.9634
G01 X12.0354 Y108.9750
G01 X12.0574 Y108.9893
G01 X12.2982 Y109.1389
G01 X12.3287 Y109.1569
G01 X12.3626 Y109.1753
G01 X12.6243 Y109.3055
G01 X12.6564 Y109.3205
G01 X12.6756 Y109.3289
G01 X12.7002 Y109.3389
G01 X12.9648 Y109.4406
G01 X12.9982 Y109.4525
G01 X13.0349 Y109.4642
G01 X13.3165 Y109.5429
G01 X13.3422 Y109.5496
G01 X13.3712 Y109.5563
G01 X13.3972 Y109.5614
G01 X13.6762 Y109.6116
G01 X13.7025 Y109.6158
G01 X13.7231 Y109.6186
G01 X13.7584 Y109.6224
G01 X14.0497 Y109.6467
G01 X14.0882 Y109.6486
G01 X14.1237 Y109.6490
G01 X14.4071 Y109.6459
G01 X14.4425 Y109.6447
G01 X14.4634 Y109.6434
G01 X14.4899 Y109.6411
G01 X14.7717 Y109.6112
G01 X14.8069 Y109.6066
G01 X14.8449 Y109.6003
G01 X15.1314 Y109.5422
G01 X15.1574 Y109.5365
G01 X15.1776 Y109.5314
G01 X15.2118 Y109.5219
G01 X15.4830 Y109.4396
G01 X15.5167 Y109.4285
G01 X15.5363 Y109.4215
G01 X15.5611 Y109.4118
G01 X15.8234 Y109.3042
G01 X15.8558 Y109.2900
G01 X15.8906 Y109.2733
G01 X16.1494 Y109.1374
G01 X16.1727 Y109.1246
G01 X16.1907 Y109.1141
G01 X16.2209 Y109.0954
G01 X16.4582 Y108.9405
G01 X16.4875 Y108.9204
G01 X16.5043 Y108.9082
G01 X16.5254 Y108.8920
G01 X16.7471 Y108.7153
G01 X16.7743 Y108.6926
G01 X16.8030 Y108.6668
G01 X17.0134 Y108.4639
G01 X17.0322 Y108.4451
G01 X17.0466 Y108.4300
G01 X17.0703 Y108.4036
G01 X17.2549 Y108.1885
G01 X17.2773 Y108.1610
G01 X17.2901 Y108.1445
G01 X17.3058 Y108.1231
G01 X17.4692 Y107.8915
G01 X17.4889 Y107.8620
G01 X17.5093 Y107.8292
G01 X17.6545 Y107.5756
G01 X17.6673 Y107.5523
G01 X17.6769 Y107.5337
G01 X17.6923 Y107.5018
G01 X17.8092 Y107.2436
G01 X17.8231 Y107.2110
G01 X17.8307 Y107.1915
G01 X17.8398 Y107.1666
G01 X17.9319 Y106.8985
G01 X17.9426 Y106.8647
G01 X17.9530 Y106.8275
G01 X18.0215 Y106.5433
G01 X18.0272 Y106.5174
G01 X18.0312 Y106.4969
G01 X18.0370 Y106.4619
G01 X18.0771 Y106.1813
G01 X18.0804 Y106.1549
G01 X18.0824 Y106.1342
G01 X18.0849 Y106.0988
G01 X18.0983 Y105.8157
G01 X18.0993 Y105.7742
G01 X18.0993 Y90.2752
G01 X18.0985 Y90.2404
G01 X18.1177 Y89.8495
G01 X18.1847 Y89.3977
G01 X18.2957 Y88.9547
G01 X18.4495 Y88.5246
G01 X18.6448 Y88.1118
G01 X18.8796 Y87.7200
G01 X19.1517 Y87.3532
G01 X19.4584 Y87.0148
G01 X19.7968 Y86.7081
G01 X20.1636 Y86.4360
G01 X20.5554 Y86.2012
G01 X20.9683 Y86.0059
G01 X21.3983 Y85.8520
G01 X21.8413 Y85.7411
G01 X22.2931 Y85.6741
G01 X22.6890 Y85.6546
G01 X22.7139 Y85.6555
G01 X22.7323 Y85.6557
G01 X35.3663 Y85.6074
G01 X35.3939 Y85.6068
G01 X35.4350 Y85.6044
G01 X35.6690 Y85.6159
G01 X35.9720 Y85.6608
G01 X36.2693 Y85.7353
G01 X36.5578 Y85.8385
G01 X36.8348 Y85.9695
G01 X37.0976 Y86.1271
G01 X37.3437 Y86.3096
G01 X37.5708 Y86.5154
G01 X37.7765 Y86.7424
G01 X37.9591 Y86.9885
G01 X38.1166 Y87.2513
G01 X38.2476 Y87.5283
G01 X38.3508 Y87.8168
G01 X38.4253 Y88.1141
G01 X38.4702 Y88.4172
G01 X38.4864 Y88.7458
G01 X38.5067 Y96.8687
G01 X38.5076 Y96.9037
G01 X38.5068 Y96.9341
G01 X38.5070 Y96.9650
G01 X38.5507 Y97.9119
G01 X38.5524 Y97.9380
G01 X38.5543 Y97.9585
G01 X38.5583 Y97.9931
G01 X38.6875 Y98.9137
G01 X38.6916 Y98.9395
G01 X38.6988 Y98.9768
G01 X38.9168 Y99.8983
G01 X38.9232 Y99.9236
G01 X38.9288 Y99.9434
G01 X38.9392 Y99.9767
G01 X39.2364 Y100.8574
G01 X39.2483 Y100.8902
G01 X39.2559 Y100.9093
G01 X39.2661 Y100.9334
G01 X39.6438 Y101.7827
G01 X39.6587 Y101.8142
G01 X39.6679 Y101.8326
G01 X39.6803 Y101.8556
G01 X40.1353 Y102.6662
G01 X40.1530 Y102.6962
G01 X40.1639 Y102.7136
G01 X40.1784 Y102.7354
G01 X40.7117 Y103.5074
G01 X40.7343 Y103.5378
G01 X40.7561 Y103.5651
G01 X41.3530 Y104.2776
G01 X41.3799 Y104.3082
G01 X60.0574 Y124.6075
G01 X60.6359 Y125.3005
G01 X61.1328 Y126.0285
G01 X61.5571 Y126.8011
G01 X61.9043 Y127.6098
G01 X62.1849 Y128.4981
G01 X62.1941 Y128.5250
G01 X62.2006 Y128.5422
G01 X62.2120 Y128.5701
G01 X62.2207 Y128.5898
G01 X66.3829 Y137.2759
G01 X66.3993 Y137.3080
G01 X67.0823 Y138.9446
G01 X67.0967 Y138.9769
G01 X67.1137 Y139.0116
G01 X68.0014 Y140.6762
G01 X68.0187 Y140.7069
G01 X68.0293 Y140.7247
G01 X68.0435 Y140.7470
G01 X69.0785 Y142.3136
G01 X69.0986 Y142.3425
G01 X69.1109 Y142.3592
G01 X69.1271 Y142.3801
G01 X70.3044 Y143.8427
G01 X70.3213 Y143.8630
G01 X70.3350 Y143.8785
G01 X70.3590 Y143.9044
G01 X71.6683 Y145.2501
G01 X71.6870 Y145.2687
G01 X71.7021 Y145.2829
G01 X71.7284 Y145.3064
G01 X73.1582 Y146.5235
G01 X73.1855 Y146.5457
G01 X73.2019 Y146.5583
G01 X73.2233 Y146.5738
G01 X74.7609 Y147.6515
G01 X74.7902 Y147.6710
G01 X74.8077 Y147.6821
G01 X74.8304 Y147.6955
G01 X76.4623 Y148.6242
G01 X76.4933 Y148.6409
G01 X76.5118 Y148.6503
G01 X76.5357 Y148.6616
G01 X78.2474 Y149.4332
G01 X78.2717 Y149.4436
G01 X78.2909 Y149.4513
G01 X78.3240 Y149.4634
G01 X80.1005 Y150.0711
G01 X80.1268 Y150.0796
G01 X80.1475 Y150.0856
G01 X80.1652 Y150.0905
G01 X80.2009 Y150.0989
G01 X80.2312 Y150.1047
G01 X80.2674 Y150.1105
G01 X80.2856 Y150.1127
G01 X80.3163 Y150.1155
G01 X80.3529 Y150.1178
G01 X80.3713 Y150.1182
G01 X80.4021 Y150.1180
G01 X80.4296 Y150.1172
G01 X80.6427 Y150.1039
G01 X80.6853 Y150.0998
G01 X80.7090 Y150.0967
G01 X80.9031 Y150.0679
G01 X80.9303 Y150.0633
G01 X80.9606 Y150.0573
G01 X80.9875 Y150.0511
G01 X81.1778 Y150.0034
G01 X81.2133 Y149.9936
G01 X81.2340 Y149.9873
G01 X81.2602 Y149.9784
G01 X81.4535 Y149.9092
G01 X81.4907 Y149.8943
G01 X81.5244 Y149.8794
G01 X81.7100 Y149.7916
G01 X81.7456 Y149.7731
G01 X81.7697 Y149.7597
G01 X81.9537 Y149.6493
G01 X81.9873 Y149.6275
G01 X82.0174 Y149.6063
G01 X82.1824 Y149.4839
G01 X82.2137 Y149.4589
G01 X82.2415 Y149.4348
G01 X82.3937 Y149.2969
G01 X82.4136 Y149.2777
G01 X82.4415 Y149.2490
G01 X82.5795 Y149.0969
G01 X82.6035 Y149.0690
G01 X82.6286 Y149.0377
G01 X82.7510 Y148.8728
G01 X82.7670 Y148.8503
G01 X82.7842 Y148.8246
G01 X82.7988 Y148.8012
G01 X82.9043 Y148.6250
G01 X82.9237 Y148.5899
G01 X82.9402 Y148.5570
G01 X83.0280 Y148.3714
G01 X83.0438 Y148.3345
G01 X83.0570 Y148.3002
G01 X83.1262 Y148.1068
G01 X83.1383 Y148.0686
G01 X83.1458 Y148.0420
G01 X83.1958 Y147.8428
G01 X83.2038 Y147.8069
G01 X83.2111 Y147.7675
G01 X83.2413 Y147.5644
G01 X83.2449 Y147.5370
G01 X83.2486 Y147.4971
G01 X83.2594 Y147.2828
G01 X83.2602 Y147.2552
G01 X83.2603 Y147.2335
G01 X83.2594 Y147.1967
G01 X83.2567 Y147.1600
G01 X83.2534 Y147.1293
G01 X83.2480 Y147.0927
G01 X83.1945 Y127.7462
G01 X83.2007 Y127.6118
G01 X83.2160 Y127.5090
G01 X83.2414 Y127.4074
G01 X83.2767 Y127.3088
G01 X83.3215 Y127.2141
G01 X83.3754 Y127.1242
G01 X83.4378 Y127.0401
G01 X83.5081 Y126.9625
G01 X83.5858 Y126.8921
G01 X83.6699 Y126.8297
G01 X83.7598 Y126.7758
G01 X83.8545 Y126.7310
G01 X83.9531 Y126.6958
G01 X84.0547 Y126.6703
G01 X84.1583 Y126.6549
G01 X84.2402 Y126.6509
G01 X84.2630 Y126.6513
G01 X112.2639 Y126.6513
G01 X112.3093 Y126.6511
G01 X112.3369 Y126.6505
G01 X112.7290 Y126.6337
G01 X112.7584 Y126.6319
G01 X112.7911 Y126.6288
G01 X112.8203 Y126.6251
G01 X113.2087 Y126.5674
G01 X113.2449 Y126.5612
G01 X113.2662 Y126.5569
G01 X113.2931 Y126.5507
G01 X113.6739 Y126.4553
G01 X113.7094 Y126.4454
G01 X113.7301 Y126.4391
G01 X113.7563 Y126.4303
G01 X114.1259 Y126.2980
G01 X114.1517 Y126.2882
G01 X114.1718 Y126.2800
G01 X114.2054 Y126.2651
G01 X114.5603 Y126.0972
G01 X114.5932 Y126.0807
G01 X114.6123 Y126.0704
G01 X114.6362 Y126.0567
G01 X114.9730 Y125.8548
G01 X115.0041 Y125.8351
G01 X115.0221 Y125.8230
G01 X115.0445 Y125.8070
G01 X115.3599 Y125.5731
G01 X115.3817 Y125.5563
G01 X115.3985 Y125.5426
G01 X115.4264 Y125.5185
G01 X115.7173 Y125.2549
G01 X115.7439 Y125.2295
G01 X115.7592 Y125.2141
G01 X115.7781 Y125.1940
G01 X116.0418 Y124.9031
G01 X116.0658 Y124.8753
G01 X116.0795 Y124.8585
G01 X116.0964 Y124.8366
G01 X116.3303 Y124.5213
G01 X116.3463 Y124.4988
G01 X116.3584 Y124.4808
G01 X116.3781 Y124.4497
G01 X116.5799 Y124.1130
G01 X116.5981 Y124.0809
G01 X116.6082 Y124.0618
G01 X116.6205 Y124.0371
G01 X116.7883 Y123.6822
G01 X116.8033 Y123.6485
G01 X116.8115 Y123.6285
G01 X116.8213 Y123.6026
G01 X116.9535 Y123.2330
G01 X116.9624 Y123.2068
G01 X116.9713 Y123.1773
G01 X116.9785 Y123.1506
G01 X117.0739 Y122.7698
G01 X117.0820 Y122.7339
G01 X117.0862 Y122.7126
G01 X117.0907 Y122.6854
G01 X117.1483 Y122.2971
G01 X117.1528 Y122.2605
G01 X117.1549 Y122.2389
G01 X117.1567 Y122.2114
G01 X117.1760 Y121.8193
G01 X117.1771 Y121.7762
G01 X117.1771 Y29.7749
G01 X117.1760 Y29.7319
G01 X117.1567 Y29.3397
G01 X117.1540 Y29.3030
G01 X117.1519 Y29.2815
G01 X117.1483 Y29.2541
G01 X117.0907 Y28.8658
G01 X117.0844 Y28.8295
G01 X117.0801 Y28.8082
G01 X117.0739 Y28.7813
G01 X116.9785 Y28.4005
G01 X116.9687 Y28.3650
G01 X116.9566 Y28.3268
G01 X116.8213 Y27.9485
G01 X116.8080 Y27.9142
G01 X116.7997 Y27.8942
G01 X116.7883 Y27.8690
G01 X116.6205 Y27.5141
G01 X116.6039 Y27.4812
G01 X116.5846 Y27.4461
G01 X116.3733 Y27.0936
G01 X116.3515 Y27.0600
G01 X116.3303 Y27.0299
G01 X116.0964 Y26.7145
G01 X116.0795 Y26.6927
G01 X116.0658 Y26.6759
G01 X116.0418 Y26.6480
G01 X115.7781 Y26.3571
G01 X115.7528 Y26.3305
G01 X115.7241 Y26.3025
G01 X115.4264 Y26.0326
G01 X115.3985 Y26.0086
G01 X115.3817 Y25.9949
G01 X115.3599 Y25.9780
G01 X115.0445 Y25.7441
G01 X115.0221 Y25.7281
G01 X115.0041 Y25.7160
G01 X114.9730 Y25.6963
G01 X114.6283 Y25.4898
G01 X114.5932 Y25.4705
G01 X114.5603 Y25.4539
G01 X114.2054 Y25.2861
G01 X114.1718 Y25.2711
G01 X114.1517 Y25.2629
G01 X114.1259 Y25.2531
G01 X113.7563 Y25.1209
G01 X113.7213 Y25.1093
G01 X113.6828 Y25.0982
G01 X113.2931 Y25.0005
G01 X113.2572 Y24.9924
G01 X113.2359 Y24.9883
G01 X113.2087 Y24.9837
G01 X112.8203 Y24.9261
G01 X112.7929 Y24.9225
G01 X112.7622 Y24.9195
G01 X112.7347 Y24.9177
G01 X112.3425 Y24.8984
G01 X112.3057 Y24.8975
G01 X112.2749 Y24.8977
G01 X112.2565 Y24.8984
G01 X112.2198 Y24.9011
G01 X112.1891 Y24.9044
G01 X112.1708 Y24.9068
G01 X112.1526 Y24.9098
G01 X112.1245 Y24.9151
G01 X84.7316 Y24.9151
G01 X84.5720 Y24.9073
G01 X84.4354 Y24.8870
G01 X84.3013 Y24.8534
G01 X84.1713 Y24.8069
G01 X84.0464 Y24.7478
G01 X83.9278 Y24.6768
G01 X83.8169 Y24.5945
G01 X83.7145 Y24.5017
G01 X83.6217 Y24.3993
G01 X83.5394 Y24.2884
G01 X83.4684 Y24.1699
G01 X83.4093 Y24.0450
G01 X83.3628 Y23.9149
G01 X83.3292 Y23.7808
G01 X83.3097 Y23.6491
G01 X83.3025 Y23.4613
G01 X83.3010 Y4.1092
G01 X83.3006 Y4.0908
G01 X83.2990 Y4.0597
G01 X83.2880 Y3.8813
G01 X83.2851 Y3.8490
G01 X83.2816 Y3.8194
G01 X83.2559 Y3.6360
G01 X83.2519 Y3.6102
G01 X83.2465 Y3.5816
G01 X83.2409 Y3.5561
G01 X83.1984 Y3.3758
G01 X83.1920 Y3.3506
G01 X83.1840 Y3.3225
G01 X83.1761 Y3.2977
G01 X83.1142 Y3.1139
G01 X83.1009 Y3.0785
G01 X83.0911 Y3.0543
G01 X83.0126 Y2.8770
G01 X82.9978 Y2.8456
G01 X82.9886 Y2.8273
G01 X82.9762 Y2.8043
G01 X82.8816 Y2.6351
G01 X82.8620 Y2.6027
G01 X82.8430 Y2.5737
G01 X82.7330 Y2.4139
G01 X82.7229 Y2.3998
G01 X82.7052 Y2.3766
G01 X82.6889 Y2.3563
G01 X82.5703 Y2.2141
G01 X82.5474 Y2.1879
G01 X82.5335 Y2.1728
G01 X82.5154 Y2.1541
G01 X82.3779 Y2.0174
G01 X82.3502 Y1.9916
G01 X82.3305 Y1.9745
G01 X82.1811 Y1.8509
G01 X82.1607 Y1.8347
G01 X82.1443 Y1.8224
G01 X82.1161 Y1.8022
G01 X81.9557 Y1.6931
G01 X81.9237 Y1.6729
G01 X81.8937 Y1.6554
G01 X81.7240 Y1.5616
G01 X81.7008 Y1.5497
G01 X81.6667 Y1.5333
G01 X81.4890 Y1.4556
G01 X81.4650 Y1.4456
G01 X81.4459 Y1.4382
G01 X81.4131 Y1.4265
G01 X81.2290 Y1.3657
G01 X81.1927 Y1.3550
G01 X81.1590 Y1.3464
G01 X80.9786 Y1.3048
G01 X80.9445 Y1.2978
G01 X80.9244 Y1.2941
G01 X80.8986 Y1.2902
G01 X80.7150 Y1.2654
G01 X80.6948 Y1.2630
G01 X80.6664 Y1.2585
G01 X80.6174 Y1.2530
G01 X80.5807 Y1.2507
G01 X80.5498 Y1.2501
G01 X80.5130 Y1.2505
G01 X80.4763 Y1.2527
G01 X80.4455 Y1.2556
G01 X80.4273 Y1.2578
G01 X80.3909 Y1.2636
G01 X80.3606 Y1.2695
G01 X80.3248 Y1.2779
G01 X80.2950 Y1.2863
G01 X80.2687 Y1.2944
G01 X78.4839 Y1.9064
G01 X78.4511 Y1.9185
G01 X78.4159 Y1.9329
G01 X76.6963 Y2.7080
G01 X76.6725 Y2.7192
G01 X76.6539 Y2.7286
G01 X76.6229 Y2.7453
G01 X74.9836 Y3.6783
G01 X74.9509 Y3.6984
G01 X74.9216 Y3.7180
G01 X73.3842 Y4.7955
G01 X73.3628 Y4.8111
G01 X73.3464 Y4.8237
G01 X73.3190 Y4.8459
G01 X71.8894 Y6.0629
G01 X71.8696 Y6.0804
G01 X71.8544 Y6.0945
G01 X71.8293 Y6.1192
G01 X70.5201 Y7.4649
G01 X70.4961 Y7.4907
G01 X70.4824 Y7.5062
G01 X70.4655 Y7.5265
G01 X69.2882 Y8.9890
G01 X69.2668 Y9.0170
G01 X69.2546 Y9.0337
G01 X69.2397 Y9.0555
G01 X68.1952 Y10.6368
G01 X68.1755 Y10.6697
G01 X68.1626 Y10.6927
G01 X67.2791 Y12.3494
G01 X67.2633 Y12.3808
G01 X67.2545 Y12.3996
G01 X67.2439 Y12.4238
G01 X66.5654 Y14.0465
G01 X66.5538 Y14.0680
G01 X66.5416 Y14.0928
G01 X62.3467 Y22.9301
G01 X62.3356 Y22.9554
G01 X62.3239 Y22.9840
G01 X62.3115 Y23.0187
G01 X62.2989 Y23.0598
G01 X62.2895 Y23.0872
G01 X62.0088 Y23.9671
G01 X61.6612 Y24.7768
G01 X61.2372 Y25.5492
G01 X60.7408 Y26.2766
G01 X60.1619 Y26.9687
G01 X41.4803 Y47.2752
G01 X41.4597 Y47.2990
G01 X40.8628 Y48.0116
G01 X40.8463 Y48.0319
G01 X40.8339 Y48.0482
G01 X40.8134 Y48.0764
G01 X40.2852 Y48.8412
G01 X40.2707 Y48.8630
G01 X40.2552 Y48.8878
G01 X40.2420 Y48.9104
G01 X39.7871 Y49.7210
G01 X39.7747 Y49.7440
G01 X39.7654 Y49.7623
G01 X39.7505 Y49.7939
G01 X39.3728 Y50.6432
G01 X39.3594 Y50.6754
G01 X39.3520 Y50.6945
G01 X39.3432 Y50.7191
G01 X39.0460 Y51.5999
G01 X39.0380 Y51.6248
G01 X39.0323 Y51.6445
G01 X39.0235 Y51.6783
G01 X38.8094 Y52.5828
G01 X38.8038 Y52.6083
G01 X38.7999 Y52.6285
G01 X38.7943 Y52.6629
G01 X38.6628 Y53.6007
G01 X38.6592 Y53.6385
G01 X38.6575 Y53.6646
G01 X38.6143 Y54.5931
G01 X38.6133 Y54.6339
G01 X38.6133 Y62.7569
G01 X38.5991 Y63.0652
G01 X38.5592 Y63.3509
G01 X38.4932 Y63.6316
G01 X38.4015 Y63.9051
G01 X38.2850 Y64.1689
G01 X38.1447 Y64.4209
G01 X37.9817 Y64.6588
G01 X37.7975 Y64.8807
G01 X37.5935 Y65.0847
G01 X37.3716 Y65.2689
G01 X37.1337 Y65.4319
G01 X36.8817 Y65.5723
G01 X36.6179 Y65.6888
G01 X36.3444 Y65.7804
G01 X36.0637 Y65.8465
G01 X35.7780 Y65.8863
G01 X35.4420 Y65.9019
G01 X22.7504 Y65.9031
G01 X22.2728 Y65.8796
G01 X21.8210 Y65.8126
G01 X21.3780 Y65.7016
G01 X20.9479 Y65.5478
G01 X20.5351 Y65.3525
G01 X20.1433 Y65.1177
G01 X19.7765 Y64.8456
G01 X19.4381 Y64.5389
G01 X19.1314 Y64.2005
G01 X18.8593 Y63.8337
G01 X18.6245 Y63.4419
G01 X18.4292 Y63.0290
G01 X18.2753 Y62.5990
G01 X18.1644 Y62.1560
G01 X18.0974 Y61.7042
G01 X18.0756 Y61.2608
G01 X18.0764 Y61.2252
G01 X18.0764 Y45.7236
G01 X18.0757 Y45.6866
G01 X18.0638 Y45.4054
G01 X18.0613 Y45.3681
G01 X18.0592 Y45.3462
G01 X18.0558 Y45.3184
G01 X18.0160 Y45.0397
G01 X18.0118 Y45.0135
G01 X18.0062 Y44.9843
G01 X18.0004 Y44.9583
G01 X17.9345 Y44.6846
G01 X17.9254 Y44.6504
G01 X17.9141 Y44.6134
G01 X17.8198 Y44.3388
G01 X17.8075 Y44.3056
G01 X17.7997 Y44.2862
G01 X17.7892 Y44.2618
G01 X17.6730 Y44.0054
G01 X17.6576 Y43.9734
G01 X17.6396 Y43.9393
G01 X17.4954 Y43.6873
G01 X17.4770 Y43.6569
G01 X17.4658 Y43.6394
G01 X17.4508 Y43.6174
G01 X17.2833 Y43.3802
G01 X17.2600 Y43.3494
G01 X17.2376 Y43.3220
G01 X17.0542 Y43.1084
G01 X17.0366 Y43.0885
G01 X17.0223 Y43.0733
G01 X16.9974 Y43.0481
G01 X16.7947 Y42.8527
G01 X16.7686 Y42.8287
G01 X16.7393 Y42.8036
G01 X16.5122 Y42.6227
G01 X16.4911 Y42.6065
G01 X16.4742 Y42.5942
G01 X16.4449 Y42.5741
G01 X16.2017 Y42.4155
G01 X16.1687 Y42.3956
G01 X16.1377 Y42.3784
G01 X15.8884 Y42.2475
G01 X15.8647 Y42.2356
G01 X15.8458 Y42.2267
G01 X15.8133 Y42.2125
G01 X15.5363 Y42.0992
G01 X15.5084 Y42.0891
G01 X15.4832 Y42.0806
G01 X15.2053 Y41.9963
G01 X15.1712 Y41.9869
G01 X15.1336 Y41.9779
G01 X14.8490 Y41.9202
G01 X14.8141 Y41.9140
G01 X14.7935 Y41.9109
G01 X14.7671 Y41.9076
G01 X14.4872 Y41.8780
G01 X14.4518 Y41.8751
G01 X14.4133 Y41.8734
G01 X14.1229 Y41.8702
G01 X14.0875 Y41.8707
G01 X14.0666 Y41.8715
G01 X14.0401 Y41.8732
G01 X13.7596 Y41.8968
G01 X13.7243 Y41.9006
G01 X13.6861 Y41.9061
G01 X13.4003 Y41.9576
G01 X13.3656 Y41.9647
G01 X13.3453 Y41.9695
G01 X13.3195 Y41.9762
G01 X13.0485 Y42.0521
G01 X13.0146 Y42.0624
G01 X12.9781 Y42.0750
G01 X12.7071 Y42.1793
G01 X12.6824 Y42.1893
G01 X12.6633 Y42.1977
G01 X12.6312 Y42.2127
G01 X12.3713 Y42.3422
G01 X12.3374 Y42.3606
G01 X12.3069 Y42.3786
G01 X12.0678 Y42.5274
G01 X12.0455 Y42.5418
G01 X12.0283 Y42.5536
G01 X11.9996 Y42.5744
G01 X11.7612 Y42.7564
G01 X11.7301 Y42.7823
G01 X11.7099 Y42.8005
G01 X11.6918 Y42.8180
G01 X11.6682 Y42.8420
G01 X3.7062 Y51.3144
G01 X3.6869 Y51.3291
G01 X3.6726 Y51.3408
G01 X3.6560 Y51.3547
G01 X3.6354 Y51.3731
G01 X3.2414 Y51.7366
G01 X3.2149 Y51.7623
G01 X3.1997 Y51.7778
G01 X3.1809 Y51.7982
G01 X2.8245 Y52.1987
G01 X2.8067 Y52.2194
G01 X2.7933 Y52.2360
G01 X2.7711 Y52.2649
G01 X2.4552 Y52.6980
G01 X2.4345 Y52.7279
G01 X2.4228 Y52.7458
G01 X2.4085 Y52.7691
G01 X2.1360 Y53.2307
G01 X2.1183 Y53.2625
G01 X2.1003 Y53.2977
G01 X1.8699 Y53.7919
G01 X1.8588 Y53.8168
G01 X1.8507 Y53.8366
G01 X1.8377 Y53.8705
G01 X1.6593 Y54.3761
G01 X1.6507 Y54.4020
G01 X1.6445 Y54.4224
G01 X1.6349 Y54.4575
G01 X1.5062 Y54.9780
G01 X1.5002 Y55.0045
G01 X1.4960 Y55.0255
G01 X1.4899 Y55.0614
G01 X1.4122 Y55.5918
G01 X1.4078 Y55.6279
G01 X1.4058 Y55.6492
G01 X1.4039 Y55.6764
G01 X1.3776 Y56.2211
G01 X1.3769 Y56.2544
G01 X1.3769 Y95.2434
G00 X1.3769 Y95.2434
G01 F250.00
G01 Z-0.2000
G01 F2500.00
G01 X1.3779 Y95.2841
G01 X1.4028 Y95.8199
G01 X1.4054 Y95.8569
G01 X1.4076 Y95.8787
G01 X1.4111 Y95.9063
G01 X1.4889 Y96.4371
G01 X1.4933 Y96.4640
G01 X1.4974 Y96.4850
G01 X1.5053 Y96.5205
G01 X1.6363 Y97.0500
G01 X1.6471 Y97.0881
G01 X1.6584 Y97.1227
G01 X1.8370 Y97.6285
G01 X1.8466 Y97.6540
G01 X1.8546 Y97.6738
G01 X1.8692 Y97.7072
G01 X2.0959 Y98.1933
G01 X2.1079 Y98.2178
G01 X2.1178 Y98.2368
G01 X2.1355 Y98.2685
G01 X2.4083 Y98.7304
G01 X2.4275 Y98.7613
G01 X2.4393 Y98.7791
G01 X2.4550 Y98.8014
G01 X2.7821 Y99.2493
G01 X2.8068 Y99.2802
G01 X2.8246 Y99.3009
G01 X3.1812 Y99.7016
G01 X3.1997 Y99.7216
G01 X3.2147 Y99.7369
G01 X3.2408 Y99.7623
G01 X3.6346 Y100.1265
G01 X3.6541 Y100.1440
G01 X3.6699 Y100.1573
G01 X3.6992 Y100.1807
G01 X11.6810 Y108.7044
G01 X11.7094 Y108.7327
G01 X11.7365 Y108.7576
G01 X11.7648 Y108.7812
G01 X11.7891 Y108.8002
G01 X11.8190 Y108.8217
G01 X11.8344 Y108.8319
G01 X11.8604 Y108.8484
G01 X11.8768 Y108.8581
G01 X11.9971 Y108.9482
G01 X12.0184 Y108.9634
G01 X12.0354 Y108.9750
G01 X12.0574 Y108.9893
G01 X12.2982 Y109.1389
G01 X12.3287 Y109.1569
G01 X12.3626 Y109.1753
G01 X12.6243 Y109.3055
G01 X12.6564 Y109.3205
G01 X12.6756 Y109.3289
G01 X12.7002 Y109.3389
G01 X12.9648 Y109.4406
G01 X12.9982 Y109.4525
G01 X13.0349 Y109.4642
G01 X13.3165 Y109.5429
G01 X13.3422 Y109.5496
G01 X13.3712 Y109.5563
G01 X13.3972 Y109.5614
G01 X13.6762 Y109.6116
G01 X13.7025 Y109.6158
G01 X13.7231 Y109.6186
G01 X13.7584 Y109.6224
G01 X14.0497 Y109.6467
G01 X14.0882 Y109.6486
G01 X14.1237 Y109.6490
G01 X14.4071 Y109.6459
G01 X14.4425 Y109.6447
G01 X14.4634 Y109.6434
G01 X14.4899 Y109.6411
G01 X14.7717 Y109.6112
G01 X14.8069 Y109.6066
G01 X14.8449 Y109.6003
G01 X15.1314 Y109.5422
G01 X15.1574 Y109.5365
G01 X15.1776 Y109.5314
G01 X15.2118 Y109.5219
G01 X15.4830 Y109.4396
G01 X15.5167 Y109.4285
G01 X15.5363 Y109.4215
G01 X15.5611 Y109.4118
G01 X15.8234 Y109.3042
G01 X15.8558 Y109.2900
G01 X15.8906 Y109.2733
G01 X16.1494 Y109.1374
G01 X16.1727 Y109.1246
G01 X16.1907 Y109.1141
G01 X16.2209 Y109.0954
G01 X16.4582 Y108.9405
G01 X16.4875 Y108.9204
G01 X16.5043 Y108.9082
G01 X16.5254 Y108.8920
G01 X16.7471 Y108.7153
G01 X16.7743 Y108.6926
G01 X16.8030 Y108.6668
G01 X17.0134 Y108.4639
G01 X17.0322 Y108.4451
G01 X17.0466 Y108.4300
G01 X17.0703 Y108.4036
G01 X17.2549 Y108.1885
G01 X17.2773 Y108.1610
G01 X17.2901 Y108.1445
G01 X17.3058 Y108.1231
G01 X17.4692 Y107.8915
G01 X17.4889 Y107.8620
G01 X17.5093 Y107.8292
G01 X17.6545 Y107.5756
G01 X17.6673 Y107.5523
G01 X17.6769 Y107.5337
G01 X17.6923 Y107.5018
G01 X17.8092 Y107.2436
G01 X17.8231 Y107.2110
G01 X17.8307 Y107.1915
G01 X17.8398 Y107.1666
G01 X17.9319 Y106.8985
G01 X17.9426 Y106.8647
G01 X17.9530 Y106.8275
G01 X18.0215 Y106.5433
G01 X18.0272 Y106.5174
G01 X18.0312 Y106.4969
G01 X18.0370 Y106.4619
G01 X18.0771 Y106.1813
G01 X18.0804 Y106.1549
G01 X18.0824 Y106.1342
G01 X18.0849 Y106.0988
G01 X18.0983 Y105.8157
G01 X18.0993 Y105.7742
G01 X18.0993 Y90.2752
G01 X18.0985 Y90.2404
G01 X18.1177 Y89.8495
G01 X18.1847 Y89.3977
G01 X18.2957 Y88.9547
G01 X18.4495 Y88.5246
G01 X18.6448 Y88.1118
G01 X18.8796 Y87.7200
G01 X19.1517 Y87.3532
G01 X19.4584 Y87.0148
G01 X19.7968 Y86.7081
G01 X20.1636 Y86.4360
G01 X20.5554 Y86.2012
G01 X20.9683 Y86.0059
G01 X21.3983 Y85.8520
G01 X21.8413 Y85.7411
G01 X22.2931 Y85.6741
G01 X22.6890 Y85.6546
G01 X22.7139 Y85.6555
G01 X22.7323 Y85.6557
G01 X35.3663 Y85.6074
G01 X35.3939 Y85.6068
G01 X35.4350 Y85.6044
G01 X35.6690 Y85.6159
G01 X35.9720 Y85.6608
G01 X36.2693 Y85.7353
G01 X36.5578 Y85.8385
G01 X36.8348 Y85.9695
G01 X37.0976 Y86.1271
G01 X37.3437 Y86.3096
G01 X37.5708 Y86.5154
G01 X37.7765 Y86.7424
G01 X37.9591 Y86.9885
G01 X38.1166 Y87.2513
G01 X38.2476 Y87.5283
G01 X38.3508 Y87.8168
G01 X38.4253 Y88.1141
G01 X38.4702 Y88.4172
G01 X38.4864 Y88.7458
G01 X38.5067 Y96.8687
G01 X38.5076 Y96.9037
G01 X38.5068 Y96.9341
G01 X38.5070 Y96.9650
G01 X38.5507 Y97.9119
G01 X38.5524 Y97.9380
G01 X38.5543 Y97.9585
G01 X38.5583 Y97.9931
G01 X38.6875 Y98.9137
G01 X38.6916 Y98.9395
G01 X38.6988 Y98.9768
G01 X38.9168 Y99.8983
G01 X38.9232 Y99.9236
G01 X38.9288 Y99.9434
G01 X38.9392 Y99.9767
G01 X39.2364 Y100.8574
G01 X39.2483 Y100.8902
G01 X39.2559 Y100.9093
G01 X39.2661 Y100.9334
G01 X39.6438 Y101.7827
G01 X39.6587 Y101.8142
G01 X39.6679 Y101.8326
G01 X39.6803 Y101.8556
G01 X40.1353 Y102.6662
G01 X40.1530 Y102.6962
G01 X40.1639 Y102.7136
G01 X40.1784 Y102.7354
G01 X40.7117 Y103.5074
G01 X40.7343 Y103.5378
G01 X40.7561 Y103.5651
G01 X41.3530 Y104.2776
G01 X41.3799 Y104.3082
G01 X60.0574 Y124.6075
G01 X60.6359 Y125.3005
G01 X61.1328 Y126.0285
G01 X61.5571 Y126.8011
G01 X61.9043 Y127.6098
G01 X62.1849 Y128.4981
G01 X62.1941 Y128.5250
G01 X62.2006 Y128.5422
G01 X62.2120 Y128.5701
G01 X62.2207 Y128.5898
G01 X66.3829 Y137.2759
G01 X66.3993 Y137.3080
G01 X67.0823 Y138.9446
G01 X67.0967 Y138.9769
G01 X67.1137 Y139.0116
G01 X68.0014 Y140.6762
G01 X68.0187 Y140.7069
G01 X68.0293 Y140.7247
G01 X68.0435 Y140.7470
G01 X69.0785 Y142.3136
G01 X69.0986 Y142.3425
G01 X69.1109 Y142.3592
G01 X69.1271 Y142.3801
G01 X70.3044 Y143.8427
G01 X70.3213 Y143.8630
G01 X70.3350 Y143.8785
G01 X70.3590 Y143.9044
G01 X71.6683 Y145.2501
G01 X71.6870 Y145.2687
G01 X71.7021 Y145.2829
G01 X71.7284 Y145.3064
G01 X73.1582 Y146.5235
G01 X73.1855 Y146.5457
G01 X73.2019 Y146.5583
G01 X73.2233 Y146.5738
G01 X74.7609 Y147.6515
G01 X74.7902 Y147.6710
G01 X74.8077 Y147.6821
G01 X74.8304 Y147.6955
G01 X76.4623 Y148.6242
G01 X76.4933 Y148.6409
G01 X76.5118 Y148.6503
G01 X76.5357 Y148.6616
G01 X78.2474 Y149.4332
G01 X78.2717 Y149.4436
G01 X78.2909 Y149.4513
G01 X78.3240 Y149.4634
G01 X80.1005 Y150.0711
G01 X80.1268 Y150.0796
G01 X80.1475 Y150.0856
G01 X80.1652 Y150.0905
G01 X80.2009 Y150.0989
G01 X80.2312 Y150.1047
G01 X80.2674 Y150.1105
G01 X80.2856 Y150.1127
G01 X80.3163 Y150.1155
G01 X80.3529 Y150.1178
G01 X80.3713 Y150.1182
G01 X80.4021 Y150.1180
G01 X80.4296 Y150.1172
G01 X80.6427 Y150.1039
G01 X80.6853 Y150.0998
G01 X80.7090 Y150.0967
G01 X80.9031 Y150.0679
G01 X80.9303 Y150.0633
G01 X80.9606 Y150.0573
G01 X80.9875 Y150.0511
G01 X81.1778 Y150.0034
G01 X81.2133 Y149.9936
G01 X81.2340 Y149.9873
G01 X81.2602 Y149.9784
G01 X81.4535 Y149.9092
G01 X81.4907 Y149.8943
G01 X81.5244 Y149.8794
G01 X81.7100 Y149.7916
G01 X81.7456 Y149.7731
G01 X81.7697 Y149.7597
G01 X81.9537 Y149.6493
G01 X81.9873 Y149.6275
G01 X82.0174 Y149.6063
G01 X82.1824 Y149.4839
G01 X82.2137 Y149.4589
G01 X82.2415 Y149.4348
G01 X82.3937 Y149.2969
G01 X82.4136 Y149.2777
G01 X82.4415 Y149.2490
G01 X82.5795 Y149.0969
G01 X82.6035 Y149.0690
G01 X82.6286 Y149.0377
G01 X82.7510 Y148.8728
G01 X82.7670 Y148.8503
G01 X82.7842 Y148.8246
G01 X82.7988 Y148.8012
G01 X82.9043 Y148.6250
G01 X82.9237 Y148.5899
G01 X82.9402 Y148.5570
G01 X83.0280 Y148.3714
G01 X83.0438 Y148.3345
G01 X83.0570 Y148.3002
G01 X83.1262 Y148.1068
G01 X83.1383 Y148.0686
G01 X83.1458 Y148.0420
G01 X83.1958 Y147.8428
G01 X83.2038 Y147.8069
G01 X83.2111 Y147.7675
G01 X83.2413 Y147.5644
G01 X83.2449 Y147.5370
G01 X83.2486 Y147.4971
G01 X83.2594 Y147.2828
G01 X83.2602 Y147.2552
G01 X83.2603 Y147.2335
G01 X83.2594 Y147.1967
G01 X83.2567 Y147.1600
G01 X83.2534 Y147.1293
G01 X83.2480 Y147.0927
G01 X83.1945 Y127.7462
G01 X83.2007 Y127.6118
G01 X83.2160 Y127.5090
G01 X83.2414 Y127.4074
G01 X83.2767 Y127.3088
G01 X83.3215 Y127.2141
G01 X83.3754 Y127.1242
G01 X83.4378 Y127.0401
G01 X83.5081 Y126.9625
G01 X83.5858 Y126.8921
G01 X83.6699 Y126.8297
G01 X83.7598 Y126.7758
G01 X83.8545 Y126.7310
G01 X83.9531 Y126.6958
G01 X84.0547 Y126.6703
G01 X84.1583 Y126.6549
G01 X84.2402 Y126.6509
G01 X84.2630 Y126.6513
G01 X112.2639 Y126.6513
G01 X112.3093 Y126.6511
G01 X112.3369 Y126.6505
G01 X112.7290 Y126.6337
G01 X112.7584 Y126.6319
G01 X112.7911 Y126.6288
G01 X112.8203 Y126.6251
G01 X113.2087 Y126.5674
G01 X113.2449 Y126.5612
G01 X113.2662 Y126.5569
G01 X113.2931 Y126.5507
G01 X113.6739 Y126.4553
G01 X113.7094 Y126.4454
G01 X113.7301 Y126.4391
G01 X113.7563 Y126.4303
G01 X114.1259 Y126.2980
G01 X114.1517 Y126.2882
G01 X114.1718 Y126.2800
G01 X114.2054 Y126.2651
G01 X114.5603 Y126.0972
G01 X114.5932 Y126.0807
G01 X114.6123 Y126.0704
G01 X114.6362 Y126.0567
G01 X114.9730 Y125.8548
G01 X115.0041 Y125.8351
G01 X115.0221 Y125.8230
G01 X115.0445 Y125.8070
G01 X115.3599 Y125.5731
G01 X115.3817 Y125.5563
G01 X115.3985 Y125.5426
G01 X115.4264 Y125.5185
G01 X115.7173 Y125.2549
G01 X115.7439 Y125.2295
G01 X115.7592 Y125.2141
G01 X115.7781 Y125.1940
G01 X116.0418 Y124.9031
G01 X116.0658 Y124.8753
G01 X116.0795 Y124.8585
G01 X116.0964 Y124.8366
G01 X116.3303 Y124.5213
G01 X116.3463 Y124.4988
G01 X116.3584 Y124.4808
G01 X116.3781 Y124.4497
G01 X116.5799 Y124.1130
G01 X116.5981 Y124.0809
G01 X116.6082 Y124.0618
G01 X116.6205 Y124.0371
G01 X116.7883 Y123.6822
G01 X116.8033 Y123.6485
G01 X116.8115 Y123.6285
G01 X116.8213 Y123.6026
G01 X116.9535 Y123.2330
G01 X116.9624 Y123.2068
G01 X116.9713 Y123.1773
G01 X116.9785 Y123.1506
G01 X117.0739 Y122.7698
G01 X117.0820 Y122.7339
G01 X117.0862 Y122.7126
G01 X117.0907 Y122.6854
G01 X117.1483 Y122.2971
G01 X117.1528 Y122.2605
G01 X117.1549 Y122.2389
G01 X117.1567 Y122.2114
G01 X117.1760 Y121.8193
G01 X117.1771 Y121.7762
G01 X117.1771 Y29.7749
G01 X117.1760 Y29.7319
G01 X117.1567 Y29.3397
G01 X117.1540 Y29.3030
G01 X117.1519 Y29.2815
G01 X117.1483 Y29.2541
G01 X117.0907 Y28.8658
G01 X117.0844 Y28.8295
G01 X117.0801 Y28.8082
G01 X117.0739 Y28.7813
G01 X116.9785 Y28.4005
G01 X116.9687 Y28.3650
G01 X116.9566 Y28.3268
G01 X116.8213 Y27.9485
G01 X116.8080 Y27.9142
G01 X116.7997 Y27.8942
G01 X116.7883 Y27.8690
G01 X116.6205 Y27.5141
G01 X116.6039 Y27.4812
G01 X116.5846 Y27.4461
G01 X116.3733 Y27.0936
G01 X116.3515 Y27.0600
G01 X116.3303 Y27.0299
G01 X116.0964 Y26.7145
G01 X116.0795 Y26.6927
G01 X116.0658 Y26.6759
G01 X116.0418 Y26.6480
G01 X115.7781 Y26.3571
G01 X115.7528 Y26.3305
G01 X115.7241 Y26.3025
G01 X115.4264 Y26.0326
G01 X115.3985 Y26.0086
G01 X115.3817 Y25.9949
G01 X115.3599 Y25.9780
G01 X115.0445 Y25.7441
G01 X115.0221 Y25.7281
G01 X115.0041 Y25.7160
G01 X114.9730 Y25.6963
G01 X114.6283 Y25.4898
G01 X114.5932 Y25.4705
G01 X114.5603 Y25.4539
G01 X114.2054 Y25.2861
G01 X114.1718 Y25.2711
G01 X114.1517 Y25.2629
G01 X114.1259 Y25.2531
G01 X113.7563 Y25.1209
G01 X113.7213 Y25.1093
G01 X113.6828 Y25.0982
G01 X113.2931 Y25.0005
G01 X113.2572 Y24.9924
G01 X113.2359 Y24.9883
G01 X113.2087 Y24.9837
G01 X112.8203 Y24.9261
G01 X112.7929 Y24.9225
G01 X112.7622 Y24.9195
G01 X112.7347 Y24.9177
G01 X112.3425 Y24.8984
G01 X112.3057 Y24.8975
G01 X112.2749 Y24.8977
G01 X112.2565 Y24.8984
G01 X112.2198 Y24.9011
G01 X112.1891 Y24.9044
G01 X112.1708 Y24.9068
G01 X112.1526 Y24.9098
G01 X112.1245 Y24.9151
G01 X84.7316 Y24.9151
G01 X84.5720 Y24.9073
G01 X84.4354 Y24.8870
G01 X84.3013 Y24.8534
G01 X84.1713 Y24.8069
G01 X84.0464 Y24.7478
G01 X83.9278 Y24.6768
G01 X83.8169 Y24.5945
G01 X83.7145 Y24.5017
G01 X83.6217 Y24.3993
G01 X83.5394 Y24.2884
G01 X83.4684 Y24.1699
G01 X83.4093 Y24.0450
G01 X83.3628 Y23.9149
G01 X83.3292 Y23.7808
G01 X83.3097 Y23.6491
G01 X83.3025 Y23.4613
G01 X83.3010 Y4.1092
G01 X83.3006 Y4.0908
G01 X83.2990 Y4.0597
G01 X83.2880 Y3.8813
G01 X83.2851 Y3.8490
G01 X83.2816 Y3.8194
G01 X83.2559 Y3.6360
G01 X83.2519 Y3.6102
G01 X83.2465 Y3.5816
G01 X83.2409 Y3.5561
G01 X83.1984 Y3.3758
G01 X83.1920 Y3.3506
G01 X83.1840 Y3.3225
G01 X83.1761 Y3.2977
G01 X83.1142 Y3.1139
G01 X83.1009 Y3.0785
G01 X83.0911 Y3.0543
G01 X83.0126 Y2.8770
G01 X82.9978 Y2.8456
G01 X82.9886 Y2.8273
G01 X82.9762 Y2.8043
G01 X82.8816 Y2.6351
G01 X82.8620 Y2.6027
G01 X82.8430 Y2.5737
G01 X82.7330 Y2.4139
G01 X82.7229 Y2.3998
G01 X82.7052 Y2.3766
G01 X82.6889 Y2.3563
G01 X82.5703 Y2.2141
G01 X82.5474 Y2.1879
G01 X82.5335 Y2.1728
G01 X82.5154 Y2.1541
G01 X82.3779 Y2.0174
G01 X82.3502 Y1.9916
G01 X82.3305 Y1.9745
G01 X82.1811 Y1.8509
G01 X82.1607 Y1.8347
G01 X82.1443 Y1.8224
G01 X82.1161 Y1.8022
G01 X81.9557 Y1.6931
G01 X81.9237 Y1.6729
G01 X81.8937 Y1.6554
G01 X81.7240 Y1.5616
G01 X81.7008 Y1.5497
G01 X81.6667 Y1.5333
G01 X81.4890 Y1.4556
G01 X81.4650 Y1.4456
G01 X81.4459 Y1.4382
G01 X81.4131 Y1.4265
G01 X81.2290 Y1.3657
G01 X81.1927 Y1.3550
G01 X81.1590 Y1.3464
G01 X80.9786 Y1.3048
G01 X80.9445 Y1.2978
G01 X80.9244 Y1.2941
G01 X80.8986 Y1.2902
G01 X80.7150 Y1.2654
G01 X80.6948 Y1.2630
G01 X80.6664 Y1.2585
G01 X80.6174 Y1.2530
G01 X80.5807 Y1.2507
G01 X80.5498 Y1.2501
G01 X80.5130 Y1.2505
G01 X80.4763 Y1.2527
G01 X80.4455 Y1.2556
G01 X80.4273 Y1.2578
G01 X80.3909 Y1.2636
G01 X80.3606 Y1.2695
G01 X80.3248 Y1.2779
G01 X80.2950 Y1.2863
G01 X80.2687 Y1.2944
G01 X78.4839 Y1.9064
G01 X78.4511 Y1.9185
G01 X78.4159 Y1.9329
G01 X76.6963 Y2.7080
G01 X76.6725 Y2.7192
G01 X76.6539 Y2.7286
G01 X76.6229 Y2.7453
G01 X74.9836 Y3.6783
G01 X74.9509 Y3.6984
G01 X74.9216 Y3.7180
G01 X73.3842 Y4.7955
G01 X73.3628 Y4.8111
G01 X73.3464 Y4.8237
G01 X73.3190 Y4.8459
G01 X71.8894 Y6.0629
G01 X71.8696 Y6.0804
G01 X71.8544 Y6.0945
G01 X71.8293 Y6.1192
G01 X70.5201 Y7.4649
G01 X70.4961 Y7.4907
G01 X70.4824 Y7.5062
G01 X70.4655 Y7.5265
G01 X69.2882 Y8.9890
G01 X69.2668 Y9.0170
G01 X69.2546 Y9.0337
G01 X69.2397 Y9.0555
G01 X68.1952 Y10.6368
G01 X68.1755 Y10.6697
G01 X68.1626 Y10.6927
G01 X67.2791 Y12.3494
G01 X67.2633 Y12.3808
G01 X67.2545 Y12.3996
G01 X67.2439 Y12.4238
G01 X66.5654 Y14.0465
G01 X66.5538 Y14.0680
G01 X66.5416 Y14.0928
G01 X62.3467 Y22.9301
G01 X62.3356 Y22.9554
G01 X62.3239 Y22.9840
G01 X62.3115 Y23.0187
G01 X62.2989 Y23.0598
G01 X62.2895 Y23.0872
G01 X62.0088 Y23.9671
G01 X61.6612 Y24.7768
G01 X61.2372 Y25.5492
G01 X60.7408 Y26.2766
G01 X60.1619 Y26.9687
G01 X41.4803 Y47.2752
G01 X41.4597 Y47.2990
G01 X40.8628 Y48.0116
G01 X40.8463 Y48.0319
G01 X40.8339 Y48.0482
G01 X40.8134 Y48.0764
G01 X40.2852 Y48.8412
G01 X40.2707 Y48.8630
G01 X40.2552 Y48.8878
G01 X40.2420 Y48.9104
G01 X39.7871 Y49.7210
G01 X39.7747 Y49.7440
G01 X39.7654 Y49.7623
G01 X39.7505 Y49.7939
G01 X39.3728 Y50.6432
G01 X39.3594 Y50.6754
G01 X39.3520 Y50.6945
G01 X39.3432 Y50.7191
G01 X39.0460 Y51.5999
G01 X39.0380 Y51.6248
G01 X39.0323 Y51.6445
G01 X39.0235 Y51.6783
G01 X38.8094 Y52.5828
G01 X38.8038 Y52.6083
G01 X38.7999 Y52.6285
G01 X38.7943 Y52.6629
G01 X38.6628 Y53.6007
G01 X38.6592 Y53.6385
G01 X38.6575 Y53.6646
G01 X38.6143 Y54.5931
G01 X38.6133 Y54.6339
G01 X38.6133 Y62.7569
G01 X38.5991 Y63.0652
G01 X38.5592 Y63.3509
G01 X38.4932 Y63.6316
G01 X38.4015 Y63.9051
G01 X38.2850 Y64.1689
G01 X38.1447 Y64.4209
G01 X37.9817 Y64.6588
G01 X37.7975 Y64.8807
G01 X37.5935 Y65.0847
G01 X37.3716 Y65.2689
G01 X37.1337 Y65.4319
G01 X36.8817 Y65.5723
G01 X36.6179 Y65.6888
G01 X36.3444 Y65.7804
G01 X36.0637 Y65.8465
G01 X35.7780 Y65.8863
G01 X35.4420 Y65.9019
G01 X22.7504 Y65.9031
G01 X22.2728 Y65.8796
G01 X21.8210 Y65.8126
G01 X21.3780 Y65.7016
G01 X20.9479 Y65.5478
G01 X20.5351 Y65.3525
G01 X20.1433 Y65.1177
G01 X19.7765 Y64.8456
G01 X19.4381 Y64.5389
G01 X19.1314 Y64.2005
G01 X18.8593 Y63.8337
G01 X18.6245 Y63.4419
G01 X18.4292 Y63.0290
G01 X18.2753 Y62.5990
G01 X18.1644 Y62.1560
G01 X18.0974 Y61.7042
G01 X18.0756 Y61.2608
G01 X18.0764 Y61.2252
G01 X18.0764 Y45.7236
G01 X18.0757 Y45.6866
G01 X18.0638 Y45.4054
G01 X18.0613 Y45.3681
G01 X18.0592 Y45.3462
G01 X18.0558 Y45.3184
G01 X18.0160 Y45.0397
G01 X18.0118 Y45.0135
G01 X18.0062 Y44.9843
G01 X18.0004 Y44.9583
G01 X17.9345 Y44.6846
G01 X17.9254 Y44.6504
G01 X17.9141 Y44.6134
G01 X17.8198 Y44.3388
G01 X17.8075 Y44.3056
G01 X17.7997 Y44.2862
G01 X17.7892 Y44.2618
G01 X17.6730 Y44.0054
G01 X17.6576 Y43.9734
G01 X17.6396 Y43.9393
G01 X17.4954 Y43.6873
G01 X17.4770 Y43.6569
G01 X17.4658 Y43.6394
G01 X17.4508 Y43.6174
G01 X17.2833 Y43.3802
G01 X17.2600 Y43.3494
G01 X17.2376 Y43.3220
G01 X17.0542 Y43.1084
G01 X17.0366 Y43.0885
G01 X17.0223 Y43.0733
G01 X16.9974 Y43.0481
G01 X16.7947 Y42.8527
G01 X16.7686 Y42.8287
G01 X16.7393 Y42.8036
G01 X16.5122 Y42.6227
G01 X16.4911 Y42.6065
G01 X16.4742 Y42.5942
G01 X16.4449 Y42.5741
G01 X16.2017 Y42.4155
G01 X16.1687 Y42.3956
G01 X16.1377 Y42.3784
G01 X15.8884 Y42.2475
G01 X15.8647 Y42.2356
G01 X15.8458 Y42.2267
G01 X15.8133 Y42.2125
G01 X15.5363 Y42.0992
G01 X15.5084 Y42.0891
G01 X15.4832 Y42.0806
G01 X15.2053 Y41.9963
G01 X15.1712 Y41.9869
G01 X15.1336 Y41.9779
G01 X14.8490 Y41.9202
G01 X14.8141 Y41.9140
G01 X14.7935 Y41.9109
G01 X14.7671 Y41.9076
G01 X14.4872 Y41.8780
G01 X14.4518 Y41.8751
G01 X14.4133 Y41.8734
G01 X14.1229 Y41.8702
G01 X14.0875 Y41.8707
G01 X14.0666 Y41.8715
G01 X14.0401 Y41.8732
G01 X13.7596 Y41.8968
G01 X13.7243 Y41.9006
G01 X13.6861 Y41.9061
G01 X13.4003 Y41.9576
G01 X13.3656 Y41.9647
G01 X13.3453 Y41.9695
G01 X13.3195 Y41.9762
G01 X13.0485 Y42.0521
G01 X13.0146 Y42.0624
G01 X12.9781 Y42.0750
G01 X12.7071 Y42.1793
G01 X12.6824 Y42.1893
G01 X12.6633 Y42.1977
G01 X12.6312 Y42.2127
G01 X12.3713 Y42.3422
G01 X12.3374 Y42.3606
G01 X12.3069 Y42.3786
G01 X12.0678 Y42.5274
G01 X12.0455 Y42.5418
G01 X12.0283 Y42.5536
G01 X11.9996 Y42.5744
G01 X11.7612 Y42.7564
G01 X11.7301 Y42.7823
G01 X11.7099 Y42.8005
G01 X11.6918 Y42.8180
G01 X11.6682 Y42.8420
G01 X3.7062 Y51.3144
G01 X3.6869 Y51.3291
G01 X3.6726 Y51.3408
G01 X3.6560 Y51.3547
G01 X3.6354 Y51.3731
G01 X3.2414 Y51.7366
G01 X3.2149 Y51.7623
G01 X3.1997 Y51.7778
G01 X3.1809 Y51.7982
G01 X2.8245 Y52.1987
G01 X2.8067 Y52.2194
G01 X2.7933 Y52.2360
G01 X2.7711 Y52.2649
G01 X2.4552 Y52.6980
G01 X2.4345 Y52.7279
G01 X2.4228 Y52.7458
G01 X2.4085 Y52.7691
G01 X2.1360 Y53.2307
G01 X2.1183 Y53.2625
G01 X2.1003 Y53.2977
G01 X1.8699 Y53.7919
G01 X1.8588 Y53.8168
G01 X1.8507 Y53.8366
G01 X1.8377 Y53.8705
G01 X1.6593 Y54.3761
G01 X1.6507 Y54.4020
G01 X1.6445 Y54.4224
G01 X1.6349 Y54.4575
G01 X1.5062 Y54.9780
G01 X1.5002 Y55.0045
G01 X1.4960 Y55.0255
G01 X1.4899 Y55.0614
G01 X1.4122 Y55.5918
G01 X1.4078 Y55.6279
G01 X1.4058 Y55.6492
G01 X1.4039 Y55.6764
G01 X1.3776 Y56.2211
G01 X1.3769 Y56.2544
G01 X1.3769 Y95.2434
G00 X1.3769 Y95.2434
G01 F250.00
G01 Z-0.3000
G01 F2500.00
G01 X1.3779 Y95.2841
G01 X1.4028 Y95.8199
G01 X1.4054 Y95.8569
G01 X1.4076 Y95.8787
G01 X1.4111 Y95.9063
G01 X1.4889 Y96.4371
G01 X1.4933 Y96.4640
G01 X1.4974 Y96.4850
G01 X1.5053 Y96.5205
G01 X1.6363 Y97.0500
G01 X1.6471 Y97.0881
G01 X1.6584 Y97.1227
G01 X1.8370 Y97.6285
G01 X1.8466 Y97.6540
G01 X1.8546 Y97.6738
G01 X1.8692 Y97.7072
G01 X2.0959 Y98.1933
G01 X2.1079 Y98.2178
G01 X2.1178 Y98.2368
G01 X2.1355 Y98.2685
G01 X2.4083 Y98.7304
G01 X2.4275 Y98.7613
G01 X2.4393 Y98.7791
G01 X2.4550 Y98.8014
G01 X2.7821 Y99.2493
G01 X2.8068 Y99.2802
G01 X2.8246 Y99.3009
G01 X3.1812 Y99.7016
G01 X3.1997 Y99.7216
G01 X3.2147 Y99.7369
G01 X3.2408 Y99.7623
G01 X3.6346 Y100.1265
G01 X3.6541 Y100.1440
G01 X3.6699 Y100.1573
G01 X3.6992 Y100.1807
G01 X11.6810 Y108.7044
G01 X11.7094 Y108.7327
G01 X11.7365 Y108.7576
G01 X11.7648 Y108.7812
G01 X11.7891 Y108.8002
G01 X11.8190 Y108.8217
G01 X11.8344 Y108.8319
G01 X11.8604 Y108.8484
G01 X11.8768 Y108.8581
G01 X11.9971 Y108.9482
G01 X12.0184 Y108.9634
G01 X12.0354 Y108.9750
G01 X12.0574 Y108.9893
G01 X12.2982 Y109.1389
G01 X12.3287 Y109.1569
G01 X12.3626 Y109.1753
G01 X12.6243 Y109.3055
G01 X12.6564 Y109.3205
G01 X12.6756 Y109.3289
G01 X12.7002 Y109.3389
G01 X12.9648 Y109.4406
G01 X12.9982 Y109.4525
G01 X13.0349 Y109.4642
G01 X13.3165 Y109.5429
G01 X13.3422 Y109.5496
G01 X13.3712 Y109.5563
G01 X13.3972 Y109.5614
G01 X13.6762 Y109.6116
G01 X13.7025 Y109.6158
G01 X13.7231 Y109.6186
G01 X13.7584 Y109.6224
G01 X14.0497 Y109.6467
G01 X14.0882 Y109.6486
G01 X14.1237 Y109.6490
G01 X14.4071 Y109.6459
G01 X14.4425 Y109.6447
G01 X14.4634 Y109.6434
G01 X14.4899 Y109.6411
G01 X14.7717 Y109.6112
G01 X14.8069 Y109.6066
G01 X14.8449 Y109.6003
G01 X15.1314 Y109.5422
G01 X15.1574 Y109.5365
G01 X15.1776 Y109.5314
G01 X15.2118 Y109.5219
G01 X15.4830 Y109.4396
G01 X15.5167 Y109.4285
G01 X15.5363 Y109.4215
G01 X15.5611 Y109.4118
G01 X15.8234 Y109.3042
G01 X15.8558 Y109.2900
G01 X15.8906 Y109.2733
G01 X16.1494 Y109.1374
G01 X16.1727 Y109.1246
G01 X16.1907 Y109.1141
G01 X16.2209 Y109.0954
G01 X16.4582 Y108.9405
G01 X16.4875 Y108.9204
G01 X16.5043 Y108.9082
G01 X16.5254 Y108.8920
G01 X16.7471 Y108.7153
G01 X16.7743 Y108.6926
G01 X16.8030 Y108.6668
G01 X17.0134 Y108.4639
G01 X17.0322 Y108.4451
G01 X17.0466 Y108.4300
G01 X17.0703 Y108.4036
G01 X17.2549 Y108.1885
G01 X17.2773 Y108.1610
G01 X17.2901 Y108.1445
G01 X17.3058 Y108.1231
G01 X17.4692 Y107.8915
G01 X17.4889 Y107.8620
G01 X17.5093 Y107.8292
G01 X17.6545 Y107.5756
G01 X17.6673 Y107.5523
G01 X17.6769 Y107.5337
G01 X17.6923 Y107.5018
G01 X17.8092 Y107.2436
G01 X17.8231 Y107.2110
G01 X17.8307 Y107.1915
G01 X17.8398 Y107.1666
G01 X17.9319 Y106.8985
G01 X17.9426 Y106.8647
G01 X17.9530 Y106.8275
G01 X18.0215 Y106.5433
G01 X18.0272 Y106.5174
G01 X18.0312 Y106.4969
G01 X18.0370 Y106.4619
G01 X18.0771 Y106.1813
G01 X18.0804 Y106.1549
G01 X18.0824 Y106.1342
G01 X18.0849 Y106.0988
G01 X18.0983 Y105.8157
G01 X18.0993 Y105.7742
G01 X18.0993 Y90.2752
G01 X18.0985 Y90.2404
G01 X18.1177 Y89.8495
G01 X18.1847 Y89.3977
G01 X18.2957 Y88.9547
G01 X18.4495 Y88.5246
G01 X18.6448 Y88.1118
G01 X18.8796 Y87.7200
G01 X19.1517 Y87.3532
G01 X19.4584 Y87.0148
G01 X19.7968 Y86.7081
G01 X20.1636 Y86.4360
G01 X20.5554 Y86.2012
G01 X20.9683 Y86.0059
G01 X21.3983 Y85.8520
G01 X21.8413 Y85.7411
G01 X22.2931 Y85.6741
G01 X22.6890 Y85.6546
G01 X22.7139 Y85.6555
G01 X22.7323 Y85.6557
G01 X35.3663 Y85.6074
G01 X35.3939 Y85.6068
G01 X35.4350 Y85.6044
G01 X35.6690 Y85.6159
G01 X35.9720 Y85.6608
G01 X36.2693 Y85.7353
G01 X36.5578 Y85.8385
G01 X36.8348 Y85.9695
G01 X37.0976 Y86.1271
G01 X37.3437 Y86.3096
G01 X37.5708 Y86.5154
G01 X37.7765 Y86.7424
G01 X37.9591 Y86.9885
G01 X38.1166 Y87.2513
G01 X38.2476 Y87.5283
G01 X38.3508 Y87.8168
G01 X38.4253 Y88.1141
G01 X38.4702 Y88.4172
G01 X38.4864 Y88.7458
G01 X38.5067 Y96.8687
G01 X38.5076 Y96.9037
G01 X38.5068 Y96.9341
G01 X38.5070 Y96.9650
G01 X38.5507 Y97.9119
G01 X38.5524 Y97.9380
G01 X38.5543 Y97.9585
G01 X38.5583 Y97.9931
G01 X38.6875 Y98.9137
G01 X38.6916 Y98.9395
G01 X38.6988 Y98.9768
G01 X38.9168 Y99.8983
G01 X38.9232 Y99.9236
G01 X38.9288 Y99.9434
G01 X38.9392 Y99.9767
G01 X39.2364 Y100.8574
G01 X39.2483 Y100.8902
G01 X39.2559 Y100.9093
G01 X39.2661 Y100.9334
G01 X39.6438 Y101.7827
G01 X39.6587 Y101.8142
G01 X39.6679 Y101.8326
G01 X39.6803 Y101.8556
G01 X40.1353 Y102.6662
G01 X40.1530 Y102.6962
G01 X40.1639 Y102.7136
G01 X40.1784 Y102.7354
G01 X40.7117 Y103.5074
G01 X40.7343 Y103.5378
G01 X40.7561 Y103.5651
G01 X41.3530 Y104.2776
G01 X41.3799 Y104.3082
G01 X60.0574 Y124.6075
G01 X60.6359 Y125.3005
G01 X61.1328 Y126.0285
G01 X61.5571 Y126.8011
G01 X61.9043 Y127.6098
G01 X62.1849 Y128.4981
G01 X62.1941 Y128.5250
G01 X62.2006 Y128.5422
G01 X62.2120 Y128.5701
G01 X62.2207 Y128.5898
G01 X66.3829 Y137.2759
G01 X66.3993 Y137.3080
G01 X67.0823 Y138.9446
G01 X67.0967 Y138.9769
G01 X67.1137 Y139.0116
G01 X68.0014 Y140.6762
G01 X68.0187 Y140.7069
G01 X68.0293 Y140.7247
G01 X68.0435 Y140.7470
G01 X69.0785 Y142.3136
G01 X69.0986 Y142.3425
G01 X69.1109 Y142.3592
G01 X69.1271 Y142.3801
G01 X70.3044 Y143.8427
G01 X70.3213 Y143.8630
G01 X70.3350 Y143.8785
G01 X70.3590 Y143.9044
G01 X71.6683 Y145.2501
G01 X71.6870 Y145.2687
G01 X71.7021 Y145.2829
G01 X71.7284 Y145.3064
G01 X73.1582 Y146.5235
G01 X73.1855 Y146.5457
G01 X73.2019 Y146.5583
G01 X73.2233 Y146.5738
G01 X74.7609 Y147.6515
G01 X74.7902 Y147.6710
G01 X74.8077 Y147.6821
G01 X74.8304 Y147.6955
G01 X76.4623 Y148.6242
G01 X76.4933 Y148.6409
G01 X76.5118 Y148.6503
G01 X76.5357 Y148.6616
G01 X78.2474 Y149.4332
G01 X78.2717 Y149.4436
G01 X78.2909 Y149.4513
G01 X78.3240 Y149.4634
G01 X80.1005 Y150.0711
G01 X80.1268 Y150.0796
G01 X80.1475 Y150.0856
G01 X80.1652 Y150.0905
G01 X80.2009 Y150.0989
G01 X80.2312 Y150.1047
G01 X80.2674 Y150.1105
G01 X80.2856 Y150.1127
G01 X80.3163 Y150.1155
G01 X80.3529 Y150.1178
G01 X80.3713 Y150.1182
G01 X80.4021 Y150.1180
G01 X80.4296 Y150.1172
G01 X80.6427 Y150.1039
G01 X80.6853 Y150.0998
G01 X80.7090 Y150.0967
G01 X80.9031 Y150.0679
G01 X80.9303 Y150.0633
G01 X80.9606 Y150.0573
G01 X80.9875 Y150.0511
G01 X81.1778 Y150.0034
G01 X81.2133 Y149.9936
G01 X81.2340 Y149.9873
G01 X81.2602 Y149.9784
G01 X81.4535 Y149.9092
G01 X81.4907 Y149.8943
G01 X81.5244 Y149.8794
G01 X81.7100 Y149.7916
G01 X81.7456 Y149.7731
G01 X81.7697 Y149.7597
G01 X81.9537 Y149.6493
G01 X81.9873 Y149.6275
G01 X82.0174 Y149.6063
G01 X82.1824 Y149.4839
G01 X82.2137 Y149.4589
G01 X82.2415 Y149.4348
G01 X82.3937 Y149.2969
G01 X82.4136 Y149.2777
G01 X82.4415 Y149.2490
G01 X82.5795 Y149.0969
G01 X82.6035 Y149.0690
G01 X82.6286 Y149.0377
G01 X82.7510 Y148.8728
G01 X82.7670 Y148.8503
G01 X82.7842 Y148.8246
G01 X82.7988 Y148.8012
G01 X82.9043 Y148.6250
G01 X82.9237 Y148.5899
G01 X82.9402 Y148.5570
G01 X83.0280 Y148.3714
G01 X83.0438 Y148.3345
G01 X83.0570 Y148.3002
G01 X83.1262 Y148.1068
G01 X83.1383 Y148.0686
G01 X83.1458 Y148.0420
G01 X83.1958 Y147.8428
G01 X83.2038 Y147.8069
G01 X83.2111 Y147.7675
G01 X83.2413 Y147.5644
G01 X83.2449 Y147.5370
G01 X83.2486 Y147.4971
G01 X83.2594 Y147.2828
G01 X83.2602 Y147.2552
G01 X83.2603 Y147.2335
G01 X83.2594 Y147.1967
G01 X83.2567 Y147.1600
G01 X83.2534 Y147.1293
G01 X83.2480 Y147.0927
G01 X83.1945 Y127.7462
G01 X83.2007 Y127.6118
G01 X83.2160 Y127.5090
G01 X83.2414 Y127.4074
G01 X83.2767 Y127.3088
G01 X83.3215 Y127.2141
G01 X83.3754 Y127.1242
G01 X83.4378 Y127.0401
G01 X83.5081 Y126.9625
G01 X83.5858 Y126.8921
G01 X83.6699 Y126.8297
G01 X83.7598 Y126.7758
G01 X83.8545 Y126.7310
G01 X83.9531 Y126.6958
G01 X84.0547 Y126.6703
G01 X84.1583 Y126.6549
G01 X84.2402 Y126.6509
G01 X84.2630 Y126.6513
G01 X112.2639 Y126.6513
G01 X112.3093 Y126.6511
G01 X112.3369 Y126.6505
G01 X112.7290 Y126.6337
G01 X112.7584 Y126.6319
G01 X112.7911 Y126.6288
G01 X112.8203 Y126.6251
G01 X113.2087 Y126.5674
G01 X113.2449 Y126.5612
G01 X113.2662 Y126.5569
G01 X113.2931 Y126.5507
G01 X113.6739 Y126.4553
G01 X113.7094 Y126.4454
G01 X113.7301 Y126.4391
G01 X113.7563 Y126.4303
G01 X114.1259 Y126.2980
G01 X114.1517 Y126.2882
G01 X114.1718 Y126.2800
G01 X114.2054 Y126.2651
G01 X114.5603 Y126.0972
G01 X114.5932 Y126.0807
G01 X114.6123 Y126.0704
G01 X114.6362 Y126.0567
G01 X114.9730 Y125.8548
G01 X115.0041 Y125.8351
G01 X115.0221 Y125.8230
G01 X115.0445 Y125.8070
G01 X115.3599 Y125.5731
G01 X115.3817 Y125.5563
G01 X115.3985 Y125.5426
G01 X115.4264 Y125.5185
G01 X115.7173 Y125.2549
G01 X115.7439 Y125.2295
G01 X115.7592 Y125.2141
G01 X115.7781 Y125.1940
G01 X116.0418 Y124.9031
G01 X116.0658 Y124.8753
G01 X116.0795 Y124.8585
G01 X116.0964 Y124.8366
G01 X116.3303 Y124.5213
G01 X116.3463 Y124.4988
G01 X116.3584 Y124.4808
G01 X116.3781 Y124.4497
G01 X116.5799 Y124.1130
G01 X116.5981 Y124.0809
G01 X116.6082 Y124.0618
G01 X116.6205 Y124.0371
G01 X116.7883 Y123.6822
G01 X116.8033 Y123.6485
G01 X116.8115 Y123.6285
G01 X116.8213 Y123.6026
G01 X116.9535 Y123.2330
G01 X116.9624 Y123.2068
G01 X116.9713 Y123.1773
G01 X116.9785 Y123.1506
G01 X117.0739 Y122.7698
G01 X117.0820 Y122.7339
G01 X117.0862 Y122.7126
G01 X117.0907 Y122.6854
G01 X117.1483 Y122.2971
G01 X117.1528 Y122.2605
G01 X117.1549 Y122.2389
G01 X117.1567 Y122.2114
G01 X117.1760 Y121.8193
G01 X117.1771 Y121.7762
G01 X117.1771 Y29.7749
G01 X117.1760 Y29.7319
G01 X117.1567 Y29.3397
G01 X117.1540 Y29.3030
G01 X117.1519 Y29.2815
G01 X117.1483 Y29.2541
G01 X117.0907 Y28.8658
G01 X117.0844 Y28.8295
G01 X117.0801 Y28.8082
G01 X117.0739 Y28.7813
G01 X116.9785 Y28.4005
G01 X116.9687 Y28.3650
G01 X116.9566 Y28.3268
G01 X116.8213 Y27.9485
G01 X116.8080 Y27.9142
G01 X116.7997 Y27.8942
G01 X116.7883 Y27.8690
G01 X116.6205 Y27.5141
G01 X116.6039 Y27.4812
G01 X116.5846 Y27.4461
G01 X116.3733 Y27.0936
G01 X116.3515 Y27.0600
G01 X116.3303 Y27.0299
G01 X116.0964 Y26.7145
G01 X116.0795 Y26.6927
G01 X116.0658 Y26.6759
G01 X116.0418 Y26.6480
G01 X115.7781 Y26.3571
G01 X115.7528 Y26.3305
G01 X115.7241 Y26.3025
G01 X115.4264 Y26.0326
G01 X115.3985 Y26.0086
G01 X115.3817 Y25.9949
G01 X115.3599 Y25.9780
G01 X115.0445 Y25.7441
G01 X115.0221 Y25.7281
G01 X115.0041 Y25.7160
G01 X114.9730 Y25.6963
G01 X114.6283 Y25.4898
G01 X114.5932 Y25.4705
G01 X114.5603 Y25.4539
G01 X114.2054 Y25.2861
G01 X114.1718 Y25.2711
G01 X114.1517 Y25.2629
G01 X114.1259 Y25.2531
G01 X113.7563 Y25.1209
G01 X113.7213 Y25.1093
G01 X113.6828 Y25.0982
G01 X113.2931 Y25.0005
G01 X113.2572 Y24.9924
G01 X113.2359 Y24.9883
G01 X113.2087 Y24.9837
G01 X112.8203 Y24.9261
G01 X112.7929 Y24.9225
G01 X112.7622 Y24.9195
G01 X112.7347 Y24.9177
G01 X112.3425 Y24.8984
G01 X112.3057 Y24.8975
G01 X112.2749 Y24.8977
G01 X112.2565 Y24.8984
G01 X112.2198 Y24.9011
G01 X112.1891 Y24.9044
G01 X112.1708 Y24.9068
G01 X112.1526 Y24.9098
G01 X112.1245 Y24.9151
G01 X84.7316 Y24.9151
G01 X84.5720 Y24.9073
G01 X84.4354 Y24.8870
G01 X84.3013 Y24.8534
G01 X84.1713 Y24.8069
G01 X84.0464 Y24.7478
G01 X83.9278 Y24.6768
G01 X83.8169 Y24.5945
G01 X83.7145 Y24.5017
G01 X83.6217 Y24.3993
G01 X83.5394 Y24.2884
G01 X83.4684 Y24.1699
G01 X83.4093 Y24.0450
G01 X83.3628 Y23.9149
G01 X83.3292 Y23.7808
G01 X83.3097 Y23.6491
G01 X83.3025 Y23.4613
G01 X83.3010 Y4.1092
G01 X83.3006 Y4.0908
G01 X83.2990 Y4.0597
G01 X83.2880 Y3.8813
G01 X83.2851 Y3.8490
G01 X83.2816 Y3.8194
G01 X83.2559 Y3.6360
G01 X83.2519 Y3.6102
G01 X83.2465 Y3.5816
G01 X83.2409 Y3.5561
G01 X83.1984 Y3.3758
G01 X83.1920 Y3.3506
G01 X83.1840 Y3.3225
G01 X83.1761 Y3.2977
G01 X83.1142 Y3.1139
G01 X83.1009 Y3.0785
G01 X83.0911 Y3.0543
G01 X83.0126 Y2.8770
G01 X82.9978 Y2.8456
G01 X82.9886 Y2.8273
G01 X82.9762 Y2.8043
G01 X82.8816 Y2.6351
G01 X82.8620 Y2.6027
G01 X82.8430 Y2.5737
G01 X82.7330 Y2.4139
G01 X82.7229 Y2.3998
G01 X82.7052 Y2.3766
G01 X82.6889 Y2.3563
G01 X82.5703 Y2.2141
G01 X82.5474 Y2.1879
G01 X82.5335 Y2.1728
G01 X82.5154 Y2.1541
G01 X82.3779 Y2.0174
G01 X82.3502 Y1.9916
G01 X82.3305 Y1.9745
G01 X82.1811 Y1.8509
G01 X82.1607 Y1.8347
G01 X82.1443 Y1.8224
G01 X82.1161 Y1.8022
G01 X81.9557 Y1.6931
G01 X81.9237 Y1.6729
G01 X81.8937 Y1.6554
G01 X81.7240 Y1.5616
G01 X81.7008 Y1.5497
G01 X81.6667 Y1.5333
G01 X81.4890 Y1.4556
G01 X81.4650 Y1.4456
G01 X81.4459 Y1.4382
G01 X81.4131 Y1.4265
G01 X81.2290 Y1.3657
G01 X81.1927 Y1.3550
G01 X81.1590 Y1.3464
G01 X80.9786 Y1.3048
G01 X80.9445 Y1.2978
G01 X80.9244 Y1.2941
G01 X80.8986 Y1.2902
G01 X80.7150 Y1.2654
G01 X80.6948 Y1.2630
G01 X80.6664 Y1.2585
G01 X80.6174 Y1.2530
G01 X80.5807 Y1.2507
G01 X80.5498 Y1.2501
G01 X80.5130 Y1.2505
G01 X80.4763 Y1.2527
G01 X80.4455 Y1.2556
G01 X80.4273 Y1.2578
G01 X80.3909 Y1.2636
G01 X80.3606 Y1.2695
G01 X80.3248 Y1.2779
G01 X80.2950 Y1.2863
G01 X80.2687 Y1.2944
G01 X78.4839 Y1.9064
G01 X78.4511 Y1.9185
G01 X78.4159 Y1.9329
G01 X76.6963 Y2.7080
G01 X76.6725 Y2.7192
G01 X76.6539 Y2.7286
G01 X76.6229 Y2.7453
G01 X74.9836 Y3.6783
G01 X74.9509 Y3.6984
G01 X74.9216 Y3.7180
G01 X73.3842 Y4.7955
G01 X73.3628 Y4.8111
G01 X73.3464 Y4.8237
G01 X73.3190 Y4.8459
G01 X71.8894 Y6.0629
G01 X71.8696 Y6.0804
G01 X71.8544 Y6.0945
G01 X71.8293 Y6.1192
G01 X70.5201 Y7.4649
G01 X70.4961 Y7.4907
G01 X70.4824 Y7.5062
G01 X70.4655 Y7.5265
G01 X69.2882 Y8.9890
G01 X69.2668 Y9.0170
G01 X69.2546 Y9.0337
G01 X69.2397 Y9.0555
G01 X68.1952 Y10.6368
G01 X68.1755 Y10.6697
G01 X68.1626 Y10.6927
G01 X67.2791 Y12.3494
G01 X67.2633 Y12.3808
G01 X67.2545 Y12.3996
G01 X67.2439 Y12.4238
G01 X66.5654 Y14.0465
G01 X66.5538 Y14.0680
G01 X66.5416 Y14.0928
G01 X62.3467 Y22.9301
G01 X62.3356 Y22.9554
G01 X62.3239 Y22.9840
G01 X62.3115 Y23.0187
G01 X62.2989 Y23.0598
G01 X62.2895 Y23.0872
G01 X62.0088 Y23.9671
G01 X61.6612 Y24.7768
G01 X61.2372 Y25.5492
G01 X60.7408 Y26.2766
G01 X60.1619 Y26.9687
G01 X41.4803 Y47.2752
G01 X41.4597 Y47.2990
G01 X40.8628 Y48.0116
G01 X40.8463 Y48.0319
G01 X40.8339 Y48.0482
G01 X40.8134 Y48.0764
G01 X40.2852 Y48.8412
G01 X40.2707 Y48.8630
G01 X40.2552 Y48.8878
G01 X40.2420 Y48.9104
G01 X39.7871 Y49.7210
G01 X39.7747 Y49.7440
G01 X39.7654 Y49.7623
G01 X39.7505 Y49.7939
G01 X39.3728 Y50.6432
G01 X39.3594 Y50.6754
G01 X39.3520 Y50.6945
G01 X39.3432 Y50.7191
G01 X39.0460 Y51.5999
G01 X39.0380 Y51.6248
G01 X39.0323 Y51.6445
G01 X39.0235 Y51.6783
G01 X38.8094 Y52.5828
G01 X38.8038 Y52.6083
G01 X38.7999 Y52.6285
G01 X38.7943 Y52.6629
G01 X38.6628 Y53.6007
G01 X38.6592 Y53.6385
G01 X38.6575 Y53.6646
G01 X38.6143 Y54.5931
G01 X38.6133 Y54.6339
G01 X38.6133 Y62.7569
G01 X38.5991 Y63.0652
G01 X38.5592 Y63.3509
G01 X38.4932 Y63.6316
G01 X38.4015 Y63.9051
G01 X38.2850 Y64.1689
G01 X38.1447 Y64.4209
G01 X37.9817 Y64.6588
G01 X37.7975 Y64.8807
G01 X37.5935 Y65.0847
G01 X37.3716 Y65.2689
G01 X37.1337 Y65.4319
G01 X36.8817 Y65.5723
G01 X36.6179 Y65.6888
G01 X36.3444 Y65.7804
G01 X36.0637 Y65.8465
G01 X35.7780 Y65.8863
G01 X35.4420 Y65.9019
G01 X22.7504 Y65.9031
G01 X22.2728 Y65.8796
G01 X21.8210 Y65.8126
G01 X21.3780 Y65.7016
G01 X20.9479 Y65.5478
G01 X20.5351 Y65.3525
G01 X20.1433 Y65.1177
G01 X19.7765 Y64.8456
G01 X19.4381 Y64.5389
G01 X19.1314 Y64.2005
G01 X18.8593 Y63.8337
G01 X18.6245 Y63.4419
G01 X18.4292 Y63.0290
G01 X18.2753 Y62.5990
G01 X18.1644 Y62.1560
G01 X18.0974 Y61.7042
G01 X18.0756 Y61.2608
G01 X18.0764 Y61.2252
G01 X18.0764 Y45.7236
G01 X18.0757 Y45.6866
G01 X18.0638 Y45.4054
G01 X18.0613 Y45.3681
G01 X18.0592 Y45.3462
G01 X18.0558 Y45.3184
G01 X18.0160 Y45.0397
G01 X18.0118 Y45.0135
G01 X18.0062 Y44.9843
G01 X18.0004 Y44.9583
G01 X17.9345 Y44.6846
G01 X17.9254 Y44.6504
G01 X17.9141 Y44.6134
G01 X17.8198 Y44.3388
G01 X17.8075 Y44.3056
G01 X17.7997 Y44.2862
G01 X17.7892 Y44.2618
G01 X17.6730 Y44.0054
G01 X17.6576 Y43.9734
G01 X17.6396 Y43.9393
G01 X17.4954 Y43.6873
G01 X17.4770 Y43.6569
G01 X17.4658 Y43.6394
G01 X17.4508 Y43.6174
G01 X17.2833 Y43.3802
G01 X17.2600 Y43.3494
G01 X17.2376 Y43.3220
G01 X17.0542 Y43.1084
G01 X17.0366 Y43.0885
G01 X17.0223 Y43.0733
G01 X16.9974 Y43.0481
G01 X16.7947 Y42.8527
G01 X16.7686 Y42.8287
G01 X16.7393 Y42.8036
G01 X16.5122 Y42.6227
G01 X16.4911 Y42.6065
G01 X16.4742 Y42.5942
G01 X16.4449 Y42.5741
G01 X16.2017 Y42.4155
G01 X16.1687 Y42.3956
G01 X16.1377 Y42.3784
G01 X15.8884 Y42.2475
G01 X15.8647 Y42.2356
G01 X15.8458 Y42.2267
G01 X15.8133 Y42.2125
G01 X15.5363 Y42.0992
G01 X15.5084 Y42.0891
G01 X15.4832 Y42.0806
G01 X15.2053 Y41.9963
G01 X15.1712 Y41.9869
G01 X15.1336 Y41.9779
G01 X14.8490 Y41.9202
G01 X14.8141 Y41.9140
G01 X14.7935 Y41.9109
G01 X14.7671 Y41.9076
G01 X14.4872 Y41.8780
G01 X14.4518 Y41.8751
G01 X14.4133 Y41.8734
G01 X14.1229 Y41.8702
G01 X14.0875 Y41.8707
G01 X14.0666 Y41.8715
G01 X14.0401 Y41.8732
G01 X13.7596 Y41.8968
G01 X13.7243 Y41.9006
G01 X13.6861 Y41.9061
G01 X13.4003 Y41.9576
G01 X13.3656 Y41.9647
G01 X13.3453 Y41.9695
G01 X13.3195 Y41.9762
G01 X13.0485 Y42.0521
G01 X13.0146 Y42.0624
G01 X12.9781 Y42.0750
G01 X12.7071 Y42.1793
G01 X12.6824 Y42.1893
G01 X12.6633 Y42.1977
G01 X12.6312 Y42.2127
G01 X12.3713 Y42.3422
G01 X12.3374 Y42.3606
G01 X12.3069 Y42.3786
G01 X12.0678 Y42.5274
G01 X12.0455 Y42.5418
G01 X12.0283 Y42.5536
G01 X11.9996 Y42.5744
G01 X11.7612 Y42.7564
G01 X11.7301 Y42.7823
G01 X11.7099 Y42.8005
G01 X11.6918 Y42.8180
G01 X11.6682 Y42.8420
G01 X3.7062 Y51.3144
G01 X3.6869 Y51.3291
G01 X3.6726 Y51.3408
G01 X3.6560 Y51.3547
G01 X3.6354 Y51.3731
G01 X3.2414 Y51.7366
G01 X3.2149 Y51.7623
G01 X3.1997 Y51.7778
G01 X3.1809 Y51.7982
G01 X2.8245 Y52.1987
G01 X2.8067 Y52.2194
G01 X2.7933 Y52.2360
G01 X2.7711 Y52.2649
G01 X2.4552 Y52.6980
G01 X2.4345 Y52.7279
G01 X2.4228 Y52.7458
G01 X2.4085 Y52.7691
G01 X2.1360 Y53.2307
G01 X2.1183 Y53.2625
G01 X2.1003 Y53.2977
G01 X1.8699 Y53.7919
G01 X1.8588 Y53.8168
G01 X1.8507 Y53.8366
G01 X1.8377 Y53.8705
G01 X1.6593 Y54.3761
G01 X1.6507 Y54.4020
G01 X1.6445 Y54.4224
G01 X1.6349 Y54.4575
G01 X1.5062 Y54.9780
G01 X1.5002 Y55.0045
G01 X1.4960 Y55.0255
G01 X1.4899 Y55.0614
G01 X1.4122 Y55.5918
G01 X1.4078 Y55.6279
G01 X1.4058 Y55.6492
G01 X1.4039 Y55.6764
G01 X1.3776 Y56.2211
G01 X1.3769 Y56.2544
G01 X1.3769 Y95.2434
G00 X1.3769 Y95.2434
G01 F250.00
G01 Z-0.4000
G01 F2500.00
G01 X1.3779 Y95.2841
G01 X1.4028 Y95.8199
G01 X1.4054 Y95.8569
G01 X1.4076 Y95.8787
G01 X1.4111 Y95.9063
G01 X1.4889 Y96.4371
G01 X1.4933 Y96.4640
G01 X1.4974 Y96.4850
G01 X1.5053 Y96.5205
G01 X1.6363 Y97.0500
G01 X1.6471 Y97.0881
G01 X1.6584 Y97.1227
G01 X1.8370 Y97.6285
G01 X1.8466 Y97.6540
G01 X1.8546 Y97.6738
G01 X1.8692 Y97.7072
G01 X2.0959 Y98.1933
G01 X2.1079 Y98.2178
G01 X2.1178 Y98.2368
G01 X2.1355 Y98.2685
G01 X2.4083 Y98.7304
G01 X2.4275 Y98.7613
G01 X2.4393 Y98.7791
G01 X2.4550 Y98.8014
G01 X2.7821 Y99.2493
G01 X2.8068 Y99.2802
G01 X2.8246 Y99.3009
G01 X3.1812 Y99.7016
G01 X3.1997 Y99.7216
G01 X3.2147 Y99.7369
G01 X3.2408 Y99.7623
G01 X3.6346 Y100.1265
G01 X3.6541 Y100.1440
G01 X3.6699 Y100.1573
G01 X3.6992 Y100.1807
G01 X11.6810 Y108.7044
G01 X11.7094 Y108.7327
G01 X11.7365 Y108.7576
G01 X11.7648 Y108.7812
G01 X11.7891 Y108.8002
G01 X11.8190 Y108.8217
G01 X11.8344 Y108.8319
G01 X11.8604 Y108.8484
G01 X11.8768 Y108.8581
G01 X11.9971 Y108.9482
G01 X12.0184 Y108.9634
G01 X12.0354 Y108.9750
G01 X12.0574 Y108.9893
G01 X12.2982 Y109.1389
G01 X12.3287 Y109.1569
G01 X12.3626 Y109.1753
G01 X12.6243 Y109.3055
G01 X12.6564 Y109.3205
G01 X12.6756 Y109.3289
G01 X12.7002 Y109.3389
G01 X12.9648 Y109.4406
G01 X12.9982 Y109.4525
G01 X13.0349 Y109.4642
G01 X13.3165 Y109.5429
G01 X13.3422 Y109.5496
G01 X13.3712 Y109.5563
G01 X13.3972 Y109.5614
G01 X13.6762 Y109.6116
G01 X13.7025 Y109.6158
G01 X13.7231 Y109.6186
G01 X13.7584 Y109.6224
G01 X14.0497 Y109.6467
G01 X14.0882 Y109.6486
G01 X14.1237 Y109.6490
G01 X14.4071 Y109.6459
G01 X14.4425 Y109.6447
G01 X14.4634 Y109.6434
G01 X14.4899 Y109.6411
G01 X14.7717 Y109.6112
G01 X14.8069 Y109.6066
G01 X14.8449 Y109.6003
G01 X15.1314 Y109.5422
G01 X15.1574 Y109.5365
G01 X15.1776 Y109.5314
G01 X15.2118 Y109.5219
G01 X15.4830 Y109.4396
G01 X15.5167 Y109.4285
G01 X15.5363 Y109.4215
G01 X15.5611 Y109.4118
G01 X15.8234 Y109.3042
G01 X15.8558 Y109.2900
G01 X15.8906 Y109.2733
G01 X16.1494 Y109.1374
G01 X16.1727 Y109.1246
G01 X16.1907 Y109.1141
G01 X16.2209 Y109.0954
G01 X16.4582 Y108.9405
G01 X16.4875 Y108.9204
G01 X16.5043 Y108.9082
G01 X16.5254 Y108.8920
G01 X16.7471 Y108.7153
G01 X16.7743 Y108.6926
G01 X16.8030 Y108.6668
G01 X17.0134 Y108.4639
G01 X17.0322 Y108.4451
G01 X17.0466 Y108.4300
G01 X17.0703 Y108.4036
G01 X17.2549 Y108.1885
G01 X17.2773 Y108.1610
G01 X17.2901 Y108.1445
G01 X17.3058 Y108.1231
G01 X17.4692 Y107.8915
G01 X17.4889 Y107.8620
G01 X17.5093 Y107.8292
G01 X17.6545 Y107.5756
G01 X17.6673 Y107.5523
G01 X17.6769 Y107.5337
G01 X17.6923 Y107.5018
G01 X17.8092 Y107.2436
G01 X17.8231 Y107.2110
G01 X17.8307 Y107.1915
G01 X17.8398 Y107.1666
G01 X17.9319 Y106.8985
G01 X17.9426 Y106.8647
G01 X17.9530 Y106.8275
G01 X18.0215 Y106.5433
G01 X18.0272 Y106.5174
G01 X18.0312 Y106.4969
G01 X18.0370 Y106.4619
G01 X18.0771 Y106.1813
G01 X18.0804 Y106.1549
G01 X18.0824 Y106.1342
G01 X18.0849 Y106.0988
G01 X18.0983 Y105.8157
G01 X18.0993 Y105.7742
G01 X18.0993 Y90.2752
G01 X18.0985 Y90.2404
G01 X18.1177 Y89.8495
G01 X18.1847 Y89.3977
G01 X18.2957 Y88.9547
G01 X18.4495 Y88.5246
G01 X18.6448 Y88.1118
G01 X18.8796 Y87.7200
G01 X19.1517 Y87.3532
G01 X19.4584 Y87.0148
G01 X19.7968 Y86.7081
G01 X20.1636 Y86.4360
G01 X20.5554 Y86.2012
G01 X20.9683 Y86.0059
G01 X21.3983 Y85.8520
G01 X21.8413 Y85.7411
G01 X22.2931 Y85.6741
G01 X22.6890 Y85.6546
G01 X22.7139 Y85.6555
G01 X22.7323 Y85.6557
G01 X35.3663 Y85.6074
G01 X35.3939 Y85.6068
G01 X35.4350 Y85.6044
G01 X35.6690 Y85.6159
G01 X35.9720 Y85.6608
G01 X36.2693 Y85.7353
G01 X36.5578 Y85.8385
G01 X36.8348 Y85.9695
G01 X37.0976 Y86.1271
G01 X37.3437 Y86.3096
G01 X37.5708 Y86.5154
G01 X37.7765 Y86.7424
G01 X37.9591 Y86.9885
G01 X38.1166 Y87.2513
G01 X38.2476 Y87.5283
G01 X38.3508 Y87.8168
G01 X38.4253 Y88.1141
G01 X38.4702 Y88.4172
G01 X38.4864 Y88.7458
G01 X38.5067 Y96.8687
G01 X38.5076 Y96.9037
G01 X38.5068 Y96.9341
G01 X38.5070 Y96.9650
G01 X38.5507 Y97.9119
G01 X38.5524 Y97.9380
G01 X38.5543 Y97.9585
G01 X38.5583 Y97.9931
G01 X38.6875 Y98.9137
G01 X38.6916 Y98.9395
G01 X38.6988 Y98.9768
G01 X38.9168 Y99.8983
G01 X38.9232 Y99.9236
G01 X38.9288 Y99.9434
G01 X38.9392 Y99.9767
G01 X39.2364 Y100.8574
G01 X39.2483 Y100.8902
G01 X39.2559 Y100.9093
G01 X39.2661 Y100.9334
G01 X39.6438 Y101.7827
G01 X39.6587 Y101.8142
G01 X39.6679 Y101.8326
G01 X39.6803 Y101.8556
G01 X40.1353 Y102.6662
G01 X40.1530 Y102.6962
G01 X40.1639 Y102.7136
G01 X40.1784 Y102.7354
G01 X40.7117 Y103.5074
G01 X40.7343 Y103.5378
G01 X40.7561 Y103.5651
G01 X41.3530 Y104.2776
G01 X41.3799 Y104.3082
G01 X60.0574 Y124.6075
G01 X60.6359 Y125.3005
G01 X61.1328 Y126.0285
G01 X61.5571 Y126.8011
G01 X61.9043 Y127.6098
G01 X62.1849 Y128.4981
G01 X62.1941 Y128.5250
G01 X62.2006 Y128.5422
G01 X62.2120 Y128.5701
G01 X62.2207 Y128.5898
G01 X66.3829 Y137.2759
G01 X66.3993 Y137.3080
G01 X67.0823 Y138.9446
G01 X67.0967 Y138.9769
G01 X67.1137 Y139.0116
G01 X68.0014 Y140.6762
G01 X68.0187 Y140.7069
G01 X68.0293 Y140.7247
G01 X68.0435 Y140.7470
G01 X69.0785 Y142.3136
G01 X69.0986 Y142.3425
G01 X69.1109 Y142.3592
G01 X69.1271 Y142.3801
G01 X70.3044 Y143.8427
G01 X70.3213 Y143.8630
G01 X70.3350 Y143.8785
G01 X70.3590 Y143.9044
G01 X71.6683 Y145.2501
G01 X71.6870 Y145.2687
G01 X71.7021 Y145.2829
G01 X71.7284 Y145.3064
G01 X73.1582 Y146.5235
G01 X73.1855 Y146.5457
G01 X73.2019 Y146.5583
G01 X73.2233 Y146.5738
G01 X74.7609 Y147.6515
G01 X74.7902 Y147.6710
G01 X74.8077 Y147.6821
G01 X74.8304 Y147.6955
G01 X76.4623 Y148.6242
G01 X76.4933 Y148.6409
G01 X76.5118 Y148.6503
G01 X76.5357 Y148.6616
G01 X78.2474 Y149.4332
G01 X78.2717 Y149.4436
G01 X78.2909 Y149.4513
G01 X78.3240 Y149.4634
G01 X80.1005 Y150.0711
G01 X80.1268 Y150.0796
G01 X80.1475 Y150.0856
G01 X80.1652 Y150.0905
G01 X80.2009 Y150.0989
G01 X80.2312 Y150.1047
G01 X80.2674 Y150.1105
G01 X80.2856 Y150.1127
G01 X80.3163 Y150.1155
G01 X80.3529 Y150.1178
G01 X80.3713 Y150.1182
G01 X80.4021 Y150.1180
G01 X80.4296 Y150.1172
G01 X80.6427 Y150.1039
G01 X80.6853 Y150.0998
G01 X80.7090 Y150.0967
G01 X80.9031 Y150.0679
G01 X80.9303 Y150.0633
G01 X80.9606 Y150.0573
G01 X80.9875 Y150.0511
G01 X81.1778 Y150.0034
G01 X81.2133 Y149.9936
G01 X81.2340 Y149.9873
G01 X81.2602 Y149.9784
G01 X81.4535 Y149.9092
G01 X81.4907 Y149.8943
G01 X81.5244 Y149.8794
G01 X81.7100 Y149.7916
G01 X81.7456 Y149.7731
G01 X81.7697 Y149.7597
G01 X81.9537 Y149.6493
G01 X81.9873 Y149.6275
G01 X82.0174 Y149.6063
G01 X82.1824 Y149.4839
G01 X82.2137 Y149.4589
G01 X82.2415 Y149.4348
G01 X82.3937 Y149.2969
G01 X82.4136 Y149.2777
G01 X82.4415 Y149.2490
G01 X82.5795 Y149.0969
G01 X82.6035 Y149.0690
G01 X82.6286 Y149.0377
G01 X82.7510 Y148.8728
G01 X82.7670 Y148.8503
G01 X82.7842 Y148.8246
G01 X82.7988 Y148.8012
G01 X82.9043 Y148.6250
G01 X82.9237 Y148.5899
G01 X82.9402 Y148.5570
G01 X83.0280 Y148.3714
G01 X83.0438 Y148.3345
G01 X83.0570 Y148.3002
G01 X83.1262 Y148.1068
G01 X83.1383 Y148.0686
G01 X83.1458 Y148.0420
G01 X83.1958 Y147.8428
G01 X83.2038 Y147.8069
G01 X83.2111 Y147.7675
G01 X83.2413 Y147.5644
G01 X83.2449 Y147.5370
G01 X83.2486 Y147.4971
G01 X83.2594 Y147.2828
G01 X83.2602 Y147.2552
G01 X83.2603 Y147.2335
G01 X83.2594 Y147.1967
G01 X83.2567 Y147.1600
G01 X83.2534 Y147.1293
G01 X83.2480 Y147.0927
G01 X83.1945 Y127.7462
G01 X83.2007 Y127.6118
G01 X83.2160 Y127.5090
G01 X83.2414 Y127.4074
G01 X83.2767 Y127.3088
G01 X83.3215 Y127.2141
G01 X83.3754 Y127.1242
G01 X83.4378 Y127.0401
G01 X83.5081 Y126.9625
G01 X83.5858 Y126.8921
G01 X83.6699 Y126.8297
G01 X83.7598 Y126.7758
G01 X83.8545 Y126.7310
G01 X83.9531 Y126.6958
G01 X84.0547 Y126.6703
G01 X84.1583 Y126.6549
G01 X84.2402 Y126.6509
G01 X84.2630 Y126.6513
G01 X112.2639 Y126.6513
G01 X112.3093 Y126.6511
G01 X112.3369 Y126.6505
G01 X112.7290 Y126.6337
G01 X112.7584 Y126.6319
G01 X112.7911 Y126.6288
G01 X112.8203 Y126.6251
G01 X113.2087 Y126.5674
G01 X113.2449 Y126.5612
G01 X113.2662 Y126.5569
G01 X113.2931 Y126.5507
G01 X113.6739 Y126.4553
G01 X113.7094 Y126.4454
G01 X113.7301 Y126.4391
G01 X113.7563 Y126.4303
G01 X114.1259 Y126.2980
G01 X114.1517 Y126.2882
G01 X114.1718 Y126.2800
G01 X114.2054 Y126.2651
G01 X114.5603 Y126.0972
G01 X114.5932 Y126.0807
G01 X114.6123 Y126.0704
G01 X114.6362 Y126.0567
G01 X114.9730 Y125.8548
G01 X115.0041 Y125.8351
G01 X115.0221 Y125.8230
G01 X115.0445 Y125.8070
G01 X115.3599 Y125.5731
G01 X115.3817 Y125.5563
G01 X115.3985 Y125.5426
G01 X115.4264 Y125.5185
G01 X115.7173 Y125.2549
G01 X115.7439 Y125.2295
G01 X115.7592 Y125.2141
G01 X115.7781 Y125.1940
G01 X116.0418 Y124.9031
G01 X116.0658 Y124.8753
G01 X116.0795 Y124.8585
G01 X116.0964 Y124.8366
G01 X116.3303 Y124.5213
G01 X116.3463 Y124.4988
G01 X116.3584 Y124.4808
G01 X116.3781 Y124.4497
G01 X116.5799 Y124.1130
G01 X116.5981 Y124.0809
G01 X116.6082 Y124.0618
G01 X116.6205 Y124.0371
G01 X116.7883 Y123.6822
G01 X116.8033 Y123.6485
G01 X116.8115 Y123.6285
G01 X116.8213 Y123.6026
G01 X116.9535 Y123.2330
G01 X116.9624 Y123.2068
G01 X116.9713 Y123.1773
G01 X116.9785 Y123.1506
G01 X117.0739 Y122.7698
G01 X117.0820 Y122.7339
G01 X117.0862 Y122.7126
G01 X117.0907 Y122.6854
G01 X117.1483 Y122.2971
G01 X117.1528 Y122.2605
G01 X117.1549 Y122.2389
G01 X117.1567 Y122.2114
G01 X117.1760 Y121.8193
G01 X117.1771 Y121.7762
G01 X117.1771 Y29.7749
G01 X117.1760 Y29.7319
G01 X117.1567 Y29.3397
G01 X117.1540 Y29.3030
G01 X117.1519 Y29.2815
G01 X117.1483 Y29.2541
G01 X117.0907 Y28.8658
G01 X117.0844 Y28.8295
G01 X117.0801 Y28.8082
G01 X117.0739 Y28.7813
G01 X116.9785 Y28.4005
G01 X116.9687 Y28.3650
G01 X116.9566 Y28.3268
G01 X116.8213 Y27.9485
G01 X116.8080 Y27.9142
G01 X116.7997 Y27.8942
G01 X116.7883 Y27.8690
G01 X116.6205 Y27.5141
G01 X116.6039 Y27.4812
G01 X116.5846 Y27.4461
G01 X116.3733 Y27.0936
G01 X116.3515 Y27.0600
G01 X116.3303 Y27.0299
G01 X116.0964 Y26.7145
G01 X116.0795 Y26.6927
G01 X116.0658 Y26.6759
G01 X116.0418 Y26.6480
G01 X115.7781 Y26.3571
G01 X115.7528 Y26.3305
G01 X115.7241 Y26.3025
G01 X115.4264 Y26.0326
G01 X115.3985 Y26.0086
G01 X115.3817 Y25.9949
G01 X115.3599 Y25.9780
G01 X115.0445 Y25.7441
G01 X115.0221 Y25.7281
G01 X115.0041 Y25.7160
G01 X114.9730 Y25.6963
G01 X114.6283 Y25.4898
G01 X114.5932 Y25.4705
G01 X114.5603 Y25.4539
G01 X114.2054 Y25.2861
G01 X114.1718 Y25.2711
G01 X114.1517 Y25.2629
G01 X114.1259 Y25.2531
G01 X113.7563 Y25.1209
G01 X113.7213 Y25.1093
G01 X113.6828 Y25.0982
G01 X113.2931 Y25.0005
G01 X113.2572 Y24.9924
G01 X113.2359 Y24.9883
G01 X113.2087 Y24.9837
G01 X112.8203 Y24.9261
G01 X112.7929 Y24.9225
G01 X112.7622 Y24.9195
G01 X112.7347 Y24.9177
G01 X112.3425 Y24.8984
G01 X112.3057 Y24.8975
G01 X112.2749 Y24.8977
G01 X112.2565 Y24.8984
G01 X112.2198 Y24.9011
G01 X112.1891 Y24.9044
G01 X112.1708 Y24.9068
G01 X112.1526 Y24.9098
G01 X112.1245 Y24.9151
G01 X84.7316 Y24.9151
G01 X84.5720 Y24.9073
G01 X84.4354 Y24.8870
G01 X84.3013 Y24.8534
G01 X84.1713 Y24.8069
G01 X84.0464 Y24.7478
G01 X83.9278 Y24.6768
G01 X83.8169 Y24.5945
G01 X83.7145 Y24.5017
G01 X83.6217 Y24.3993
G01 X83.5394 Y24.2884
G01 X83.4684 Y24.1699
G01 X83.4093 Y24.0450
G01 X83.3628 Y23.9149
G01 X83.3292 Y23.7808
G01 X83.3097 Y23.6491
G01 X83.3025 Y23.4613
G01 X83.3010 Y4.1092
G01 X83.3006 Y4.0908
G01 X83.2990 Y4.0597
G01 X83.2880 Y3.8813
G01 X83.2851 Y3.8490
G01 X83.2816 Y3.8194
G01 X83.2559 Y3.6360
G01 X83.2519 Y3.6102
G01 X83.2465 Y3.5816
G01 X83.2409 Y3.5561
G01 X83.1984 Y3.3758
G01 X83.1920 Y3.3506
G01 X83.1840 Y3.3225
G01 X83.1761 Y3.2977
G01 X83.1142 Y3.1139
G01 X83.1009 Y3.0785
G01 X83.0911 Y3.0543
G01 X83.0126 Y2.8770
G01 X82.9978 Y2.8456
G01 X82.9886 Y2.8273
G01 X82.9762 Y2.8043
G01 X82.8816 Y2.6351
G01 X82.8620 Y2.6027
G01 X82.8430 Y2.5737
G01 X82.7330 Y2.4139
G01 X82.7229 Y2.3998
G01 X82.7052 Y2.3766
G01 X82.6889 Y2.3563
G01 X82.5703 Y2.2141
G01 X82.5474 Y2.1879
G01 X82.5335 Y2.1728
G01 X82.5154 Y2.1541
G01 X82.3779 Y2.0174
G01 X82.3502 Y1.9916
G01 X82.3305 Y1.9745
G01 X82.1811 Y1.8509
G01 X82.1607 Y1.8347
G01 X82.1443 Y1.8224
G01 X82.1161 Y1.8022
G01 X81.9557 Y1.6931
G01 X81.9237 Y1.6729
G01 X81.8937 Y1.6554
G01 X81.7240 Y1.5616
G01 X81.7008 Y1.5497
G01 X81.6667 Y1.5333
G01 X81.4890 Y1.4556
G01 X81.4650 Y1.4456
G01 X81.4459 Y1.4382
G01 X81.4131 Y1.4265
G01 X81.2290 Y1.3657
G01 X81.1927 Y1.3550
G01 X81.1590 Y1.3464
G01 X80.9786 Y1.3048
G01 X80.9445 Y1.2978
G01 X80.9244 Y1.2941
G01 X80.8986 Y1.2902
G01 X80.7150 Y1.2654
G01 X80.6948 Y1.2630
G01 X80.6664 Y1.2585
G01 X80.6174 Y1.2530
G01 X80.5807 Y1.2507
G01 X80.5498 Y1.2501
G01 X80.5130 Y1.2505
G01 X80.4763 Y1.2527
G01 X80.4455 Y1.2556
G01 X80.4273 Y1.2578
G01 X80.3909 Y1.2636
G01 X80.3606 Y1.2695
G01 X80.3248 Y1.2779
G01 X80.2950 Y1.2863
G01 X80.2687 Y1.2944
G01 X78.4839 Y1.9064
G01 X78.4511 Y1.9185
G01 X78.4159 Y1.9329
G01 X76.6963 Y2.7080
G01 X76.6725 Y2.7192
G01 X76.6539 Y2.7286
G01 X76.6229 Y2.7453
G01 X74.9836 Y3.6783
G01 X74.9509 Y3.6984
G01 X74.9216 Y3.7180
G01 X73.3842 Y4.7955
G01 X73.3628 Y4.8111
G01 X73.3464 Y4.8237
G01 X73.3190 Y4.8459
G01 X71.8894 Y6.0629
G01 X71.8696 Y6.0804
G01 X71.8544 Y6.0945
G01 X71.8293 Y6.1192
G01 X70.5201 Y7.4649
G01 X70.4961 Y7.4907
G01 X70.4824 Y7.5062
G01 X70.4655 Y7.5265
G01 X69.2882 Y8.9890
G01 X69.2668 Y9.0170
G01 X69.2546 Y9.0337
G01 X69.2397 Y9.0555
G01 X68.1952 Y10.6368
G01 X68.1755 Y10.6697
G01 X68.1626 Y10.6927
G01 X67.2791 Y12.3494
G01 X67.2633 Y12.3808
G01 X67.2545 Y12.3996
G01 X67.2439 Y12.4238
G01 X66.5654 Y14.0465
G01 X66.5538 Y14.0680
G01 X66.5416 Y14.0928
G01 X62.3467 Y22.9301
G01 X62.3356 Y22.9554
G01 X62.3239 Y22.9840
G01 X62.3115 Y23.0187
G01 X62.2989 Y23.0598
G01 X62.2895 Y23.0872
G01 X62.0088 Y23.9671
G01 X61.6612 Y24.7768
G01 X61.2372 Y25.5492
G01 X60.7408 Y26.2766
G01 X60.1619 Y26.9687
G01 X41.4803 Y47.2752
G01 X41.4597 Y47.2990
G01 X40.8628 Y48.0116
G01 X40.8463 Y48.0319
G01 X40.8339 Y48.0482
G01 X40.8134 Y48.0764
G01 X40.2852 Y48.8412
G01 X40.2707 Y48.8630
G01 X40.2552 Y48.8878
G01 X40.2420 Y48.9104
G01 X39.7871 Y49.7210
G01 X39.7747 Y49.7440
G01 X39.7654 Y49.7623
G01 X39.7505 Y49.7939
G01 X39.3728 Y50.6432
G01 X39.3594 Y50.6754
G01 X39.3520 Y50.6945
G01 X39.3432 Y50.7191
G01 X39.0460 Y51.5999
G01 X39.0380 Y51.6248
G01 X39.0323 Y51.6445
G01 X39.0235 Y51.6783
G01 X38.8094 Y52.5828
G01 X38.8038 Y52.6083
G01 X38.7999 Y52.6285
G01 X38.7943 Y52.6629
G01 X38.6628 Y53.6007
G01 X38.6592 Y53.6385
G01 X38.6575 Y53.6646
G01 X38.6143 Y54.5931
G01 X38.6133 Y54.6339
G01 X38.6133 Y62.7569
G01 X38.5991 Y63.0652
G01 X38.5592 Y63.3509
G01 X38.4932 Y63.6316
G01 X38.4015 Y63.9051
G01 X38.2850 Y64.1689
G01 X38.1447 Y64.4209
G01 X37.9817 Y64.6588
G01 X37.7975 Y64.8807
G01 X37.5935 Y65.0847
G01 X37.3716 Y65.2689
G01 X37.1337 Y65.4319
G01 X36.8817 Y65.5723
G01 X36.6179 Y65.6888
G01 X36.3444 Y65.7804
G01 X36.0637 Y65.8465
G01 X35.7780 Y65.8863
G01 X35.4420 Y65.9019
G01 X22.7504 Y65.9031
G01 X22.2728 Y65.8796
G01 X21.8210 Y65.8126
G01 X21.3780 Y65.7016
G01 X20.9479 Y65.5478
G01 X20.5351 Y65.3525
G01 X20.1433 Y65.1177
G01 X19.7765 Y64.8456
G01 X19.4381 Y64.5389
G01 X19.1314 Y64.2005
G01 X18.8593 Y63.8337
G01 X18.6245 Y63.4419
G01 X18.4292 Y63.0290
G01 X18.2753 Y62.5990
G01 X18.1644 Y62.1560
G01 X18.0974 Y61.7042
G01 X18.0756 Y61.2608
G01 X18.0764 Y61.2252
G01 X18.0764 Y45.7236
G01 X18.0757 Y45.6866
G01 X18.0638 Y45.4054
G01 X18.0613 Y45.3681
G01 X18.0592 Y45.3462
G01 X18.0558 Y45.3184
G01 X18.0160 Y45.0397
G01 X18.0118 Y45.0135
G01 X18.0062 Y44.9843
G01 X18.0004 Y44.9583
G01 X17.9345 Y44.6846
G01 X17.9254 Y44.6504
G01 X17.9141 Y44.6134
G01 X17.8198 Y44.3388
G01 X17.8075 Y44.3056
G01 X17.7997 Y44.2862
G01 X17.7892 Y44.2618
G01 X17.6730 Y44.0054
G01 X17.6576 Y43.9734
G01 X17.6396 Y43.9393
G01 X17.4954 Y43.6873
G01 X17.4770 Y43.6569
G01 X17.4658 Y43.6394
G01 X17.4508 Y43.6174
G01 X17.2833 Y43.3802
G01 X17.2600 Y43.3494
G01 X17.2376 Y43.3220
G01 X17.0542 Y43.1084
G01 X17.0366 Y43.0885
G01 X17.0223 Y43.0733
G01 X16.9974 Y43.0481
G01 X16.7947 Y42.8527
G01 X16.7686 Y42.8287
G01 X16.7393 Y42.8036
G01 X16.5122 Y42.6227
G01 X16.4911 Y42.6065
G01 X16.4742 Y42.5942
G01 X16.4449 Y42.5741
G01 X16.2017 Y42.4155
G01 X16.1687 Y42.3956
G01 X16.1377 Y42.3784
G01 X15.8884 Y42.2475
G01 X15.8647 Y42.2356
G01 X15.8458 Y42.2267
G01 X15.8133 Y42.2125
G01 X15.5363 Y42.0992
G01 X15.5084 Y42.0891
G01 X15.4832 Y42.0806
G01 X15.2053 Y41.9963
G01 X15.1712 Y41.9869
G01 X15.1336 Y41.9779
G01 X14.8490 Y41.9202
G01 X14.8141 Y41.9140
G01 X14.7935 Y41.9109
G01 X14.7671 Y41.9076
G01 X14.4872 Y41.8780
G01 X14.4518 Y41.8751
G01 X14.4133 Y41.8734
G01 X14.1229 Y41.8702
G01 X14.0875 Y41.8707
G01 X14.0666 Y41.8715
G01 X14.0401 Y41.8732
G01 X13.7596 Y41.8968
G01 X13.7243 Y41.9006
G01 X13.6861 Y41.9061
G01 X13.4003 Y41.9576
G01 X13.3656 Y41.9647
G01 X13.3453 Y41.9695
G01 X13.3195 Y41.9762
G01 X13.0485 Y42.0521
G01 X13.0146 Y42.0624
G01 X12.9781 Y42.0750
G01 X12.7071 Y42.1793
G01 X12.6824 Y42.1893
G01 X12.6633 Y42.1977
G01 X12.6312 Y42.2127
G01 X12.3713 Y42.3422
G01 X12.3374 Y42.3606
G01 X12.3069 Y42.3786
G01 X12.0678 Y42.5274
G01 X12.0455 Y42.5418
G01 X12.0283 Y42.5536
G01 X11.9996 Y42.5744
G01 X11.7612 Y42.7564
G01 X11.7301 Y42.7823
G01 X11.7099 Y42.8005
G01 X11.6918 Y42.8180
G01 X11.6682 Y42.8420
G01 X3.7062 Y51.3144
G01 X3.6869 Y51.3291
G01 X3.6726 Y51.3408
G01 X3.6560 Y51.3547
G01 X3.6354 Y51.3731
G01 X3.2414 Y51.7366
G01 X3.2149 Y51.7623
G01 X3.1997 Y51.7778
G01 X3.1809 Y51.7982
G01 X2.8245 Y52.1987
G01 X2.8067 Y52.2194
G01 X2.7933 Y52.2360
G01 X2.7711 Y52.2649
G01 X2.4552 Y52.6980
G01 X2.4345 Y52.7279
G01 X2.4228 Y52.7458
G01 X2.4085 Y52.7691
G01 X2.1360 Y53.2307
G01 X2.1183 Y53.2625
G01 X2.1003 Y53.2977
G01 X1.8699 Y53.7919
G01 X1.8588 Y53.8168
G01 X1.8507 Y53.8366
G01 X1.8377 Y53.8705
G01 X1.6593 Y54.3761
G01 X1.6507 Y54.4020
G01 X1.6445 Y54.4224
G01 X1.6349 Y54.4575
G01 X1.5062 Y54.9780
G01 X1.5002 Y55.0045
G01 X1.4960 Y55.0255
G01 X1.4899 Y55.0614
G01 X1.4122 Y55.5918
G01 X1.4078 Y55.6279
G01 X1.4058 Y55.6492
G01 X1.4039 Y55.6764
G01 X1.3776 Y56.2211
G01 X1.3769 Y56.2544
G01 X1.3769 Y95.2434
G00 X1.3769 Y95.2434
G01 F250.00
G01 Z-0.5000
G01 F2500.00
G01 X1.3779 Y95.2841
G01 X1.4028 Y95.8199
G01 X1.4054 Y95.8569
G01 X1.4076 Y95.8787
G01 X1.4111 Y95.9063
G01 X1.4889 Y96.4371
G01 X1.4933 Y96.4640
G01 X1.4974 Y96.4850
G01 X1.5053 Y96.5205
G01 X1.6363 Y97.0500
G01 X1.6471 Y97.0881
G01 X1.6584 Y97.1227
G01 X1.8370 Y97.6285
G01 X1.8466 Y97.6540
G01 X1.8546 Y97.6738
G01 X1.8692 Y97.7072
G01 X2.0959 Y98.1933
G01 X2.1079 Y98.2178
G01 X2.1178 Y98.2368
G01 X2.1355 Y98.2685
G01 X2.4083 Y98.7304
G01 X2.4275 Y98.7613
G01 X2.4393 Y98.7791
G01 X2.4550 Y98.8014
G01 X2.7821 Y99.2493
G01 X2.8068 Y99.2802
G01 X2.8246 Y99.3009
G01 X3.1812 Y99.7016
G01 X3.1997 Y99.7216
G01 X3.2147 Y99.7369
G01 X3.2408 Y99.7623
G01 X3.6346 Y100.1265
G01 X3.6541 Y100.1440
G01 X3.6699 Y100.1573
G01 X3.6992 Y100.1807
G01 X11.6810 Y108.7044
G01 X11.7094 Y108.7327
G01 X11.7365 Y108.7576
G01 X11.7648 Y108.7812
G01 X11.7891 Y108.8002
G01 X11.8190 Y108.8217
G01 X11.8344 Y108.8319
G01 X11.8604 Y108.8484
G01 X11.8768 Y108.8581
G01 X11.9971 Y108.9482
G01 X12.0184 Y108.9634
G01 X12.0354 Y108.9750
G01 X12.0574 Y108.9893
G01 X12.2982 Y109.1389
G01 X12.3287 Y109.1569
G01 X12.3626 Y109.1753
G01 X12.6243 Y109.3055
G01 X12.6564 Y109.3205
G01 X12.6756 Y109.3289
G01 X12.7002 Y109.3389
G01 X12.9648 Y109.4406
G01 X12.9982 Y109.4525
G01 X13.0349 Y109.4642
G01 X13.3165 Y109.5429
G01 X13.3422 Y109.5496
G01 X13.3712 Y109.5563
G01 X13.3972 Y109.5614
G01 X13.6762 Y109.6116
G01 X13.7025 Y109.6158
G01 X13.7231 Y109.6186
G01 X13.7584 Y109.6224
G01 X14.0497 Y109.6467
G01 X14.0882 Y109.6486
G01 X14.1237 Y109.6490
G01 X14.4071 Y109.6459
G01 X14.4425 Y109.6447
G01 X14.4634 Y109.6434
G01 X14.4899 Y109.6411
G01 X14.7717 Y109.6112
G01 X14.8069 Y109.6066
G01 X14.8449 Y109.6003
G01 X15.1314 Y109.5422
G01 X15.1574 Y109.5365
G01 X15.1776 Y109.5314
G01 X15.2118 Y109.5219
G01 X15.4830 Y109.4396
G01 X15.5167 Y109.4285
G01 X15.5363 Y109.4215
G01 X15.5611 Y109.4118
G01 X15.8234 Y109.3042
G01 X15.8558 Y109.2900
G01 X15.8906 Y109.2733
G01 X16.1494 Y109.1374
G01 X16.1727 Y109.1246
G01 X16.1907 Y109.1141
G01 X16.2209 Y109.0954
G01 X16.4582 Y108.9405
G01 X16.4875 Y108.9204
G01 X16.5043 Y108.9082
G01 X16.5254 Y108.8920
G01 X16.7471 Y108.7153
G01 X16.7743 Y108.6926
G01 X16.8030 Y108.6668
G01 X17.0134 Y108.4639
G01 X17.0322 Y108.4451
G01 X17.0466 Y108.4300
G01 X17.0703 Y108.4036
G01 X17.2549 Y108.1885
G01 X17.2773 Y108.1610
G01 X17.2901 Y108.1445
G01 X17.3058 Y108.1231
G01 X17.4692 Y107.8915
G01 X17.4889 Y107.8620
G01 X17.5093 Y107.8292
G01 X17.6545 Y107.5756
G01 X17.6673 Y107.5523
G01 X17.6769 Y107.5337
G01 X17.6923 Y107.5018
G01 X17.8092 Y107.2436
G01 X17.8231 Y107.2110
G01 X17.8307 Y107.1915
G01 X17.8398 Y107.1666
G01 X17.9319 Y106.8985
G01 X17.9426 Y106.8647
G01 X17.9530 Y106.8275
G01 X18.0215 Y106.5433
G01 X18.0272 Y106.5174
G01 X18.0312 Y106.4969
G01 X18.0370 Y106.4619
G01 X18.0771 Y106.1813
G01 X18.0804 Y106.1549
G01 X18.0824 Y106.1342
G01 X18.0849 Y106.0988
G01 X18.0983 Y105.8157
G01 X18.0993 Y105.7742
G01 X18.0993 Y90.2752
G01 X18.0985 Y90.2404
G01 X18.1177 Y89.8495
G01 X18.1847 Y89.3977
G01 X18.2957 Y88.9547
G01 X18.4495 Y88.5246
G01 X18.6448 Y88.1118
G01 X18.8796 Y87.7200
G01 X19.1517 Y87.3532
G01 X19.4584 Y87.0148
G01 X19.7968 Y86.7081
G01 X20.1636 Y86.4360
G01 X20.5554 Y86.2012
G01 X20.9683 Y86.0059
G01 X21.3983 Y85.8520
G01 X21.8413 Y85.7411
G01 X22.2931 Y85.6741
G01 X22.6890 Y85.6546
G01 X22.7139 Y85.6555
G01 X22.7323 Y85.6557
G01 X35.3663 Y85.6074
G01 X35.3939 Y85.6068
G01 X35.4350 Y85.6044
G01 X35.6690 Y85.6159
G01 X35.9720 Y85.6608
G01 X36.2693 Y85.7353
G01 X36.5578 Y85.8385
G01 X36.8348 Y85.9695
G01 X37.0976 Y86.1271
G01 X37.3437 Y86.3096
G01 X37.5708 Y86.5154
G01 X37.7765 Y86.7424
G01 X37.9591 Y86.9885
G01 X38.1166 Y87.2513
G01 X38.2476 Y87.5283
G01 X38.3508 Y87.8168
G01 X38.4253 Y88.1141
G01 X38.4702 Y88.4172
G01 X38.4864 Y88.7458
G01 X38.5067 Y96.8687
G01 X38.5076 Y96.9037
G01 X38.5068 Y96.9341
G01 X38.5070 Y96.9650
G01 X38.5507 Y97.9119
G01 X38.5524 Y97.9380
G01 X38.5543 Y97.9585
G01 X38.5583 Y97.9931
G01 X38.6875 Y98.9137
G01 X38.6916 Y98.9395
G01 X38.6988 Y98.9768
G01 X38.9168 Y99.8983
G01 X38.9232 Y99.9236
G01 X38.9288 Y99.9434
G01 X38.9392 Y99.9767
G01 X39.2364 Y100.8574
G01 X39.2483 Y100.8902
G01 X39.2559 Y100.9093
G01 X39.2661 Y100.9334
G01 X39.6438 Y101.7827
G01 X39.6587 Y101.8142
G01 X39.6679 Y101.8326
G01 X39.6803 Y101.8556
G01 X40.1353 Y102.6662
G01 X40.1530 Y102.6962
G01 X40.1639 Y102.7136
G01 X40.1784 Y102.7354
G01 X40.7117 Y103.5074
G01 X40.7343 Y103.5378
G01 X40.7561 Y103.5651
G01 X41.3530 Y104.2776
G01 X41.3799 Y104.3082
G01 X60.0574 Y124.6075
G01 X60.6359 Y125.3005
G01 X61.1328 Y126.0285
G01 X61.5571 Y126.8011
G01 X61.9043 Y127.6098
G01 X62.1849 Y128.4981
G01 X62.1941 Y128.5250
G01 X62.2006 Y128.5422
G01 X62.2120 Y128.5701
G01 X62.2207 Y128.5898
G01 X66.3829 Y137.2759
G01 X66.3993 Y137.3080
G01 X67.0823 Y138.9446
G01 X67.0967 Y138.9769
G01 X67.1137 Y139.0116
G01 X68.0014 Y140.6762
G01 X68.0187 Y140.7069
G01 X68.0293 Y140.7247
G01 X68.0435 Y140.7470
G01 X69.0785 Y142.3136
G01 X69.0986 Y142.3425
G01 X69.1109 Y142.3592
G01 X69.1271 Y142.3801
G01 X70.3044 Y143.8427
G01 X70.3213 Y143.8630
G01 X70.3350 Y143.8785
G01 X70.3590 Y143.9044
G01 X71.6683 Y145.2501
G01 X71.6870 Y145.2687
G01 X71.7021 Y145.2829
G01 X71.7284 Y145.3064
G01 X73.1582 Y146.5235
G01 X73.1855 Y146.5457
G01 X73.2019 Y146.5583
G01 X73.2233 Y146.5738
G01 X74.7609 Y147.6515
G01 X74.7902 Y147.6710
G01 X74.8077 Y147.6821
G01 X74.8304 Y147.6955
G01 X76.4623 Y148.6242
G01 X76.4933 Y148.6409
G01 X76.5118 Y148.6503
G01 X76.5357 Y148.6616
G01 X78.2474 Y149.4332
G01 X78.2717 Y149.4436
G01 X78.2909 Y149.4513
G01 X78.3240 Y149.4634
G01 X80.1005 Y150.0711
G01 X80.1268 Y150.0796
G01 X80.1475 Y150.0856
G01 X80.1652 Y150.0905
G01 X80.2009 Y150.0989
G01 X80.2312 Y150.1047
G01 X80.2674 Y150.1105
G01 X80.2856 Y150.1127
G01 X80.3163 Y150.1155
G01 X80.3529 Y150.1178
G01 X80.3713 Y150.1182
G01 X80.4021 Y150.1180
G01 X80.4296 Y150.1172
G01 X80.6427 Y150.1039
G01 X80.6853 Y150.0998
G01 X80.7090 Y150.0967
G01 X80.9031 Y150.0679
G01 X80.9303 Y150.0633
G01 X80.9606 Y150.0573
G01 X80.9875 Y150.0511
G01 X81.1778 Y150.0034
G01 X81.2133 Y149.9936
G01 X81.2340 Y149.9873
G01 X81.2602 Y149.9784
G01 X81.4535 Y149.9092
G01 X81.4907 Y149.8943
G01 X81.5244 Y149.8794
G01 X81.7100 Y149.7916
G01 X81.7456 Y149.7731
G01 X81.7697 Y149.7597
G01 X81.9537 Y149.6493
G01 X81.9873 Y149.6275
G01 X82.0174 Y149.6063
G01 X82.1824 Y149.4839
G01 X82.2137 Y149.4589
G01 X82.2415 Y149.4348
G01 X82.3937 Y149.2969
G01 X82.4136 Y149.2777
G01 X82.4415 Y149.2490
G01 X82.5795 Y149.0969
G01 X82.6035 Y149.0690
G01 X82.6286 Y149.0377
G01 X82.7510 Y148.8728
G01 X82.7670 Y148.8503
G01 X82.7842 Y148.8246
G01 X82.7988 Y148.8012
G01 X82.9043 Y148.6250
G01 X82.9237 Y148.5899
G01 X82.9402 Y148.5570
G01 X83.0280 Y148.3714
G01 X83.0438 Y148.3345
G01 X83.0570 Y148.3002
G01 X83.1262 Y148.1068
G01 X83.1383 Y148.0686
G01 X83.1458 Y148.0420
G01 X83.1958 Y147.8428
G01 X83.2038 Y147.8069
G01 X83.2111 Y147.7675
G01 X83.2413 Y147.5644
G01 X83.2449 Y147.5370
G01 X83.2486 Y147.4971
G01 X83.2594 Y147.2828
G01 X83.2602 Y147.2552
G01 X83.2603 Y147.2335
G01 X83.2594 Y147.1967
G01 X83.2567 Y147.1600
G01 X83.2534 Y147.1293
G01 X83.2480 Y147.0927
G01 X83.1945 Y127.7462
G01 X83.2007 Y127.6118
G01 X83.2160 Y127.5090
G01 X83.2414 Y127.4074
G01 X83.2767 Y127.3088
G01 X83.3215 Y127.2141
G01 X83.3754 Y127.1242
G01 X83.4378 Y127.0401
G01 X83.5081 Y126.9625
G01 X83.5858 Y126.8921
G01 X83.6699 Y126.8297
G01 X83.7598 Y126.7758
G01 X83.8545 Y126.7310
G01 X83.9531 Y126.6958
G01 X84.0547 Y126.6703
G01 X84.1583 Y126.6549
G01 X84.2402 Y126.6509
G01 X84.2630 Y126.6513
G01 X112.2639 Y126.6513
G01 X112.3093 Y126.6511
G01 X112.3369 Y126.6505
G01 X112.7290 Y126.6337
G01 X112.7584 Y126.6319
G01 X112.7911 Y126.6288
G01 X112.8203 Y126.6251
G01 X113.2087 Y126.5674
G01 X113.2449 Y126.5612
G01 X113.2662 Y126.5569
G01 X113.2931 Y126.5507
G01 X113.6739 Y126.4553
G01 X113.7094 Y126.4454
G01 X113.7301 Y126.4391
G01 X113.7563 Y126.4303
G01 X114.1259 Y126.2980
G01 X114.1517 Y126.2882
G01 X114.1718 Y126.2800
G01 X114.2054 Y126.2651
G01 X114.5603 Y126.0972
G01 X114.5932 Y126.0807
G01 X114.6123 Y126.0704
G01 X114.6362 Y126.0567
G01 X114.9730 Y125.8548
G01 X115.0041 Y125.8351
G01 X115.0221 Y125.8230
G01 X115.0445 Y125.8070
G01 X115.3599 Y125.5731
G01 X115.3817 Y125.5563
G01 X115.3985 Y125.5426
G01 X115.4264 Y125.5185
G01 X115.7173 Y125.2549
G01 X115.7439 Y125.2295
G01 X115.7592 Y125.2141
G01 X115.7781 Y125.1940
G01 X116.0418 Y124.9031
G01 X116.0658 Y124.8753
G01 X116.0795 Y124.8585
G01 X116.0964 Y124.8366
G01 X116.3303 Y124.5213
G01 X116.3463 Y124.4988
G01 X116.3584 Y124.4808
G01 X116.3781 Y124.4497
G01 X116.5799 Y124.1130
G01 X116.5981 Y124.0809
G01 X116.6082 Y124.0618
G01 X116.6205 Y124.0371
G01 X116.7883 Y123.6822
G01 X116.8033 Y123.6485
G01 X116.8115 Y123.6285
G01 X116.8213 Y123.6026
G01 X116.9535 Y123.2330
G01 X116.9624 Y123.2068
G01 X116.9713 Y123.1773
G01 X116.9785 Y123.1506
G01 X117.0739 Y122.7698
G01 X117.0820 Y122.7339
G01 X117.0862 Y122.7126
G01 X117.0907 Y122.6854
G01 X117.1483 Y122.2971
G01 X117.1528 Y122.2605
G01 X117.1549 Y122.2389
G01 X117.1567 Y122.2114
G01 X117.1760 Y121.8193
G01 X117.1771 Y121.7762
G01 X117.1771 Y29.7749
G01 X117.1760 Y29.7319
G01 X117.1567 Y29.3397
G01 X117.1540 Y29.3030
G01 X117.1519 Y29.2815
G01 X117.1483 Y29.2541
G01 X117.0907 Y28.8658
G01 X117.0844 Y28.8295
G01 X117.0801 Y28.8082
G01 X117.0739 Y28.7813
G01 X116.9785 Y28.4005
G01 X116.9687 Y28.3650
G01 X116.9566 Y28.3268
G01 X116.8213 Y27.9485
G01 X116.8080 Y27.9142
G01 X116.7997 Y27.8942
G01 X116.7883 Y27.8690
G01 X116.6205 Y27.5141
G01 X116.6039 Y27.4812
G01 X116.5846 Y27.4461
G01 X116.3733 Y27.0936
G01 X116.3515 Y27.0600
G01 X116.3303 Y27.0299
G01 X116.0964 Y26.7145
G01 X116.0795 Y26.6927
G01 X116.0658 Y26.6759
G01 X116.0418 Y26.6480
G01 X115.7781 Y26.3571
G01 X115.7528 Y26.3305
G01 X115.7241 Y26.3025
G01 X115.4264 Y26.0326
G01 X115.3985 Y26.0086
G01 X115.3817 Y25.9949
G01 X115.3599 Y25.9780
G01 X115.0445 Y25.7441
G01 X115.0221 Y25.7281
G01 X115.0041 Y25.7160
G01 X114.9730 Y25.6963
G01 X114.6283 Y25.4898
G01 X114.5932 Y25.4705
G01 X114.5603 Y25.4539
G01 X114.2054 Y25.2861
G01 X114.1718 Y25.2711
G01 X114.1517 Y25.2629
G01 X114.1259 Y25.2531
G01 X113.7563 Y25.1209
G01 X113.7213 Y25.1093
G01 X113.6828 Y25.0982
G01 X113.2931 Y25.0005
G01 X113.2572 Y24.9924
G01 X113.2359 Y24.9883
G01 X113.2087 Y24.9837
G01 X112.8203 Y24.9261
G01 X112.7929 Y24.9225
G01 X112.7622 Y24.9195
G01 X112.7347 Y24.9177
G01 X112.3425 Y24.8984
G01 X112.3057 Y24.8975
G01 X112.2749 Y24.8977
G01 X112.2565 Y24.8984
G01 X112.2198 Y24.9011
G01 X112.1891 Y24.9044
G01 X112.1708 Y24.9068
G01 X112.1526 Y24.9098
G01 X112.1245 Y24.9151
G01 X84.7316 Y24.9151
G01 X84.5720 Y24.9073
G01 X84.4354 Y24.8870
G01 X84.3013 Y24.8534
G01 X84.1713 Y24.8069
G01 X84.0464 Y24.7478
G01 X83.9278 Y24.6768
G01 X83.8169 Y24.5945
G01 X83.7145 Y24.5017
G01 X83.6217 Y24.3993
G01 X83.5394 Y24.2884
G01 X83.4684 Y24.1699
G01 X83.4093 Y24.0450
G01 X83.3628 Y23.9149
G01 X83.3292 Y23.7808
G01 X83.3097 Y23.6491
G01 X83.3025 Y23.4613
G01 X83.3010 Y4.1092
G01 X83.3006 Y4.0908
G01 X83.2990 Y4.0597
G01 X83.2880 Y3.8813
G01 X83.2851 Y3.8490
G01 X83.2816 Y3.8194
G01 X83.2559 Y3.6360
G01 X83.2519 Y3.6102
G01 X83.2465 Y3.5816
G01 X83.2409 Y3.5561
G01 X83.1984 Y3.3758
G01 X83.1920 Y3.3506
G01 X83.1840 Y3.3225
G01 X83.1761 Y3.2977
G01 X83.1142 Y3.1139
G01 X83.1009 Y3.0785
G01 X83.0911 Y3.0543
G01 X83.0126 Y2.8770
G01 X82.9978 Y2.8456
G01 X82.9886 Y2.8273
G01 X82.9762 Y2.8043
G01 X82.8816 Y2.6351
G01 X82.8620 Y2.6027
G01 X82.8430 Y2.5737
G01 X82.7330 Y2.4139
G01 X82.7229 Y2.3998
G01 X82.7052 Y2.3766
G01 X82.6889 Y2.3563
G01 X82.5703 Y2.2141
G01 X82.5474 Y2.1879
G01 X82.5335 Y2.1728
G01 X82.5154 Y2.1541
G01 X82.3779 Y2.0174
G01 X82.3502 Y1.9916
G01 X82.3305 Y1.9745
G01 X82.1811 Y1.8509
G01 X82.1607 Y1.8347
G01 X82.1443 Y1.8224
G01 X82.1161 Y1.8022
G01 X81.9557 Y1.6931
G01 X81.9237 Y1.6729
G01 X81.8937 Y1.6554
G01 X81.7240 Y1.5616
G01 X81.7008 Y1.5497
G01 X81.6667 Y1.5333
G01 X81.4890 Y1.4556
G01 X81.4650 Y1.4456
G01 X81.4459 Y1.4382
G01 X81.4131 Y1.4265
G01 X81.2290 Y1.3657
G01 X81.1927 Y1.3550
G01 X81.1590 Y1.3464
G01 X80.9786 Y1.3048
G01 X80.9445 Y1.2978
G01 X80.9244 Y1.2941
G01 X80.8986 Y1.2902
G01 X80.7150 Y1.2654
G01 X80.6948 Y1.2630
G01 X80.6664 Y1.2585
G01 X80.6174 Y1.2530
G01 X80.5807 Y1.2507
G01 X80.5498 Y1.2501
G01 X80.5130 Y1.2505
G01 X80.4763 Y1.2527
G01 X80.4455 Y1.2556
G01 X80.4273 Y1.2578
G01 X80.3909 Y1.2636
G01 X80.3606 Y1.2695
G01 X80.3248 Y1.2779
G01 X80.2950 Y1.2863
G01 X80.2687 Y1.2944
G01 X78.4839 Y1.9064
G01 X78.4511 Y1.9185
G01 X78.4159 Y1.9329
G01 X76.6963 Y2.7080
G01 X76.6725 Y2.7192
G01 X76.6539 Y2.7286
G01 X76.6229 Y2.7453
G01 X74.9836 Y3.6783
G01 X74.9509 Y3.6984
G01 X74.9216 Y3.7180
G01 X73.3842 Y4.7955
G01 X73.3628 Y4.8111
G01 X73.3464 Y4.8237
G01 X73.3190 Y4.8459
G01 X71.8894 Y6.0629
G01 X71.8696 Y6.0804
G01 X71.8544 Y6.0945
G01 X71.8293 Y6.1192
G01 X70.5201 Y7.4649
G01 X70.4961 Y7.4907
G01 X70.4824 Y7.5062
G01 X70.4655 Y7.5265
G01 X69.2882 Y8.9890
G01 X69.2668 Y9.0170
G01 X69.2546 Y9.0337
G01 X69.2397 Y9.0555
G01 X68.1952 Y10.6368
G01 X68.1755 Y10.6697
G01 X68.1626 Y10.6927
G01 X67.2791 Y12.3494
G01 X67.2633 Y12.3808
G01 X67.2545 Y12.3996
G01 X67.2439 Y12.4238
G01 X66.5654 Y14.0465
G01 X66.5538 Y14.0680
G01 X66.5416 Y14.0928
G01 X62.3467 Y22.9301
G01 X62.3356 Y22.9554
G01 X62.3239 Y22.9840
G01 X62.3115 Y23.0187
G01 X62.2989 Y23.0598
G01 X62.2895 Y23.0872
G01 X62.0088 Y23.9671
G01 X61.6612 Y24.7768
G01 X61.2372 Y25.5492
G01 X60.7408 Y26.2766
G01 X60.1619 Y26.9687
G01 X41.4803 Y47.2752
G01 X41.4597 Y47.2990
G01 X40.8628 Y48.0116
G01 X40.8463 Y48.0319
G01 X40.8339 Y48.0482
G01 X40.8134 Y48.0764
G01 X40.2852 Y48.8412
G01 X40.2707 Y48.8630
G01 X40.2552 Y48.8878
G01 X40.2420 Y48.9104
G01 X39.7871 Y49.7210
G01 X39.7747 Y49.7440
G01 X39.7654 Y49.7623
G01 X39.7505 Y49.7939
G01 X39.3728 Y50.6432
G01 X39.3594 Y50.6754
G01 X39.3520 Y50.6945
G01 X39.3432 Y50.7191
G01 X39.0460 Y51.5999
G01 X39.0380 Y51.6248
G01 X39.0323 Y51.6445
G01 X39.0235 Y51.6783
G01 X38.8094 Y52.5828
G01 X38.8038 Y52.6083
G01 X38.7999 Y52.6285
G01 X38.7943 Y52.6629
G01 X38.6628 Y53.6007
G01 X38.6592 Y53.6385
G01 X38.6575 Y53.6646
G01 X38.6143 Y54.5931
G01 X38.6133 Y54.6339
G01 X38.6133 Y62.7569
G01 X38.5991 Y63.0652
G01 X38.5592 Y63.3509
G01 X38.4932 Y63.6316
G01 X38.4015 Y63.9051
G01 X38.2850 Y64.1689
G01 X38.1447 Y64.4209
G01 X37.9817 Y64.6588
G01 X37.7975 Y64.8807
G01 X37.5935 Y65.0847
G01 X37.3716 Y65.2689
G01 X37.1337 Y65.4319
G01 X36.8817 Y65.5723
G01 X36.6179 Y65.6888
G01 X36.3444 Y65.7804
G01 X36.0637 Y65.8465
G01 X35.7780 Y65.8863
G01 X35.4420 Y65.9019
G01 X22.7504 Y65.9031
G01 X22.2728 Y65.8796
G01 X21.8210 Y65.8126
G01 X21.3780 Y65.7016
G01 X20.9479 Y65.5478
G01 X20.5351 Y65.3525
G01 X20.1433 Y65.1177
G01 X19.7765 Y64.8456
G01 X19.4381 Y64.5389
G01 X19.1314 Y64.2005
G01 X18.8593 Y63.8337
G01 X18.6245 Y63.4419
G01 X18.4292 Y63.0290
G01 X18.2753 Y62.5990
G01 X18.1644 Y62.1560
G01 X18.0974 Y61.7042
G01 X18.0756 Y61.2608
G01 X18.0764 Y61.2252
G01 X18.0764 Y45.7236
G01 X18.0757 Y45.6866
G01 X18.0638 Y45.4054
G01 X18.0613 Y45.3681
G01 X18.0592 Y45.3462
G01 X18.0558 Y45.3184
G01 X18.0160 Y45.0397
G01 X18.0118 Y45.0135
G01 X18.0062 Y44.9843
G01 X18.0004 Y44.9583
G01 X17.9345 Y44.6846
G01 X17.9254 Y44.6504
G01 X17.9141 Y44.6134
G01 X17.8198 Y44.3388
G01 X17.8075 Y44.3056
G01 X17.7997 Y44.2862
G01 X17.7892 Y44.2618
G01 X17.6730 Y44.0054
G01 X17.6576 Y43.9734
G01 X17.6396 Y43.9393
G01 X17.4954 Y43.6873
G01 X17.4770 Y43.6569
G01 X17.4658 Y43.6394
G01 X17.4508 Y43.6174
G01 X17.2833 Y43.3802
G01 X17.2600 Y43.3494
G01 X17.2376 Y43.3220
G01 X17.0542 Y43.1084
G01 X17.0366 Y43.0885
G01 X17.0223 Y43.0733
G01 X16.9974 Y43.0481
G01 X16.7947 Y42.8527
G01 X16.7686 Y42.8287
G01 X16.7393 Y42.8036
G01 X16.5122 Y42.6227
G01 X16.4911 Y42.6065
G01 X16.4742 Y42.5942
G01 X16.4449 Y42.5741
G01 X16.2017 Y42.4155
G01 X16.1687 Y42.3956
G01 X16.1377 Y42.3784
G01 X15.8884 Y42.2475
G01 X15.8647 Y42.2356
G01 X15.8458 Y42.2267
G01 X15.8133 Y42.2125
G01 X15.5363 Y42.0992
G01 X15.5084 Y42.0891
G01 X15.4832 Y42.0806
G01 X15.2053 Y41.9963
G01 X15.1712 Y41.9869
G01 X15.1336 Y41.9779
G01 X14.8490 Y41.9202
G01 X14.8141 Y41.9140
G01 X14.7935 Y41.9109
G01 X14.7671 Y41.9076
G01 X14.4872 Y41.8780
G01 X14.4518 Y41.8751
G01 X14.4133 Y41.8734
G01 X14.1229 Y41.8702
G01 X14.0875 Y41.8707
G01 X14.0666 Y41.8715
G01 X14.0401 Y41.8732
G01 X13.7596 Y41.8968
G01 X13.7243 Y41.9006
G01 X13.6861 Y41.9061
G01 X13.4003 Y41.9576
G01 X13.3656 Y41.9647
G01 X13.3453 Y41.9695
G01 X13.3195 Y41.9762
G01 X13.0485 Y42.0521
G01 X13.0146 Y42.0624
G01 X12.9781 Y42.0750
G01 X12.7071 Y42.1793
G01 X12.6824 Y42.1893
G01 X12.6633 Y42.1977
G01 X12.6312 Y42.2127
G01 X12.3713 Y42.3422
G01 X12.3374 Y42.3606
G01 X12.3069 Y42.3786
G01 X12.0678 Y42.5274
G01 X12.0455 Y42.5418
G01 X12.0283 Y42.5536
G01 X11.9996 Y42.5744
G01 X11.7612 Y42.7564
G01 X11.7301 Y42.7823
G01 X11.7099 Y42.8005
G01 X11.6918 Y42.8180
G01 X11.6682 Y42.8420
G01 X3.7062 Y51.3144
G01 X3.6869 Y51.3291
G01 X3.6726 Y51.3408
G01 X3.6560 Y51.3547
G01 X3.6354 Y51.3731
G01 X3.2414 Y51.7366
G01 X3.2149 Y51.7623
G01 X3.1997 Y51.7778
G01 X3.1809 Y51.7982
G01 X2.8245 Y52.1987
G01 X2.8067 Y52.2194
G01 X2.7933 Y52.2360
G01 X2.7711 Y52.2649
G01 X2.4552 Y52.6980
G01 X2.4345 Y52.7279
G01 X2.4228 Y52.7458
G01 X2.4085 Y52.7691
G01 X2.1360 Y53.2307
G01 X2.1183 Y53.2625
G01 X2.1003 Y53.2977
G01 X1.8699 Y53.7919
G01 X1.8588 Y53.8168
G01 X1.8507 Y53.8366
G01 X1.8377 Y53.8705
G01 X1.6593 Y54.3761
G01 X1.6507 Y54.4020
G01 X1.6445 Y54.4224
G01 X1.6349 Y54.4575
G01 X1.5062 Y54.9780
G01 X1.5002 Y55.0045
G01 X1.4960 Y55.0255
G01 X1.4899 Y55.0614
G01 X1.4122 Y55.5918
G01 X1.4078 Y55.6279
G01 X1.4058 Y55.6492
G01 X1.4039 Y55.6764
G01 X1.3776 Y56.2211
G01 X1.3769 Y56.2544
G01 X1.3769 Y95.2434
G00 X1.3769 Y95.2434
G01 F250.00
G01 Z-0.6000
G01 F2500.00
G01 X1.3779 Y95.2841
G01 X1.4028 Y95.8199
G01 X1.4054 Y95.8569
G01 X1.4076 Y95.8787
G01 X1.4111 Y95.9063
G01 X1.4889 Y96.4371
G01 X1.4933 Y96.4640
G01 X1.4974 Y96.4850
G01 X1.5053 Y96.5205
G01 X1.6363 Y97.0500
G01 X1.6471 Y97.0881
G01 X1.6584 Y97.1227
G01 X1.8370 Y97.6285
G01 X1.8466 Y97.6540
G01 X1.8546 Y97.6738
G01 X1.8692 Y97.7072
G01 X2.0959 Y98.1933
G01 X2.1079 Y98.2178
G01 X2.1178 Y98.2368
G01 X2.1355 Y98.2685
G01 X2.4083 Y98.7304
G01 X2.4275 Y98.7613
G01 X2.4393 Y98.7791
G01 X2.4550 Y98.8014
G01 X2.7821 Y99.2493
G01 X2.8068 Y99.2802
G01 X2.8246 Y99.3009
G01 X3.1812 Y99.7016
G01 X3.1997 Y99.7216
G01 X3.2147 Y99.7369
G01 X3.2408 Y99.7623
G01 X3.6346 Y100.1265
G01 X3.6541 Y100.1440
G01 X3.6699 Y100.1573
G01 X3.6992 Y100.1807
G01 X11.6810 Y108.7044
G01 X11.7094 Y108.7327
G01 X11.7365 Y108.7576
G01 X11.7648 Y108.7812
G01 X11.7891 Y108.8002
G01 X11.8190 Y108.8217
G01 X11.8344 Y108.8319
G01 X11.8604 Y108.8484
G01 X11.8768 Y108.8581
G01 X11.9971 Y108.9482
G01 X12.0184 Y108.9634
G01 X12.0354 Y108.9750
G01 X12.0574 Y108.9893
G01 X12.2982 Y109.1389
G01 X12.3287 Y109.1569
G01 X12.3626 Y109.1753
G01 X12.6243 Y109.3055
G01 X12.6564 Y109.3205
G01 X12.6756 Y109.3289
G01 X12.7002 Y109.3389
G01 X12.9648 Y109.4406
G01 X12.9982 Y109.4525
G01 X13.0349 Y109.4642
G01 X13.3165 Y109.5429
G01 X13.3422 Y109.5496
G01 X13.3712 Y109.5563
G01 X13.3972 Y109.5614
G01 X13.6762 Y109.6116
G01 X13.7025 Y109.6158
G01 X13.7231 Y109.6186
G01 X13.7584 Y109.6224
G01 X14.0497 Y109.6467
G01 X14.0882 Y109.6486
G01 X14.1237 Y109.6490
G01 X14.4071 Y109.6459
G01 X14.4425 Y109.6447
G01 X14.4634 Y109.6434
G01 X14.4899 Y109.6411
G01 X14.7717 Y109.6112
G01 X14.8069 Y109.6066
G01 X14.8449 Y109.6003
G01 X15.1314 Y109.5422
G01 X15.1574 Y109.5365
G01 X15.1776 Y109.5314
G01 X15.2118 Y109.5219
G01 X15.4830 Y109.4396
G01 X15.5167 Y109.4285
G01 X15.5363 Y109.4215
G01 X15.5611 Y109.4118
G01 X15.8234 Y109.3042
G01 X15.8558 Y109.2900
G01 X15.8906 Y109.2733
G01 X16.1494 Y109.1374
G01 X16.1727 Y109.1246
G01 X16.1907 Y109.1141
G01 X16.2209 Y109.0954
G01 X16.4582 Y108.9405
G01 X16.4875 Y108.9204
G01 X16.5043 Y108.9082
G01 X16.5254 Y108.8920
G01 X16.7471 Y108.7153
G01 X16.7743 Y108.6926
G01 X16.8030 Y108.6668
G01 X17.0134 Y108.4639
G01 X17.0322 Y108.4451
G01 X17.0466 Y108.4300
G01 X17.0703 Y108.4036
G01 X17.2549 Y108.1885
G01 X17.2773 Y108.1610
G01 X17.2901 Y108.1445
G01 X17.3058 Y108.1231
G01 X17.4692 Y107.8915
G01 X17.4889 Y107.8620
G01 X17.5093 Y107.8292
G01 X17.6545 Y107.5756
G01 X17.6673 Y107.5523
G01 X17.6769 Y107.5337
G01 X17.6923 Y107.5018
G01 X17.8092 Y107.2436
G01 X17.8231 Y107.2110
G01 X17.8307 Y107.1915
G01 X17.8398 Y107.1666
G01 X17.9319 Y106.8985
G01 X17.9426 Y106.8647
G01 X17.9530 Y106.8275
G01 X18.0215 Y106.5433
G01 X18.0272 Y106.5174
G01 X18.0312 Y106.4969
G01 X18.0370 Y106.4619
G01 X18.0771 Y106.1813
G01 X18.0804 Y106.1549
G01 X18.0824 Y106.1342
G01 X18.0849 Y106.0988
G01 X18.0983 Y105.8157
G01 X18.0993 Y105.7742
G01 X18.0993 Y90.2752
G01 X18.0985 Y90.2404
G01 X18.1177 Y89.8495
G01 X18.1847 Y89.3977
G01 X18.2957 Y88.9547
G01 X18.4495 Y88.5246
G01 X18.6448 Y88.1118
G01 X18.8796 Y87.7200
G01 X19.1517 Y87.3532
G01 X19.4584 Y87.0148
G01 X19.7968 Y86.7081
G01 X20.1636 Y86.4360
G01 X20.5554 Y86.2012
G01 X20.9683 Y86.0059
G01 X21.3983 Y85.8520
G01 X21.8413 Y85.7411
G01 X22.2931 Y85.6741
G01 X22.6890 Y85.6546
G01 X22.7139 Y85.6555
G01 X22.7323 Y85.6557
G01 X35.3663 Y85.6074
G01 X35.3939 Y85.6068
G01 X35.4350 Y85.6044
G01 X35.6690 Y85.6159
G01 X35.9720 Y85.6608
G01 X36.2693 Y85.7353
G01 X36.5578 Y85.8385
G01 X36.8348 Y85.9695
G01 X37.0976 Y86.1271
G01 X37.3437 Y86.3096
G01 X37.5708 Y86.5154
G01 X37.7765 Y86.7424
G01 X37.9591 Y86.9885
G01 X38.1166 Y87.2513
G01 X38.2476 Y87.5283
G01 X38.3508 Y87.8168
G01 X38.4253 Y88.1141
G01 X38.4702 Y88.4172
G01 X38.4864 Y88.7458
G01 X38.5067 Y96.8687
G01 X38.5076 Y96.9037
G01 X38.5068 Y96.9341
G01 X38.5070 Y96.9650
G01 X38.5507 Y97.9119
G01 X38.5524 Y97.9380
G01 X38.5543 Y97.9585
G01 X38.5583 Y97.9931
G01 X38.6875 Y98.9137
G01 X38.6916 Y98.9395
G01 X38.6988 Y98.9768
G01 X38.9168 Y99.8983
G01 X38.9232 Y99.9236
G01 X38.9288 Y99.9434
G01 X38.9392 Y99.9767
G01 X39.2364 Y100.8574
G01 X39.2483 Y100.8902
G01 X39.2559 Y100.9093
G01 X39.2661 Y100.9334
G01 X39.6438 Y101.7827
G01 X39.6587 Y101.8142
G01 X39.6679 Y101.8326
G01 X39.6803 Y101.8556
G01 X40.1353 Y102.6662
G01 X40.1530 Y102.6962
G01 X40.1639 Y102.7136
G01 X40.1784 Y102.7354
G01 X40.7117 Y103.5074
G01 X40.7343 Y103.5378
G01 X40.7561 Y103.5651
G01 X41.3530 Y104.2776
G01 X41.3799 Y104.3082
G01 X60.0574 Y124.6075
G01 X60.6359 Y125.3005
G01 X61.1328 Y126.0285
G01 X61.5571 Y126.8011
G01 X61.9043 Y127.6098
G01 X62.1849 Y128.4981
G01 X62.1941 Y128.5250
G01 X62.2006 Y128.5422
G01 X62.2120 Y128.5701
G01 X62.2207 Y128.5898
G01 X66.3829 Y137.2759
G01 X66.3993 Y137.3080
G01 X67.0823 Y138.9446
G01 X67.0967 Y138.9769
G01 X67.1137 Y139.0116
G01 X68.0014 Y140.6762
G01 X68.0187 Y140.7069
G01 X68.0293 Y140.7247
G01 X68.0435 Y140.7470
G01 X69.0785 Y142.3136
G01 X69.0986 Y142.3425
G01 X69.1109 Y142.3592
G01 X69.1271 Y142.3801
G01 X70.3044 Y143.8427
G01 X70.3213 Y143.8630
G01 X70.3350 Y143.8785
G01 X70.3590 Y143.9044
G01 X71.6683 Y145.2501
G01 X71.6870 Y145.2687
G01 X71.7021 Y145.2829
G01 X71.7284 Y145.3064
G01 X73.1582 Y146.5235
G01 X73.1855 Y146.5457
G01 X73.2019 Y146.5583
G01 X73.2233 Y146.5738
G01 X74.7609 Y147.6515
G01 X74.7902 Y147.6710
G01 X74.8077 Y147.6821
G01 X74.8304 Y147.6955
G01 X76.4623 Y148.6242
G01 X76.4933 Y148.6409
G01 X76.5118 Y148.6503
G01 X76.5357 Y148.6616
G01 X78.2474 Y149.4332
G01 X78.2717 Y149.4436
G01 X78.2909 Y149.4513
G01 X78.3240 Y149.4634
G01 X80.1005 Y150.0711
G01 X80.1268 Y150.0796
G01 X80.1475 Y150.0856
G01 X80.1652 Y150.0905
G01 X80.2009 Y150.0989
G01 X80.2312 Y150.1047
G01 X80.2674 Y150.1105
G01 X80.2856 Y150.1127
G01 X80.3163 Y150.1155
G01 X80.3529 Y150.1178
G01 X80.3713 Y150.1182
G01 X80.4021 Y150.1180
G01 X80.4296 Y150.1172
G01 X80.6427 Y150.1039
G01 X80.6853 Y150.0998
G01 X80.7090 Y150.0967
G01 X80.9031 Y150.0679
G01 X80.9303 Y150.0633
G01 X80.9606 Y150.0573
G01 X80.9875 Y150.0511
G01 X81.1778 Y150.0034
G01 X81.2133 Y149.9936
G01 X81.2340 Y149.9873
G01 X81.2602 Y149.9784
G01 X81.4535 Y149.9092
G01 X81.4907 Y149.8943
G01 X81.5244 Y149.8794
G01 X81.7100 Y149.7916
G01 X81.7456 Y149.7731
G01 X81.7697 Y149.7597
G01 X81.9537 Y149.6493
G01 X81.9873 Y149.6275
G01 X82.0174 Y149.6063
G01 X82.1824 Y149.4839
G01 X82.2137 Y149.4589
G01 X82.2415 Y149.4348
G01 X82.3937 Y149.2969
G01 X82.4136 Y149.2777
G01 X82.4415 Y149.2490
G01 X82.5795 Y149.0969
G01 X82.6035 Y149.0690
G01 X82.6286 Y149.0377
G01 X82.7510 Y148.8728
G01 X82.7670 Y148.8503
G01 X82.7842 Y148.8246
G01 X82.7988 Y148.8012
G01 X82.9043 Y148.6250
G01 X82.9237 Y148.5899
G01 X82.9402 Y148.5570
G01 X83.0280 Y148.3714
G01 X83.0438 Y148.3345
G01 X83.0570 Y148.3002
G01 X83.1262 Y148.1068
G01 X83.1383 Y148.0686
G01 X83.1458 Y148.0420
G01 X83.1958 Y147.8428
G01 X83.2038 Y147.8069
G01 X83.2111 Y147.7675
G01 X83.2413 Y147.5644
G01 X83.2449 Y147.5370
G01 X83.2486 Y147.4971
G01 X83.2594 Y147.2828
G01 X83.2602 Y147.2552
G01 X83.2603 Y147.2335
G01 X83.2594 Y147.1967
G01 X83.2567 Y147.1600
G01 X83.2534 Y147.1293
G01 X83.2480 Y147.0927
G01 X83.1945 Y127.7462
G01 X83.2007 Y127.6118
G01 X83.2160 Y127.5090
G01 X83.2414 Y127.4074
G01 X83.2767 Y127.3088
G01 X83.3215 Y127.2141
G01 X83.3754 Y127.1242
G01 X83.4378 Y127.0401
G01 X83.5081 Y126.9625
G01 X83.5858 Y126.8921
G01 X83.6699 Y126.8297
G01 X83.7598 Y126.7758
G01 X83.8545 Y126.7310
G01 X83.9531 Y126.6958
G01 X84.0547 Y126.6703
G01 X84.1583 Y126.6549
G01 X84.2402 Y126.6509
G01 X84.2630 Y126.6513
G01 X112.2639 Y126.6513
G01 X112.3093 Y126.6511
G01 X112.3369 Y126.6505
G01 X112.7290 Y126.6337
G01 X112.7584 Y126.6319
G01 X112.7911 Y126.6288
G01 X112.8203 Y126.6251
G01 X113.2087 Y126.5674
G01 X113.2449 Y126.5612
G01 X113.2662 Y126.5569
G01 X113.2931 Y126.5507
G01 X113.6739 Y126.4553
G01 X113.7094 Y126.4454
G01 X113.7301 Y126.4391
G01 X113.7563 Y126.4303
G01 X114.1259 Y126.2980
G01 X114.1517 Y126.2882
G01 X114.1718 Y126.2800
G01 X114.2054 Y126.2651
G01 X114.5603 Y126.0972
G01 X114.5932 Y126.0807
G01 X114.6123 Y126.0704
G01 X114.6362 Y126.0567
G01 X114.9730 Y125.8548
G01 X115.0041 Y125.8351
G01 X115.0221 Y125.8230
G01 X115.0445 Y125.8070
G01 X115.3599 Y125.5731
G01 X115.3817 Y125.5563
G01 X115.3985 Y125.5426
G01 X115.4264 Y125.5185
G01 X115.7173 Y125.2549
G01 X115.7439 Y125.2295
G01 X115.7592 Y125.2141
G01 X115.7781 Y125.1940
G01 X116.0418 Y124.9031
G01 X116.0658 Y124.8753
G01 X116.0795 Y124.8585
G01 X116.0964 Y124.8366
G01 X116.3303 Y124.5213
G01 X116.3463 Y124.4988
G01 X116.3584 Y124.4808
G01 X116.3781 Y124.4497
G01 X116.5799 Y124.1130
G01 X116.5981 Y124.0809
G01 X116.6082 Y124.0618
G01 X116.6205 Y124.0371
G01 X116.7883 Y123.6822
G01 X116.8033 Y123.6485
G01 X116.8115 Y123.6285
G01 X116.8213 Y123.6026
G01 X116.9535 Y123.2330
G01 X116.9624 Y123.2068
G01 X116.9713 Y123.1773
G01 X116.9785 Y123.1506
G01 X117.0739 Y122.7698
G01 X117.0820 Y122.7339
G01 X117.0862 Y122.7126
G01 X117.0907 Y122.6854
G01 X117.1483 Y122.2971
G01 X117.1528 Y122.2605
G01 X117.1549 Y122.2389
G01 X117.1567 Y122.2114
G01 X117.1760 Y121.8193
G01 X117.1771 Y121.7762
G01 X117.1771 Y29.7749
G01 X117.1760 Y29.7319
G01 X117.1567 Y29.3397
G01 X117.1540 Y29.3030
G01 X117.1519 Y29.2815
G01 X117.1483 Y29.2541
G01 X117.0907 Y28.8658
G01 X117.0844 Y28.8295
G01 X117.0801 Y28.8082
G01 X117.0739 Y28.7813
G01 X116.9785 Y28.4005
G01 X116.9687 Y28.3650
G01 X116.9566 Y28.3268
G01 X116.8213 Y27.9485
G01 X116.8080 Y27.9142
G01 X116.7997 Y27.8942
G01 X116.7883 Y27.8690
G01 X116.6205 Y27.5141
G01 X116.6039 Y27.4812
G01 X116.5846 Y27.4461
G01 X116.3733 Y27.0936
G01 X116.3515 Y27.0600
G01 X116.3303 Y27.0299
G01 X116.0964 Y26.7145
G01 X116.0795 Y26.6927
G01 X116.0658 Y26.6759
G01 X116.0418 Y26.6480
G01 X115.7781 Y26.3571
G01 X115.7528 Y26.3305
G01 X115.7241 Y26.3025
G01 X115.4264 Y26.0326
G01 X115.3985 Y26.0086
G01 X115.3817 Y25.9949
G01 X115.3599 Y25.9780
G01 X115.0445 Y25.7441
G01 X115.0221 Y25.7281
G01 X115.0041 Y25.7160
G01 X114.9730 Y25.6963
G01 X114.6283 Y25.4898
G01 X114.5932 Y25.4705
G01 X114.5603 Y25.4539
G01 X114.2054 Y25.2861
G01 X114.1718 Y25.2711
G01 X114.1517 Y25.2629
G01 X114.1259 Y25.2531
G01 X113.7563 Y25.1209
G01 X113.7213 Y25.1093
G01 X113.6828 Y25.0982
G01 X113.2931 Y25.0005
G01 X113.2572 Y24.9924
G01 X113.2359 Y24.9883
G01 X113.2087 Y24.9837
G01 X112.8203 Y24.9261
G01 X112.7929 Y24.9225
G01 X112.7622 Y24.9195
